P2
# Broad directional bristle mask with ragged edge
256 256
255
0 0 0 0 0 0 0 0 0 0 0 0 0 0 0 0 0 0 0 0 0 0 0 0 0 0 0 0 0 0 0 0
0 0 0 0 0 0 0 0 0 0 0 0 0 0 0 0 0 0 0 0 0 0 0 0 0 0 0 0 0 0 0 0
0 0 0 0 0 0 0 0 0 0 0 0 0 0 0 0 0 0 0 0 0 0 0 0 0 0 0 0 0 0 0 0
0 0 0 0 0 0 0 0 0 0 0 0 0 0 0 0 0 0 0 0 0 1 1 2 2 3 3 0 3 2 5 5
4 5 5 4 5 3 3 2 0 2 0 0 0 0 0 0 0 0 0 0 0 0 0 0 0 0 0 0 0 0 0 0
0 0 0 0 0 0 0 0 0 0 0 0 0 0 0 0 0 0 0 0 0 0 0 0 0 0 0 0 0 0 0 0
0 0 0 0 0 0 0 0 0 0 0 0 0 0 0 0 0 0 0 0 0 0 0 0 0 0 0 0 0 0 0 0
0 0 0 0 0 0 0 0 0 0 0 0 0 0 0 0 0 0 0 0 0 0 0 0 0 0 0 0 0 0 0 0
0 0 0 0 0 0 0 0 0 0 0 0 0 0 0 0 0 0 0 0 0 0 0 0 0 0 0 0 0 0 0 0
0 0 0 0 0 0 0 0 0 0 0 0 0 0 0 0 0 0 0 0 0 0 0 0 0 0 0 0 0 0 0 0
0 0 0 0 0 0 0 0 0 0 0 0 0 0 0 0 0 0 0 0 0 0 0 0 0 0 0 0 0 0 0 0
0 0 0 0 0 0 0 0 0 0 0 0 0 1 3 3 2 9 0 1 5 11 10 11 7 13 1 10 9 5 16 16
13 16 17 15 17 11 13 9 1 15 5 13 8 3 10 8 6 2 0 0 0 0 0 0 0 0 0 0 0 0 0 0
0 0 0 0 0 0 0 0 0 0 0 0 0 0 0 0 0 0 0 0 0 0 0 0 0 0 0 0 0 0 0 0
0 0 0 0 0 0 0 0 0 0 0 0 0 0 0 0 0 0 0 0 0 0 0 0 0 0 0 0 0 0 0 0
0 0 0 0 0 0 0 0 0 0 0 0 0 0 0 0 0 0 0 0 0 0 0 0 0 0 0 0 0 0 0 0
0 0 0 0 0 0 0 0 0 0 0 0 0 0 0 0 0 0 0 0 0 0 0 0 0 0 0 0 0 0 0 0
0 0 0 0 0 0 0 0 0 0 0 0 0 0 0 0 0 0 0 0 0 0 0 0 0 0 0 0 0 0 0 0
0 0 0 0 0 0 0 0 0 0 0 0 0 0 0 0 0 0 0 0 0 0 0 0 0 0 0 0 0 0 0 0
0 0 0 0 0 0 0 2 2 4 3 5 10 11 12 9 5 22 1 18 10 22 18 20 13 23 17 18 15 8 27 28
23 27 29 25 29 20 22 16 2 27 10 27 17 6 24 22 19 8 1 11 7 6 3 2 1 0 0 0 0 0 0 0
0 0 0 0 0 0 0 0 0 0 0 0 0 0 0 0 0 0 0 0 0 0 0 0 0 0 0 0 0 0 0 0
0 0 0 0 0 0 0 0 0 0 0 0 0 0 0 0 0 0 0 0 0 0 0 0 0 0 0 0 0 0 0 0
0 0 0 0 0 0 0 0 0 0 0 0 0 0 0 0 0 0 0 0 0 0 0 0 0 0 0 0 0 0 0 0
0 0 0 0 0 0 0 0 0 0 0 0 0 0 0 0 0 0 0 0 0 0 0 0 0 0 0 0 0 0 0 0
0 0 0 0 0 0 0 0 0 0 0 0 0 0 0 0 0 0 0 0 0 0 0 0 0 0 0 0 0 0 0 0
0 0 0 0 0 0 0 0 0 0 0 0 0 0 0 0 0 0 0 0 0 0 0 0 0 0 0 0 0 0 0 0
0 0 0 3 5 9 9 2 8 10 8 11 21 20 21 15 9 34 1 28 15 31 27 28 18 32 23 25 21 12 38 39
32 39 42 36 42 28 32 23 3 40 15 40 26 9 38 5 5 14 2 21 16 15 9 9 8 9 5 2 2 0 0 0
0 0 0 0 0 0 0 0 0 0 0 0 0 0 0 0 0 0 0 0 0 0 0 0 0 0 0 0 0 0 0 0
0 0 0 0 0 0 0 0 0 0 0 0 0 0 0 0 0 0 0 0 0 0 0 0 0 0 0 0 0 0 0 0
0 0 0 0 0 0 0 0 0 0 0 0 0 0 0 0 0 0 0 0 0 0 0 0 0 0 0 0 0 0 0 0
0 0 0 0 0 0 0 0 0 0 0 0 0 0 0 0 0 0 0 0 0 0 0 0 0 0 0 0 0 0 0 0
0 0 0 0 0 0 0 0 0 0 0 0 0 0 0 0 0 0 0 0 0 0 0 0 0 0 0 0 0 0 0 0
0 0 0 0 0 0 0 0 0 0 0 0 0 0 0 0 0 0 0 0 0 0 0 0 0 0 0 0 0 0 0 2
5 9 5 12 15 22 18 30 14 17 13 17 31 29 30 21 12 46 2 37 20 41 35 36 23 42 30 32 27 15 49 51
42 51 55 47 54 37 43 31 5 54 20 53 34 12 52 48 44 20 4 31 24 24 16 16 14 18 2 5 10 9 3 0
2 0 0 0 0 0 0 0 0 0 0 0 0 0 0 0 0 0 0 0 0 0 0 0 0 0 0 0 0 0 0 0
0 0 0 0 0 0 0 0 0 0 0 0 0 0 0 0 0 0 0 0 0 0 0 0 0 0 0 0 0 0 0 0
0 0 0 0 0 0 0 0 0 0 0 0 0 0 0 0 0 0 0 0 0 0 0 0 0 0 0 0 0 0 0 0
0 0 0 0 0 0 0 0 0 0 0 0 0 0 0 0 0 0 0 0 0 0 0 0 0 0 0 0 0 0 0 0
0 0 0 0 0 0 0 0 0 0 0 0 0 0 0 0 0 0 0 0 0 0 0 0 0 0 0 0 0 0 0 0
0 0 0 0 0 0 0 0 0 0 0 0 0 0 0 0 0 0 0 0 0 0 0 0 0 0 0 1 2 5 4 9
13 21 10 22 25 35 27 45 21 24 18 23 41 38 38 27 15 58 2 45 25 50 42 45 28 51 37 40 33 19 61 63
53 63 68 59 68 46 53 38 6 67 25 67 43 15 66 61 56 26 5 41 32 32 21 22 21 26 19 8 18 17 6 1
11 6 2 5 0 0 0 0 0 0 0 0 0 0 0 0 0 0 0 0 0 0 0 0 0 0 0 0 0 0 0 0
0 0 0 0 0 0 0 0 0 0 0 0 0 0 0 0 0 0 0 0 0 0 0 0 0 0 0 0 0 0 0 0
0 0 0 0 0 0 0 0 0 0 0 0 0 0 0 0 0 0 0 0 0 0 0 0 0 0 0 0 0 0 0 0
0 0 0 0 0 0 0 0 0 0 0 0 0 0 0 0 0 0 0 0 0 0 0 0 0 0 0 0 0 0 0 0
0 0 0 0 0 0 0 0 0 0 0 0 0 0 0 0 0 0 0 0 0 0 0 0 0 0 0 0 0 0 0 0
0 0 0 0 0 0 0 0 0 0 0 0 0 0 0 0 0 0 0 0 0 0 0 0 1 3 1 8 5 12 8 17
21 32 15 31 36 49 37 59 27 31 22 28 51 47 47 32 19 69 3 54 29 59 50 53 33 61 44 47 40 22 73 76
63 76 82 71 81 55 64 46 7 80 30 80 52 18 80 74 68 32 6 50 40 40 27 29 27 35 26 11 26 26 10 2
19 13 4 16 2 8 6 3 0 0 0 0 0 0 0 0 0 0 0 0 0 0 0 0 0 0 0 0 0 0 0 0
0 0 0 0 0 0 0 0 0 0 0 0 0 0 0 0 0 0 0 0 0 0 0 0 0 0 0 0 0 0 0 0
0 0 0 0 0 0 0 0 0 0 0 0 0 0 0 0 0 0 0 0 0 0 0 0 0 0 0 0 0 0 0 0
0 0 0 0 0 0 0 0 0 0 0 0 0 0 0 0 0 0 0 0 0 0 0 0 0 0 0 0 0 0 0 0
0 0 0 0 0 0 0 0 0 0 0 0 0 0 0 0 0 0 0 0 0 0 0 0 0 0 0 0 0 0 0 0
0 0 0 0 0 0 0 0 0 0 0 0 0 0 0 0 0 0 0 0 0 2 0 1 7 7 2 15 9 19 13 24
30 45 20 41 46 63 47 74 33 6 27 34 60 56 55 38 22 80 3 62 34 68 57 61 6 70 51 55 46 26 85 89
74 89 96 83 95 65 75 54 8 93 35 93 60 21 93 86 79 37 7 59 47 48 33 35 34 44 33 14 34 35 13 3
28 19 7 27 4 17 18 14 10 1 0 0 0 0 0 0 0 0 0 0 0 0 0 0 0 0 0 0 0 0 0 0
0 0 0 0 0 0 0 0 0 0 0 0 0 0 0 0 0 0 0 0 0 0 0 0 0 0 0 0 0 0 0 0
0 0 0 0 0 0 0 0 0 0 0 0 0 0 0 0 0 0 0 0 0 0 0 0 0 0 0 0 0 0 0 0
0 0 0 0 0 0 0 0 0 0 0 0 0 0 0 0 0 0 0 0 0 0 0 0 0 0 0 0 0 0 0 0
0 0 0 0 0 0 0 0 0 0 0 0 0 0 0 0 0 0 0 0 0 0 0 0 0 0 0 0 0 0 0 0
0 0 0 0 0 0 0 0 0 0 0 0 0 0 0 0 0 0 1 4 3 2 11 13 12 11 3 22 13 26 17 32
39 57 25 8 57 77 57 89 40 45 32 40 70 64 63 43 3 91 32 70 38 77 65 8 44 80 58 63 6 30 98 103
85 103 111 96 110 74 86 62 76 107 40 106 69 24 105 98 90 42 63 68 54 8 38 5 40 52 40 17 42 44 17 28
37 26 9 38 6 26 29 25 21 14 13 9 5 0 0 0 0 0 0 0 0 0 0 0 0 0 0 0 0 0 0 0
0 0 0 0 0 0 0 0 0 0 0 0 0 0 0 0 0 0 0 0 0 0 0 0 0 0 0 0 0 0 0 0
0 0 0 0 0 0 0 0 0 0 0 0 0 0 0 0 0 0 0 0 0 0 0 0 0 0 0 0 0 0 0 0
0 0 0 0 0 0 0 0 0 0 0 0 0 0 0 0 0 0 0 0 0 0 0 0 0 0 0 0 0 0 0 0
0 0 0 0 0 0 0 0 0 0 0 0 0 0 0 0 0 0 0 0 0 0 0 0 0 0 0 0 0 0 0 0
0 0 0 0 0 0 0 0 0 0 0 0 0 0 0 0 3 6 8 12 6 18 18 20 18 16 4 30 17 34 22 41
49 70 31 62 68 91 66 104 46 52 36 45 79 72 70 48 3 101 35 77 42 85 72 9 49 89 65 71 7 34 111 117
97 18 126 108 124 84 97 70 85 120 45 119 77 27 118 109 101 47 71 76 61 62 43 6 46 61 47 20 50 54 3 35
46 33 12 50 8 36 41 37 33 22 24 19 14 1 1 1 0 0 0 0 0 0 0 0 0 0 0 0 0 0 0 0
0 0 0 0 0 0 0 0 0 0 0 0 0 0 0 0 0 0 0 0 0 0 0 0 0 0 0 0 0 0 0 0
0 0 0 0 0 0 0 0 0 0 0 0 0 0 0 0 0 0 0 0 0 0 0 0 0 0 0 0 0 0 0 0
0 0 0 0 0 0 0 0 0 0 0 0 0 0 0 0 0 0 0 0 0 0 0 0 0 0 0 0 0 0 0 0
0 0 0 0 0 0 0 0 0 0 0 0 0 0 0 0 0 0 0 0 0 0 0 0 0 0 0 0 0 0 0 0
0 0 0 0 0 0 0 0 0 0 0 0 0 0 3 5 11 13 15 20 8 26 24 27 23 21 5 37 21 41 26 49
58 83 36 73 79 105 11 118 52 59 41 51 88 80 78 53 4 110 38 85 46 93 79 10 54 99 73 79 8 38 19 131
109 132 142 121 139 94 108 77 94 133 50 131 85 30 130 121 111 52 78 85 68 70 48 6 52 70 54 24 59 63 24 42
56 41 15 62 10 45 53 49 44 31 34 29 23 2 2 3 3 5 1 0 0 0 0 0 0 0 0 0 0 0 0 0
0 0 0 0 0 0 0 0 0 0 0 0 0 0 0 0 0 0 0 0 0 0 0 0 0 0 0 0 0 0 0 0
0 0 0 0 0 0 0 0 0 0 0 0 0 0 0 0 0 0 0 0 0 0 0 0 0 0 0 0 0 0 0 0
0 0 0 0 0 0 0 0 0 0 0 0 0 0 0 0 0 0 0 0 0 0 0 0 0 0 0 0 0 0 0 0
0 0 0 0 0 0 0 0 0 0 0 0 0 0 0 0 0 0 0 0 0 0 0 0 0 0 0 0 0 0 0 0
0 0 0 0 0 0 0 0 0 0 0 0 7 4 9 10 18 20 21 28 11 34 31 33 29 25 6 45 25 49 31 58
68 97 42 84 91 119 86 133 58 66 45 56 97 88 85 58 4 120 42 92 50 101 86 11 59 109 81 88 9 43 139 146
122 146 157 135 154 104 119 85 104 146 54 144 92 32 141 131 120 57 85 92 74 77 54 7 59 79 61 27 68 11 29 49
66 48 17 74 12 55 66 61 56 40 45 39 32 3 4 5 6 2 10 6 1 0 0 0 0 0 0 0 0 0 0 0
0 0 0 0 0 0 0 0 0 0 0 0 0 0 0 0 0 0 0 0 0 0 0 0 0 0 0 0 0 0 0 0
0 0 0 0 0 0 0 0 0 0 0 0 0 0 0 0 0 0 0 0 0 0 0 0 0 0 0 0 0 0 0 0
0 0 0 0 0 0 0 0 0 0 0 0 0 0 0 0 0 0 0 0 0 0 0 0 0 0 0 0 0 0 0 0
0 0 0 0 0 0 0 0 0 0 0 0 0 0 0 0 0 0 0 0 0 0 0 0 0 0 0 0 0 0 0 0
0 0 0 0 0 0 0 0 0 1 7 2 18 8 15 16 4 26 27 35 14 42 38 40 34 30 8 53 30 58 36 67
78 111 47 95 102 133 96 148 64 72 50 61 105 95 91 62 4 129 45 99 54 110 93 12 65 120 89 96 10 47 154 162
134 162 173 148 169 114 130 93 113 158 59 155 100 35 152 141 130 61 92 100 81 83 59 8 65 88 68 5 77 83 33 57
76 56 20 87 14 65 78 72 67 48 55 48 41 4 5 7 9 25 18 16 7 5 2 0 0 0 0 0 0 0 0 0
0 0 0 0 0 0 0 0 0 0 0 0 0 0 0 0 0 0 0 0 0 0 0 0 0 0 0 0 0 0 0 0
0 0 0 0 0 0 0 0 0 0 0 0 0 0 0 0 0 0 0 0 0 0 0 0 0 0 0 0 0 0 0 0
0 0 0 0 0 0 0 0 0 0 0 0 0 0 0 0 0 0 0 0 0 0 0 0 0 0 0 0 0 0 0 0
0 0 0 0 0 0 0 0 0 0 0 0 0 0 0 0 0 0 0 0 0 0 0 0 0 0 0 0 0 0 0 0
0 0 0 0 0 0 0 2 5 4 17 4 28 11 21 20 32 33 33 43 17 50 44 47 40 35 9 62 34 66 41 76
89 125 8 106 114 148 106 162 70 78 54 66 113 102 98 67 4 138 48 106 58 118 101 13 70 130 97 106 11 52 169 178
147 177 190 24 28 124 141 101 122 171 63 167 107 37 163 151 139 65 99 107 87 90 64 8 71 97 76 34 86 94 37 65
87 64 23 15 17 76 90 84 78 57 66 58 50 4 6 9 12 34 27 24 2 11 6 6 1 0 0 0 0 0 0 0
0 0 0 0 0 0 0 0 0 0 0 0 0 0 0 0 0 0 0 0 0 0 0 0 0 0 0 0 0 0 0 0
0 0 0 0 0 0 0 0 0 0 0 0 0 0 0 0 0 0 0 0 0 0 0 0 0 0 0 0 0 0 0 0
0 0 0 0 0 0 0 0 0 0 0 0 0 0 0 0 0 0 0 0 0 0 0 0 0 0 0 0 0 0 0 0
0 0 0 0 0 0 0 0 0 0 0 0 0 0 0 0 0 0 0 0 0 0 0 0 0 0 0 0 0 0 0 0
0 0 0 0 0 2 10 6 10 7 26 6 38 14 26 25 39 39 39 50 19 57 51 54 46 40 10 70 39 75 47 85
99 140 59 117 125 162 116 176 76 85 58 70 121 109 104 71 5 146 51 113 62 126 108 14 76 141 16 115 12 56 184 194
24 193 206 176 200 134 152 108 131 183 68 178 114 40 173 161 148 69 105 115 93 97 69 9 78 106 84 37 96 105 41 73
98 72 26 113 19 86 103 96 90 65 76 67 59 1 7 11 14 43 34 33 17 17 11 12 5 5 3 0 0 0 0 0
0 0 0 0 0 0 0 0 0 0 0 0 0 0 0 0 0 0 0 0 0 0 0 0 0 0 0 0 0 0 0 0
0 0 0 0 0 0 0 0 0 0 0 0 0 0 0 0 0 0 0 0 0 0 0 0 0 0 0 0 0 0 0 0
0 0 0 0 0 0 0 0 0 0 0 0 0 0 0 0 0 0 0 0 0 0 0 0 0 0 0 0 0 0 0 0
0 0 0 0 0 0 0 0 0 0 0 0 0 0 0 0 0 0 0 0 0 0 0 0 0 0 0 0 0 0 0 0
0 0 0 3 1 6 22 10 2 10 35 8 47 17 32 30 46 45 45 57 22 65 58 62 52 46 11 79 44 84 52 95
110 154 65 128 137 176 125 190 82 91 62 75 128 115 110 75 5 154 54 119 66 134 116 15 82 153 114 124 13 61 199 209
173 207 222 189 214 144 163 116 140 195 72 189 121 6 183 170 156 73 111 122 99 104 74 10 84 116 92 41 106 116 46 12
109 80 29 126 21 96 115 108 101 74 86 76 67 6 8 13 17 51 42 41 22 23 16 19 9 11 10 2 2 0 0 0
0 0 0 0 0 0 0 0 0 0 0 0 0 0 0 0 0 0 0 0 0 0 0 0 0 0 0 0 0 0 0 0
0 0 0 0 0 0 0 0 0 0 0 0 0 0 0 0 0 0 0 0 0 0 0 0 0 0 0 0 0 0 0 0
0 0 0 0 0 0 0 0 0 0 0 0 0 0 0 0 0 0 0 0 0 0 0 0 0 0 0 0 0 0 0 0
0 0 0 0 0 0 0 0 0 0 0 0 0 0 0 0 0 0 0 0 0 0 0 0 0 0 0 0 0 0 0 0
0 1 7 15 18 10 33 14 21 12 43 10 56 20 37 34 52 51 51 64 25 73 65 69 58 51 106 11 48 93 7 105
121 169 71 140 148 190 135 203 87 96 8 79 135 122 116 79 5 160 55 122 67 137 118 127 83 155 115 15 108 62 202 212
175 210 224 190 216 144 164 117 141 197 73 192 124 43 190 21 164 77 117 129 105 110 79 11 91 126 100 5 116 128 51 89
120 89 32 140 23 106 128 120 112 82 96 85 75 56 78 15 20 60 49 49 26 29 20 26 13 2 18 5 10 6 1 0
0 0 0 0 0 0 0 0 0 0 0 0 0 0 0 0 0 0 0 0 0 0 0 0 0 0 0 0 0 0 0 0
0 0 0 0 0 0 0 0 0 0 0 0 0 0 0 0 0 0 0 0 0 0 0 0 0 0 0 0 0 0 0 0
0 0 0 0 0 0 0 0 0 0 0 0 0 0 0 0 0 0 0 0 0 0 0 0 0 0 0 0 0 0 0 0
0 0 0 0 0 0 0 0 0 0 0 0 0 0 0 0 0 0 0 0 0 0 0 0 0 0 0 0 0 0 0 1
2 7 16 26 28 15 44 18 26 15 52 12 65 23 41 38 58 57 57 71 28 81 72 77 65 57 117 12 54 103 8 115
132 184 77 151 159 204 144 217 93 102 8 82 138 18 116 78 5 158 55 121 67 136 118 128 84 157 117 15 110 63 205 216
178 212 226 192 217 145 164 116 140 195 72 190 122 43 187 21 162 77 119 132 109 117 84 11 98 136 108 6 19 140 56 98
132 97 36 153 25 117 140 132 123 13 105 94 83 63 87 17 22 67 56 57 31 35 25 32 17 3 26 7 17 13 9 3
0 0 0 0 0 0 0 0 0 0 0 0 0 0 0 0 0 0 0 0 0 0 0 0 0 0 0 0 0 0 0 0
0 0 0 0 0 0 0 0 0 0 0 0 0 0 0 0 0 0 0 0 0 0 0 0 0 0 0 0 0 0 0 0
0 0 0 0 0 0 0 0 0 0 0 0 0 0 0 0 0 0 0 0 0 0 0 0 0 0 0 0 0 0 0 0
0 0 0 0 0 0 0 0 0 0 0 0 0 0 0 0 0 0 0 0 0 0 0 0 0 0 0 0 0 0 2 10
4 13 25 37 38 19 55 22 31 3 60 13 74 26 46 43 64 63 62 78 30 89 79 85 71 62 129 13 59 112 8 125
144 199 83 162 170 217 151 223 94 102 8 81 136 18 114 76 5 156 54 120 66 136 118 129 85 159 119 16 112 64 209 219
180 215 228 193 218 145 164 116 21 194 71 188 120 42 184 21 159 76 117 130 108 116 85 12 102 144 117 6 138 152 61 107
144 106 39 167 28 127 152 143 134 98 114 102 90 68 95 19 24 75 63 10 36 40 29 39 20 3 34 10 25 21 16 8
5 3 0 0 0 0 0 0 0 0 0 0 0 0 0 0 0 0 0 0 0 0 0 0 0 0 0 0 0 0 0 0
0 0 0 0 0 0 0 0 0 0 0 0 0 0 0 0 0 0 0 0 0 0 0 0 0 0 0 0 0 0 0 0
0 0 0 0 0 0 0 0 0 0 0 0 0 0 0 0 0 0 0 0 0 0 0 0 0 0 0 0 0 0 0 0
0 0 0 0 0 0 0 0 0 0 0 0 0 0 0 0 0 0 0 0 0 0 0 0 0 0 0 0 2 4 7 21
6 19 34 48 48 23 66 26 36 20 67 15 82 29 51 47 70 69 68 13 33 98 87 93 78 68 142 14 64 122 9 135
155 214 88 25 173 217 150 222 93 15 8 80 134 119 112 75 5 154 54 119 66 137 119 130 86 161 121 16 114 65 212 222
182 217 230 194 218 145 163 115 139 192 71 185 119 41 181 20 157 75 115 129 108 116 85 12 103 146 119 7 145 163 66 116
156 115 42 181 30 137 165 154 144 16 123 110 97 74 104 20 27 82 70 72 40 46 34 46 24 4 42 13 33 29 24 13
10 11 8 0 0 0 0 0 0 0 0 0 0 0 0 0 0 0 0 0 0 0 0 0 0 0 0 0 0 0 0 0
0 0 0 0 0 0 0 0 0 0 0 0 0 0 0 0 0 0 0 0 0 0 0 0 0 0 0 0 0 0 0 0
0 0 0 0 0 0 0 0 0 0 0 0 0 0 0 0 0 0 0 0 0 0 0 0 0 0 0 0 0 0 0 0
0 0 0 0 0 0 0 0 0 0 0 0 0 0 0 0 0 0 0 0 0 0 0 0 0 0 0 5 12 10 13 31
9 24 43 59 57 27 77 29 40 22 75 16 90 31 55 51 76 75 74 93 36 107 95 101 86 75 154 15 70 133 10 142
160 216 88 169 173 216 149 220 92 99 8 79 132 117 110 74 5 152 53 119 10 137 120 131 87 164 123 16 116 66 215 225
28 33 35 195 219 145 163 115 137 190 70 183 117 41 178 20 154 74 114 128 107 116 85 12 104 148 121 7 147 166 67 120
25 124 45 195 32 147 177 166 155 113 132 118 104 79 17 22 29 90 11 79 44 52 38 52 28 1 50 16 42 37 32 19
16 19 17 0 3 0 0 0 0 0 0 0 0 0 0 0 0 0 0 0 0 0 0 0 0 0 0 0 0 0 0 0
0 0 0 0 0 0 0 0 0 0 0 0 0 0 0 0 0 0 0 0 0 0 0 0 0 0 0 0 0 0 0 0
0 0 0 0 0 0 0 0 0 0 0 0 0 0 0 0 0 0 0 0 0 0 0 0 0 0 0 0 0 0 0 0
0 0 0 0 0 0 0 0 0 0 0 0 0 0 0 0 0 0 0 0 0 0 0 0 0 1 3 2 22 15 18 41
11 30 52 70 67 31 87 33 45 25 82 18 97 34 9 54 82 80 80 100 39 116 103 110 93 81 168 17 11 137 10 144
161 218 88 169 173 216 148 218 91 98 8 77 130 115 108 73 5 23 53 118 66 138 121 133 88 166 19 16 118 67 218 228
186 221 233 196 219 145 162 114 136 188 69 180 115 40 175 20 152 73 113 127 107 116 85 12 16 22 123 7 150 169 68 122
167 125 46 203 34 158 188 176 165 120 140 125 111 84 119 4 31 97 83 87 49 57 6 59 5 6 59 19 50 45 41 24
21 26 4 1 9 7 3 0 0 0 0 0 0 0 0 0 0 0 0 0 0 0 0 0 0 0 0 0 0 0 0 0
0 0 0 0 0 0 0 0 0 0 0 0 0 0 0 0 0 0 0 0 0 0 0 0 0 0 0 0 0 0 0 0
0 0 0 0 0 0 0 0 0 0 0 0 0 0 0 0 0 0 0 0 0 0 0 0 0 0 0 0 0 0 0 0
0 0 0 0 0 0 0 0 0 0 0 0 0 0 0 0 0 0 0 0 0 0 0 0 4 5 7 21 31 20 23 51
14 36 61 81 76 5 97 36 49 27 89 19 104 36 64 58 87 86 86 108 42 125 17 119 101 13 173 17 75 139 10 145
163 219 89 169 173 214 147 216 90 97 8 76 127 113 107 72 5 149 52 118 66 138 122 134 89 169 19 17 120 10 221 230
188 223 234 196 219 144 161 113 135 186 68 177 113 39 172 19 150 72 112 126 106 116 86 2 107 23 125 7 152 171 69 124
25 127 47 204 34 160 196 187 174 127 148 132 117 89 126 25 33 103 89 94 53 63 47 66 37 7 68 22 59 54 49 30
27 34 36 1 15 14 14 5 0 0 0 0 0 0 0 0 0 0 0 0 0 0 0 0 0 0 0 0 0 0 0 0
0 0 0 0 0 0 0 0 0 0 0 0 0 0 0 0 0 0 0 0 0 0 0 0 0 0 0 0 0 0 0 0
0 0 0 0 0 0 0 0 0 0 0 0 0 0 0 0 0 0 0 0 0 0 0 0 0 0 0 0 0 0 0 0
0 0 0 0 0 0 0 0 0 0 0 0 0 0 0 0 0 0 0 0 0 0 1 5 9 10 11 29 42 26 29 62
16 42 70 92 85 39 107 40 53 29 95 21 111 39 68 62 93 92 91 116 45 134 118 19 102 87 176 17 76 141 10 147
164 220 89 168 172 213 146 214 89 95 8 75 125 111 105 71 5 148 52 118 67 139 123 136 91 172 129 17 122 69 224 233
190 224 235 29 219 144 160 112 134 183 67 175 111 39 169 19 148 71 111 125 106 116 86 12 108 154 127 7 155 174 70 125
171 128 47 205 35 160 195 186 177 132 156 139 19 94 133 26 35 110 95 101 9 69 8 73 41 7 77 25 69 63 58 35
32 6 46 1 20 22 24 13 6 2 0 0 0 0 0 0 0 0 0 0 0 0 0 0 0 0 0 0 0 0 0 0
0 0 0 0 0 0 0 0 0 0 0 0 0 0 0 0 0 0 0 0 0 0 0 0 0 0 0 0 0 0 0 0
0 0 0 0 0 0 0 0 0 0 0 0 0 0 0 0 0 0 0 0 0 0 0 0 0 0 0 0 0 0 0 0
0 0 0 0 0 0 0 0 0 0 0 0 0 0 0 0 0 0 0 0 0 2 6 11 15 14 15 1 52 31 34 72
2 48 78 102 94 43 116 43 57 31 102 22 14 41 72 10 99 98 98 124 47 137 120 126 104 89 179 145 77 142 85 148
165 220 89 25 171 212 145 211 88 94 62 74 123 13 103 70 39 147 52 118 67 141 15 138 92 174 131 144 124 70 227 236
192 225 236 197 219 143 159 111 132 181 66 172 13 38 166 156 146 70 110 125 106 117 87 102 110 157 129 60 158 177 71 127
21 129 47 25 35 160 194 22 176 131 156 142 129 99 139 28 37 116 101 108 62 74 57 81 45 8 87 3 9 72 67 41
38 51 7 13 26 29 34 21 11 7 0 0 0 0 0 0 0 0 0 0 0 0 0 0 0 0 0 0 0 0 0 0
0 0 0 0 0 0 0 0 0 0 0 0 0 0 0 0 0 0 0 0 0 0 0 0 0 0 0 0 0 0 0 0
0 0 0 0 0 0 0 0 0 0 0 0 0 0 0 0 0 0 0 0 0 0 0 0 0 0 0 0 0 0 0 0
0 0 0 0 0 0 0 0 0 0 0 0 0 0 0 0 0 0 0 1 4 6 2 17 21 18 19 6 62 37 40 83
3 53 13 113 15 46 125 46 61 33 108 23 15 43 76 69 105 103 101 125 48 139 122 128 106 90 182 147 12 144 86 149
165 221 89 168 170 210 143 209 87 93 61 72 121 13 102 69 6 146 52 119 67 142 15 140 94 177 134 147 126 11 230 238
193 227 237 197 218 143 158 110 130 178 65 169 13 37 164 154 144 70 109 125 107 117 88 104 111 159 131 61 160 180 72 129
21 130 48 25 35 160 193 3 174 129 154 140 127 100 145 29 39 123 108 115 66 80 61 88 50 9 96 4 11 81 76 47
44 59 8 15 31 36 44 28 17 12 4 4 0 0 0 0 0 0 0 0 0 0 0 0 0 0 0 0 0 0 0 0
0 0 0 0 0 0 0 0 0 0 0 0 0 0 0 0 0 0 0 0 0 0 0 0 0 0 0 0 0 0 0 0
0 0 0 0 0 0 0 0 0 0 0 0 0 0 0 0 0 0 0 0 0 0 0 0 0 0 0 0 0 0 0 0
0 0 0 0 0 0 0 0 0 0 0 0 0 0 0 0 0 0 2 6 9 10 17 22 27 23 23 7 73 42 45 93
3 59 95 123 111 50 133 49 65 35 113 24 16 46 80 73 107 103 101 126 48 141 124 130 108 92 185 150 79 145 86 150
166 221 89 167 169 208 142 206 85 91 60 71 119 13 101 68 39 145 52 119 68 22 15 142 95 180 136 149 19 72 232 240
194 227 237 196 217 142 157 109 129 176 64 166 13 37 161 152 142 69 109 125 107 118 89 105 113 162 133 62 163 182 73 130
21 131 48 25 34 159 192 22 172 127 151 138 125 98 142 29 40 129 114 122 71 86 67 96 55 10 106 4 12 91 85 53
50 67 9 17 37 43 54 36 22 17 7 9 4 0 0 0 0 0 0 0 0 0 0 0 0 0 0 0 0 0 0 0
0 0 0 0 0 0 0 0 0 0 0 0 0 0 0 0 0 0 0 0 0 0 0 0 0 0 0 0 0 0 0 0
0 0 0 0 0 0 0 0 0 0 0 0 0 0 0 0 0 0 0 0 0 0 0 0 0 0 0 0 0 0 0 0
0 0 0 0 0 0 0 0 0 0 0 0 0 0 0 0 0 2 6 12 14 14 22 29 33 28 27 8 84 48 51 104
3 65 103 132 119 53 142 52 68 37 119 26 16 47 80 72 107 103 102 127 49 143 126 132 109 93 188 152 80 147 87 151
166 221 88 166 168 206 140 203 84 90 59 70 117 13 99 68 38 145 52 120 69 145 16 144 97 28 138 151 129 73 235 36
195 228 237 196 216 141 155 108 127 173 63 164 12 36 159 150 141 69 109 125 108 119 90 107 115 165 136 63 165 185 74 131
21 131 48 25 34 158 191 22 170 126 149 136 123 96 140 29 39 130 119 129 76 92 72 104 59 11 117 5 13 101 95 59
56 76 10 20 6 50 63 6 27 22 10 13 7 0 3 0 0 0 0 0 0 0 0 0 0 0 0 0 0 0 0 0
0 0 0 0 0 0 0 0 0 0 0 0 0 0 0 0 0 0 0 0 0 0 0 0 0 0 0 0 0 0 0 0
0 0 0 0 0 0 0 0 0 0 0 0 0 0 0 0 0 0 0 0 0 0 0 0 0 0 0 0 0 0 0 0
0 0 0 0 0 0 0 0 0 0 0 0 0 0 0 0 4 6 10 18 20 18 27 35 40 32 31 9 95 54 56 114
3 70 111 142 127 56 150 54 72 38 124 26 17 47 80 72 107 104 102 128 50 145 128 134 111 95 191 154 81 148 88 151
167 221 88 165 166 204 138 200 83 88 58 69 115 12 98 67 38 145 52 121 69 147 16 147 98 187 140 154 131 74 237 243
196 228 237 195 215 139 154 106 125 170 62 161 12 36 157 148 140 68 109 125 108 121 91 108 117 167 138 64 168 187 75 133
21 132 48 25 34 157 189 21 168 124 147 133 121 95 138 28 39 129 118 132 80 99 77 112 65 12 128 5 14 111 105 66
62 84 12 22 48 57 73 50 32 27 12 17 10 0 8 5 0 0 0 0 0 0 0 0 0 0 0 0 0 0 0 0
0 0 0 0 0 0 0 0 0 0 0 0 0 0 0 0 0 0 0 0 0 0 0 0 0 0 0 0 0 0 0 0
0 0 0 0 0 0 0 0 0 0 0 0 0 0 0 0 0 0 0 0 0 0 0 0 0 0 0 0 0 0 0 0
0 0 0 0 0 0 0 0 0 0 0 0 0 0 1 5 10 11 14 24 25 23 5 41 46 37 35 10 106 59 62 124
4 75 119 151 134 59 157 57 75 40 125 26 16 46 79 72 107 104 103 130 50 148 130 137 113 96 193 155 82 149 88 152
167 220 88 164 165 202 136 197 81 87 57 68 114 12 97 67 38 145 53 122 70 149 16 149 100 190 142 156 132 75 239 245
197 229 236 194 213 138 152 105 123 168 61 24 12 35 155 146 139 68 109 126 109 122 93 110 119 170 140 65 170 190 76 134
22 132 48 25 34 156 188 21 166 122 145 131 119 93 136 28 39 128 118 132 80 102 82 121 70 13 139 6 16 121 115 72
68 93 13 25 54 64 82 57 37 32 14 22 13 1 12 11 6 1 0 0 0 0 0 0 0 0 0 0 0 0 0 0
0 0 0 0 0 0 0 0 0 0 0 0 0 0 0 0 0 0 0 0 0 0 0 0 0 0 0 0 0 0 0 0
0 0 0 0 0 0 0 0 0 0 0 0 0 0 0 0 0 0 0 0 0 0 0 0 0 0 0 0 0 0 0 0
0 0 0 0 0 0 0 0 0 0 0 0 0 0 7 11 15 15 19 31 31 27 39 48 53 42 40 11 116 65 67 135
4 80 127 159 142 62 164 59 76 39 123 26 16 46 79 71 107 105 104 131 51 150 132 139 115 98 196 157 82 150 88 152
167 220 87 163 163 199 134 194 80 85 56 67 112 12 96 66 38 145 53 123 71 151 16 152 102 193 145 158 134 75 240 246
197 229 236 193 212 137 150 103 122 165 60 156 12 34 153 145 138 68 109 127 110 123 94 112 121 173 142 66 173 192 76 135
22 133 48 25 34 155 186 21 164 120 142 129 117 92 134 28 38 127 117 132 81 103 83 126 75 14 150 6 17 132 125 78
74 101 14 27 59 71 91 64 42 36 17 26 16 1 16 17 11 4 2 0 0 0 0 0 0 0 0 0 0 0 0 0
0 0 0 0 0 0 0 0 0 0 0 0 0 0 0 0 0 0 0 0 0 0 0 0 0 0 0 0 0 0 0 0
0 0 0 0 0 0 0 0 0 0 0 0 0 0 0 0 0 0 0 0 0 0 0 0 0 0 0 0 0 0 0 0
0 0 0 0 0 0 0 0 0 0 0 0 1 1 12 2 21 19 23 37 36 32 45 55 60 47 44 12 127 71 73 144
4 85 134 168 148 65 168 59 74 38 121 25 16 46 78 72 107 106 106 133 52 153 134 141 117 99 198 159 83 151 89 152
167 219 87 161 162 197 132 191 79 13 55 66 111 12 96 66 38 146 53 124 72 154 17 154 104 196 147 160 135 76 242 247
197 228 235 192 210 135 148 102 120 162 59 153 12 34 151 144 138 68 109 128 112 125 95 114 123 176 145 67 175 194 77 135
22 133 48 25 34 154 184 21 161 118 140 127 115 90 132 27 38 127 117 133 81 104 84 128 77 15 162 6 18 142 135 85
81 110 15 4 64 77 100 71 47 40 19 29 19 1 21 23 16 6 7 2 0 0 0 0 0 0 0 0 0 0 0 0
0 0 0 0 0 0 0 0 0 0 0 0 0 0 0 0 0 0 0 0 0 0 0 0 0 0 0 0 0 0 0 0
0 0 0 0 0 0 0 0 0 0 0 0 0 0 0 0 0 0 0 0 0 0 0 0 0 0 0 0 0 0 0 0
0 0 0 0 0 0 0 0 0 0 0 2 0 10 18 21 27 23 28 44 42 37 51 61 67 52 6 111 138 76 78 154
5 90 141 176 154 10 165 58 73 38 119 25 132 45 78 72 13 107 107 135 53 155 137 144 119 100 201 161 10 152 89 152
166 26 86 160 24 194 16 188 77 82 54 65 13 98 95 66 38 147 54 126 73 19 140 19 105 199 149 19 16 77 243 248
197 228 234 191 208 134 146 100 118 160 58 151 96 34 150 143 137 68 13 129 113 127 97 116 125 179 147 68 177 196 78 136
182 16 7 204 34 152 182 170 159 117 138 125 113 89 16 27 38 127 117 133 82 105 86 16 78 15 167 57 163 153 145 91
87 14 136 32 69 83 108 77 51 45 21 33 22 9 25 3 21 9 12 7 3 0 0 0 0 0 0 0 0 0 0 0
0 0 0 0 0 0 0 0 0 0 0 0 0 0 0 0 0 0 0 0 0 0 0 0 0 0 0 0 0 0 0 0
0 0 0 0 0 0 0 0 0 0 0 0 0 0 0 0 0 0 0 0 0 0 0 0 0 0 0 0 0 0 0 0
0 0 0 0 0 0 0 0 0 0 3 6 1 14 23 27 33 28 33 51 48 41 57 68 74 57 6 120 149 82 83 163
5 95 147 178 151 64 162 57 72 37 118 25 131 45 78 72 13 108 108 137 54 158 139 146 120 102 203 162 10 153 89 152
166 26 85 158 158 191 15 185 76 81 53 64 13 98 95 66 38 148 54 127 74 19 143 19 107 202 151 20 17 77 244 248
197 227 232 189 206 132 144 99 116 157 57 148 95 33 148 142 137 68 13 130 114 129 98 118 127 182 149 69 179 198 78 137
183 16 48 203 33 151 179 167 156 115 135 123 112 88 15 27 37 126 118 134 83 107 87 16 79 15 169 58 170 164 155 98
93 15 145 34 74 89 116 83 55 48 23 37 24 10 28 4 26 12 16 11 7 0 0 0 0 0 0 0 0 0 0 0
0 0 0 0 0 0 0 0 0 0 0 0 0 0 0 0 0 0 0 0 0 0 0 0 0 0 0 0 0 0 0 0
0 0 0 0 0 0 0 0 0 0 0 0 0 0 0 0 0 0 0 0 0 0 0 0 0 0 0 0 0 0 0 0
0 0 0 0 0 0 0 0 0 3 8 9 1 18 29 33 39 33 37 58 55 46 64 76 81 63 7 129 160 87 88 173
5 98 147 26 149 63 160 56 71 37 116 24 130 45 78 72 13 109 110 139 54 161 141 148 122 103 205 163 10 153 89 152
165 26 85 156 156 188 15 182 75 80 53 63 13 97 94 66 38 149 55 129 75 19 145 19 109 205 153 20 17 78 245 248
197 226 231 28 203 130 142 15 114 154 8 146 93 33 147 142 137 69 13 132 116 131 100 120 129 185 151 70 181 199 79 137
183 16 48 202 33 149 177 165 154 113 133 121 110 87 15 27 37 126 118 135 84 108 88 16 80 15 172 59 172 167 163 104
99 16 154 36 79 95 124 89 9 52 25 40 27 11 32 5 31 15 21 15 11 1 4 0 0 0 0 0 0 0 0 0
0 0 0 0 0 0 0 0 0 0 0 0 0 0 0 0 0 0 0 0 0 0 0 0 0 0 0 0 0 0 0 0
0 0 0 0 0 0 0 0 0 0 0 0 0 0 0 0 0 0 0 0 0 0 0 0 0 0 0 0 0 0 0 0
0 0 0 0 0 0 0 0 4 7 12 12 1 23 35 38 45 37 43 65 61 52 70 83 88 68 7 139 170 92 93 181
5 97 145 26 147 62 157 55 70 36 115 24 129 45 79 73 13 111 111 142 55 163 144 151 124 104 207 164 10 154 89 151
164 26 84 154 153 186 15 179 11 78 52 62 13 96 94 66 39 151 56 131 76 20 148 20 110 208 154 3 17 78 246 248
196 225 229 186 201 129 140 96 112 152 55 144 14 33 146 142 137 69 14 133 118 133 102 122 131 188 153 70 183 201 79 138
183 2 47 200 33 147 175 162 151 17 131 119 108 85 15 26 37 127 119 136 85 110 90 16 82 16 175 60 174 169 165 107
105 17 164 38 84 101 132 94 63 56 27 43 29 12 36 5 35 18 26 20 16 1 8 5 0 0 0 0 0 0 0 0
0 0 0 0 0 0 0 0 0 0 0 0 0 0 0 0 0 0 0 0 0 0 0 0 0 0 0 0 0 0 0 0
0 0 0 0 0 0 0 0 0 0 0 0 0 0 0 0 0 0 0 0 0 0 0 0 0 0 0 0 0 0 0 0
0 0 0 0 0 0 0 1 9 11 17 15 1 27 41 44 51 42 48 73 68 57 77 90 95 73 8 148 181 98 97 182
5 96 143 171 145 61 154 54 69 36 114 24 129 45 79 73 13 112 113 144 56 166 146 153 125 105 209 166 10 154 89 151
163 25 83 152 23 183 15 176 72 77 51 62 13 96 94 66 39 152 56 133 78 20 150 20 112 210 156 20 17 78 246 248
196 223 227 184 198 127 138 94 110 149 54 21 91 32 146 142 138 70 14 135 120 135 104 124 133 190 155 71 184 202 80 138
183 16 47 199 32 146 172 160 149 109 129 117 107 85 15 26 37 127 120 138 86 111 91 17 83 16 177 60 176 170 166 108
106 18 172 40 88 106 139 100 67 59 29 46 31 13 40 6 40 20 31 24 20 2 13 11 4 0 0 0 0 0 0 0
0 0 0 0 0 0 0 0 0 0 0 0 0 0 0 0 0 0 0 0 0 0 0 0 0 0 0 0 0 0 0 0
0 0 0 0 0 0 0 0 0 0 0 0 0 0 0 0 0 0 0 0 0 0 0 0 0 0 0 0 0 0 0 0
0 0 0 0 0 0 5 1 13 15 21 19 1 31 47 50 58 47 53 80 74 62 84 98 103 78 8 23 191 100 97 180
5 95 141 168 142 60 152 53 68 35 113 4 129 45 79 74 14 114 115 146 57 169 148 155 127 106 211 166 10 154 89 150
162 25 82 150 149 180 14 173 71 76 51 61 13 96 94 67 39 154 57 135 79 20 153 20 113 213 158 20 17 79 246 247
195 222 225 182 196 125 135 93 108 147 54 140 90 32 145 142 139 70 14 137 121 137 105 126 135 193 157 72 186 203 80 138
182 16 47 197 32 144 170 157 146 107 127 17 105 84 15 26 37 128 121 140 87 113 93 17 85 16 180 61 178 172 167 108
106 18 177 42 92 112 146 105 70 63 30 49 33 15 43 7 45 23 36 29 25 2 18 17 9 7 0 0 0 0 0 0
0 0 0 0 0 0 0 0 0 0 0 0 0 0 0 0 0 0 0 0 0 0 0 0 0 0 0 0 0 0 0 0
0 0 0 0 0 0 0 0 0 0 0 0 0 0 0 0 0 0 0 0 0 0 0 0 0 0 0 0 0 0 0 0
0 0 0 0 0 3 11 2 17 19 25 22 2 36 53 56 10 53 59 88 81 68 91 105 110 83 9 166 194 100 96 179
5 94 139 166 140 59 149 52 67 35 17 24 129 45 80 75 14 115 117 149 58 171 150 157 128 107 212 167 10 154 89 149
160 25 12 148 147 177 14 170 70 75 50 60 12 96 95 67 40 156 9 137 80 21 155 21 115 215 159 21 17 79 246 247
194 220 223 179 193 123 133 91 106 145 53 138 90 32 145 142 140 71 14 139 123 140 107 128 137 196 159 73 187 204 12 138
182 16 46 195 32 142 167 155 144 105 125 114 104 83 15 26 37 129 122 141 88 115 94 17 86 16 182 62 180 173 168 108
106 18 176 43 96 117 152 110 74 66 32 52 5 16 7 7 50 26 41 34 30 2 23 24 14 13 1 0 0 0 0 0
0 0 0 0 0 0 0 0 0 0 0 0 0 0 0 0 0 0 0 0 0 0 0 0 0 0 0 0 0 0 0 0
0 0 0 0 0 0 0 0 0 0 0 0 0 0 0 0 0 0 0 0 0 0 0 0 0 0 0 0 0 0 0 0
0 0 0 0 5 6 16 2 21 22 29 4 2 40 59 63 71 58 64 96 88 73 98 113 117 89 9 166 193 100 96 177
5 92 137 163 138 58 147 51 66 34 111 24 129 45 12 76 14 117 119 151 59 174 153 159 130 108 213 168 2 153 88 148
159 25 80 146 22 174 14 167 69 74 50 60 12 96 95 68 40 158 59 140 82 21 158 21 116 218 160 21 17 79 246 245
192 218 220 177 190 121 131 90 105 142 52 137 89 32 145 143 141 72 14 141 125 142 109 130 139 198 161 73 188 205 80 138
181 16 46 193 31 140 164 152 142 104 123 112 103 82 15 26 38 130 123 143 90 117 96 18 87 17 185 63 181 174 168 108
106 18 175 42 96 120 159 114 77 69 34 8 38 17 50 8 55 29 46 38 35 3 28 30 19 20 1 4 0 0 0 0
0 0 0 0 0 0 0 0 0 0 0 0 0 0 0 0 0 0 0 0 0 0 0 0 0 0 0 0 0 0 0 0
0 0 0 0 0 0 0 0 0 0 0 0 0 0 0 0 0 0 0 0 0 0 0 0 0 0 0 0 0 0 0 0
0 0 0 6 1 9 21 22 25 26 34 3 17 45 8 8 78 63 70 104 95 79 105 14 125 92 78 166 193 99 95 21
5 91 135 160 20 57 145 51 65 34 110 24 19 46 81 77 118 119 121 154 9 177 155 161 131 109 214 168 86 153 88 147
157 202 79 144 142 171 114 20 68 73 49 9 104 96 96 68 41 161 7 142 83 179 160 178 118 33 162 173 143 79 245 244
191 216 218 175 187 119 129 88 103 140 51 136 89 32 146 144 142 73 120 143 128 145 13 132 141 201 162 74 189 25 80 137
180 129 5 23 31 137 162 22 139 102 121 111 102 82 123 26 38 131 125 145 91 119 97 148 89 141 187 63 183 175 169 108
105 147 174 42 95 119 162 118 10 72 35 58 40 2 54 70 60 4 51 43 40 3 33 37 24 27 16 8 4 0 0 0
0 0 0 0 0 0 0 0 0 0 0 0 0 0 0 0 0 0 0 0 0 0 0 0 0 0 0 0 0 0 0 0
0 0 0 0 0 0 0 0 0 0 0 0 0 0 0 0 0 0 0 0 0 0 0 0 0 0 0 0 0 0 0 0
0 0 4 11 2 11 25 26 29 29 38 4 19 50 9 9 86 69 76 113 103 84 112 15 128 92 78 166 192 98 94 21
5 90 133 158 133 56 21 50 64 34 110 24 130 46 82 78 120 121 123 157 61 179 157 162 132 110 215 168 86 152 87 146
156 200 78 142 140 168 112 19 67 72 49 59 103 96 96 69 41 163 7 144 85 181 162 180 119 222 163 174 144 79 244 243
28 214 32 172 184 117 127 87 102 138 51 135 88 32 146 145 144 11 122 146 130 147 13 134 143 203 164 74 190 25 80 137
179 128 5 23 30 135 159 147 137 100 119 109 101 81 123 26 38 132 126 148 93 121 99 151 90 143 189 64 184 176 169 108
105 146 172 42 93 117 159 119 10 74 37 60 42 2 57 75 64 4 56 48 45 4 38 44 29 35 22 12 7 5 0 0
0 0 0 0 0 0 0 0 0 0 0 0 0 0 0 0 0 0 0 0 0 0 0 0 0 0 0 0 0 0 0 0
0 0 0 0 0 0 0 0 0 0 0 0 0 0 0 0 0 0 0 0 0 0 0 0 0 0 0 0 0 0 0 0
0 2 9 16 2 14 30 30 33 5 42 4 21 55 9 10 93 75 82 121 110 90 119 16 129 93 78 25 191 98 93 21
5 88 131 155 131 55 140 49 64 34 110 24 130 46 83 79 122 123 125 159 62 182 159 164 133 110 216 168 85 152 87 144
154 197 76 139 137 165 111 19 66 72 48 59 104 97 97 70 42 166 7 147 86 184 165 182 120 223 164 174 144 78 243 241
188 211 212 170 181 115 125 85 100 137 50 20 88 32 147 146 145 75 124 148 132 149 14 136 145 205 165 75 191 25 80 136
178 127 5 22 30 133 156 145 135 99 118 108 101 81 123 27 38 134 128 150 94 123 101 153 91 145 29 64 185 176 169 108
105 145 171 41 92 115 157 117 10 77 38 63 44 2 61 80 10 5 62 54 50 4 44 51 34 42 28 17 11 10 6 0
0 0 0 0 0 0 0 0 0 0 0 0 0 0 0 0 0 0 0 0 0 0 0 0 0 0 0 0 0 0 0 0
0 0 0 0 0 0 0 0 0 0 0 0 0 0 0 0 0 0 0 0 0 0 0 0 0 0 0 0 0 0 0 0
2 5 13 21 3 17 35 34 37 36 47 5 23 60 10 11 101 81 88 130 118 96 121 16 130 93 78 165 190 97 92 20
5 87 129 153 129 54 21 49 63 34 110 24 131 47 84 80 124 125 127 162 63 184 160 166 134 111 216 168 85 151 86 143
152 194 75 137 135 163 109 19 66 71 48 59 104 98 98 71 43 168 8 149 87 187 167 184 121 225 164 174 144 78 242 239
186 209 209 167 178 113 123 84 99 135 50 133 88 32 148 147 147 76 126 151 134 152 14 137 147 207 166 75 191 25 80 136
176 125 5 22 29 131 154 142 133 98 116 107 100 81 123 27 39 135 130 152 96 125 102 156 93 146 193 65 186 177 169 108
104 22 169 41 91 114 154 115 10 76 39 65 46 2 65 86 75 5 68 59 55 5 49 58 40 50 34 21 15 16 12 3
0 0 0 0 0 0 0 0 0 0 0 0 0 0 0 0 0 0 0 0 0 0 0 0 0 0 0 0 0 0 0 0
0 0 0 0 0 0 0 0 0 0 0 0 0 0 0 0 0 0 0 0 0 0 0 0 0 0 0 0 0 0 0 3
5 8 17 26 3 19 39 38 41 40 51 5 25 65 11 12 109 87 95 139 124 97 122 16 130 93 78 164 189 96 91 20
5 86 126 150 127 53 137 48 63 33 110 24 132 47 86 81 126 127 129 164 64 187 162 167 135 111 216 168 85 150 85 141
150 191 74 135 133 160 107 19 65 71 48 59 104 98 15 72 43 171 8 152 89 190 169 186 122 226 165 175 143 78 240 237
184 206 206 164 176 111 121 83 97 134 50 133 88 32 149 149 149 77 128 23 136 154 14 139 148 209 167 75 191 25 79 135
175 124 5 22 29 129 151 140 131 96 115 107 100 81 124 27 39 137 132 155 97 127 104 158 94 148 194 65 186 177 169 107
103 143 167 40 90 112 151 17 1 75 39 68 48 3 68 91 80 5 73 64 61 5 55 65 45 57 40 25 19 21 19 8
3 0 0 0 0 0 0 0 0 0 0 0 0 0 0 0 0 0 0 0 0 0 0 0 0 0 0 0 0 0 0 0
0 0 0 0 0 0 0 0 0 0 0 0 0 0 0 0 0 0 0 0 0 0 0 0 0 0 0 0 0 0 2 8
7 10 21 31 4 21 43 42 45 44 56 6 27 11 12 2 117 93 101 22 126 98 123 16 130 93 78 163 187 95 90 20
5 84 124 148 125 53 135 48 9 33 110 24 134 48 87 83 128 130 131 167 65 189 164 168 135 111 216 167 84 149 84 140
148 189 73 132 131 157 106 18 64 70 48 59 105 99 101 73 44 174 8 154 90 192 171 188 123 227 165 175 143 78 238 235
181 203 203 162 173 109 119 81 96 132 49 132 88 32 151 151 151 78 130 156 139 157 14 141 150 210 168 76 191 25 79 134
173 122 5 21 28 127 149 138 129 95 114 106 99 81 124 27 40 139 134 157 99 129 106 160 95 149 196 66 187 177 168 107
103 141 165 40 88 110 149 111 9 74 38 67 50 3 72 97 86 6 79 70 67 6 61 72 51 65 46 30 23 27 26 12
9 1 0 0 0 0 0 0 0 0 0 0 0 0 0 0 0 0 0 0 0 0 0 0 0 0 0 0 0 0 0 0
0 0 0 0 0 0 0 0 0 0 0 0 0 0 0 0 0 0 0 0 0 0 0 0 0 0 0 0 0 1 7 13
10 13 25 35 4 24 48 46 7 48 60 6 29 76 13 14 125 100 106 148 127 15 123 16 130 93 78 162 186 94 89 19
4 83 122 145 123 52 133 48 62 33 110 24 135 49 88 84 131 132 133 169 66 191 165 169 136 112 216 167 84 147 83 138
146 186 72 130 128 155 104 18 64 70 48 60 106 100 102 74 45 177 8 157 91 195 173 190 124 228 166 174 142 77 236 232
179 200 200 159 170 108 117 80 95 131 49 132 88 32 152 153 154 79 132 159 141 159 14 142 23 212 169 76 191 25 78 133
171 18 5 21 28 125 146 136 127 94 113 105 99 12 125 27 40 141 137 160 101 131 107 162 96 151 197 66 187 177 168 106
102 140 163 39 87 108 146 110 9 73 38 66 49 3 76 103 92 6 86 76 73 6 67 12 57 73 52 34 27 32 32 16
14 5 1 0 0 0 0 0 0 0 0 0 0 0 0 0 0 0 0 0 0 0 0 0 0 0 0 0 0 0 0 0
0 0 0 0 0 0 0 0 0 0 0 0 0 0 0 0 0 0 0 0 0 0 0 0 0 0 0 0 0 6 2 18
12 15 29 40 5 26 52 50 53 51 65 6 31 82 14 15 134 105 108 150 129 99 124 16 130 92 77 161 184 93 88 19
4 82 120 143 121 51 132 47 62 33 111 25 137 49 90 85 133 134 135 172 66 193 166 170 136 112 215 166 83 146 82 136
144 183 70 128 126 153 103 18 63 70 48 60 107 102 103 75 45 180 8 159 93 197 175 191 125 229 166 174 142 77 234 229
177 197 196 156 167 106 115 79 94 131 49 132 89 33 154 155 156 81 135 161 143 161 15 144 152 213 170 76 191 24 78 131
169 119 5 21 28 123 144 134 125 93 112 105 99 82 126 28 41 144 139 163 102 133 109 164 97 152 198 66 187 176 167 105
101 138 161 38 86 106 144 108 9 72 38 66 49 3 79 109 97 7 92 12 79 7 73 88 62 81 58 39 31 37 39 21
19 8 7 0 0 0 0 0 0 0 0 0 0 0 0 0 0 0 0 0 0 0 0 0 0 0 0 0 0 0 0 0
0 0 0 0 0 0 0 0 0 0 0 0 0 0 0 0 0 0 0 0 0 0 0 0 0 0 0 0 5 1 16 23
14 17 33 44 44 28 56 54 57 55 70 7 33 88 125 129 141 106 109 152 130 100 15 134 130 92 77 160 182 92 10 157
36 80 118 141 119 51 131 47 62 4 112 25 17 50 91 13 135 136 137 174 67 23 167 171 136 13 215 165 83 17 81 134
141 180 69 126 15 151 102 149 9 70 48 60 108 103 105 77 46 183 68 162 94 199 21 193 125 229 166 173 141 76 232 227
174 29 193 154 20 104 113 78 93 130 49 133 89 33 156 19 159 82 137 164 145 163 124 145 153 214 170 76 190 203 77 130
167 118 41 169 27 120 142 132 124 92 112 105 100 10 127 28 41 146 141 20 16 135 110 166 98 153 199 66 187 176 20 105
100 137 159 38 84 105 17 106 75 9 37 66 49 24 79 113 104 58 99 88 85 63 79 95 68 13 64 43 34 43 45 25
24 11 12 3 0 0 0 0 0 0 0 0 0 0 0 0 0 0 0 0 0 0 0 0 0 0 0 0 0 0 0 0
0 0 0 0 0 0 0 0 0 0 0 0 0 0 0 0 0 0 0 0 0 0 0 0 0 0 0 3 2 2 20 27
16 19 36 48 48 5 61 58 62 59 75 7 36 94 133 136 143 108 111 153 131 100 15 134 130 92 76 158 180 91 10 155
35 79 116 138 118 50 130 47 62 4 113 25 17 51 93 88 137 21 139 176 68 24 168 172 137 13 214 164 82 17 80 132
139 177 68 124 15 149 101 148 63 70 48 61 109 104 107 78 47 186 70 164 95 202 21 194 126 230 25 173 140 75 229 224
172 191 190 151 19 15 112 78 93 129 49 133 90 33 158 19 161 83 139 166 147 165 125 146 154 215 170 76 189 201 77 129
165 116 40 166 27 119 140 130 122 91 111 105 100 10 129 28 42 148 144 20 106 137 112 168 99 154 200 66 187 175 20 104
99 135 157 37 83 103 17 105 74 8 37 65 49 24 80 115 108 62 105 95 91 68 85 103 74 97 70 47 38 7 52 29
29 14 17 7 1 0 0 0 0 0 0 0 0 0 0 0 0 0 0 0 0 0 0 0 0 0 0 0 0 0 0 0
0 0 0 0 0 0 0 0 0 0 0 0 0 0 0 0 0 0 0 0 0 0 0 0 0 0 0 6 15 2 24 32
18 21 6 52 52 33 65 62 66 64 81 8 38 100 140 138 145 109 112 155 132 101 15 134 130 91 76 157 178 89 10 152
35 78 114 137 116 50 129 47 62 4 114 25 17 52 94 90 139 140 141 178 69 24 169 172 136 13 213 163 81 17 79 130
137 174 67 122 14 22 100 147 63 70 7 61 110 106 108 79 48 189 71 166 96 204 21 195 126 230 165 172 139 75 226 221
169 188 187 149 19 101 111 77 92 129 49 134 91 34 160 19 164 85 141 169 149 167 126 148 155 215 170 75 188 200 76 127
163 114 40 164 26 117 137 128 121 91 17 105 101 10 130 29 43 151 146 21 107 139 113 170 100 155 201 66 187 174 20 103
98 133 154 37 81 101 16 103 73 8 37 65 49 24 81 116 110 65 112 101 98 73 92 111 80 105 76 51 42 53 58 33
34 17 22 10 2 2 0 0 0 0 0 0 0 0 0 0 0 0 0 0 0 0 0 0 0 0 0 0 0 0 0 0
0 0 0 0 0 0 0 0 0 0 0 0 0 0 0 0 0 0 0 0 0 0 0 0 0 0 1 10 19 3 28 36
20 3 43 56 56 35 69 66 70 68 86 8 41 105 142 140 147 111 113 156 132 101 15 134 129 91 75 155 175 88 10 150
34 76 113 135 115 49 129 47 62 4 115 26 17 53 96 91 142 142 143 180 69 24 170 172 136 13 211 161 80 17 78 128
135 171 66 18 14 145 99 147 9 70 49 62 112 107 110 80 49 192 72 168 97 205 3 196 126 229 164 171 138 74 34 218
166 185 184 146 19 100 109 76 92 129 49 135 92 34 163 20 167 86 144 172 151 169 19 149 156 216 170 75 187 198 75 126
161 112 39 161 26 115 136 127 120 90 111 105 101 2 132 29 43 153 148 21 109 141 114 171 100 156 201 66 186 173 20 102
96 131 152 36 80 100 16 102 72 8 36 65 49 24 82 117 112 66 119 108 104 78 98 119 86 113 82 56 45 58 64 5
6 3 27 13 3 7 1 0 0 0 0 0 0 0 0 0 0 0 0 0 0 0 0 0 0 0 0 0 0 0 0 0
0 0 0 0 0 0 0 0 0 0 0 0 0 0 0 0 0 0 0 0 0 0 0 0 0 3 1 13 24 3 31 39
22 25 46 60 59 38 74 71 75 72 92 9 43 107 145 142 149 112 114 158 133 102 15 133 128 90 74 153 173 87 10 147
34 75 111 133 114 49 129 47 63 4 117 26 18 54 97 93 144 144 145 182 10 24 170 172 136 13 210 160 79 2 77 126
132 168 65 118 14 144 98 146 63 70 7 63 114 109 112 82 49 195 73 171 98 207 22 196 126 229 164 170 137 73 220 214
164 182 181 144 18 99 108 76 91 129 49 136 93 35 165 20 170 88 146 174 153 171 128 149 156 216 170 75 186 196 74 124
158 17 38 158 25 113 134 126 119 90 111 106 102 10 134 30 44 156 151 21 110 143 116 173 101 156 201 66 185 172 19 101
95 129 150 35 79 98 16 100 72 8 36 65 50 24 83 119 113 68 121 114 111 83 105 127 91 120 87 60 49 62 70 40
43 22 31 15 4 11 5 0 0 0 0 0 0 0 0 0 0 0 0 0 0 0 0 0 0 0 0 0 0 0 0 0
0 0 0 0 0 0 0 0 0 0 0 0 0 0 0 0 0 0 0 0 0 0 0 0 4 5 2 16 28 4 35 43
24 27 49 64 63 40 79 75 80 77 97 10 44 109 147 144 151 113 115 24 134 15 15 133 128 89 74 151 171 85 10 145
33 74 110 131 113 49 129 47 63 4 118 26 18 54 99 94 146 146 147 184 70 24 171 172 136 13 208 158 78 16 76 124
130 165 64 117 14 142 98 146 63 71 50 64 115 111 114 83 8 198 74 173 99 208 22 197 126 228 163 168 135 72 217 211
161 179 178 142 18 97 107 75 91 129 50 138 94 35 168 20 172 89 148 176 155 173 129 150 157 216 169 74 185 194 73 122
156 109 38 156 25 111 132 124 119 90 111 107 103 10 136 30 45 159 153 22 112 144 117 174 101 156 201 66 184 171 19 99
94 128 147 35 77 96 16 99 71 8 36 65 50 25 84 121 115 69 123 116 118 88 111 135 97 128 93 64 53 67 75 44
47 24 35 18 5 16 9 3 0 0 0 0 0 0 0 0 0 0 0 0 0 0 0 0 0 0 0 0 0 0 0 0
0 0 0 0 0 0 0 0 0 0 0 0 0 0 0 0 0 0 0 0 0 0 0 1 10 7 2 19 32 4 38 47
26 29 52 68 67 42 83 80 85 82 103 10 45 111 149 146 153 114 116 159 134 102 15 132 127 88 73 149 168 84 9 142
33 73 108 130 112 49 129 47 64 4 120 27 3 55 101 96 148 148 148 185 71 24 171 172 135 13 206 156 77 16 74 122
128 163 63 115 14 141 98 146 63 72 50 64 117 113 116 85 51 201 75 174 100 210 22 30 126 227 162 167 134 71 214 208
159 176 175 139 18 96 106 75 91 130 50 139 95 36 171 21 175 91 150 179 24 174 20 151 157 215 169 74 183 192 72 120
154 107 37 153 25 110 131 123 118 90 112 107 104 11 138 31 46 161 156 22 113 146 118 175 102 157 201 66 183 170 19 98
93 126 145 34 76 95 16 98 70 8 36 65 50 25 85 123 117 70 125 118 120 93 118 143 103 136 99 68 56 72 81 47
51 27 40 21 6 20 13 6 2 0 0 0 0 0 0 0 0 0 0 0 0 0 0 0 0 0 0 0 0 0 0 0
0 0 0 0 0 0 0 0 0 0 0 0 0 0 0 0 0 0 0 0 0 0 0 5 15 9 3 22 36 5 41 50
4 30 55 71 71 7 88 85 90 87 106 10 45 17 152 148 155 115 117 160 135 102 15 132 126 88 72 147 166 83 9 140
32 72 107 129 112 48 129 48 64 4 121 27 19 56 102 97 150 150 150 186 71 24 171 171 134 2 204 23 76 16 73 120
126 160 62 114 14 141 97 146 64 72 51 65 119 115 118 86 52 204 76 176 101 211 22 197 126 226 160 165 132 70 211 204
156 173 172 137 18 95 106 75 91 131 51 141 97 36 174 21 178 92 152 181 158 176 131 151 157 215 168 73 181 190 71 119
151 105 36 151 24 109 130 123 118 90 17 108 105 11 140 31 46 164 158 22 115 148 119 176 102 157 201 65 182 168 19 97
91 124 142 34 75 93 15 97 70 8 36 66 51 25 86 125 119 71 127 120 121 95 124 151 109 143 104 72 59 76 86 50
55 29 43 23 7 24 17 9 5 0 0 0 0 0 0 0 0 0 0 0 0 0 0 0 0 0 0 0 0 0 0 0
0 0 0 0 0 0 0 0 0 0 0 0 0 0 0 0 0 0 0 0 0 0 4 8 2 11 27 25 40 5 44 53
29 32 58 75 75 47 14 90 95 89 13 84 46 114 23 150 156 116 118 161 135 102 15 131 125 87 71 145 20 81 76 138
32 71 106 128 13 48 16 48 65 36 123 28 157 57 104 99 152 152 151 188 9 202 171 171 134 107 202 153 75 130 72 14
124 157 61 112 113 21 97 18 8 73 52 66 121 117 120 87 52 207 76 178 102 212 183 197 126 225 159 164 131 69 25 201
153 20 20 136 146 95 105 75 92 132 51 143 98 4 177 22 181 93 154 183 19 21 132 151 24 214 167 73 179 188 70 117
149 104 36 148 3 107 128 122 118 90 113 109 107 90 21 32 47 167 161 28 116 149 119 177 102 157 200 65 181 166 154 96
90 122 21 33 74 92 126 96 70 68 36 66 51 3 87 127 121 72 129 121 123 96 2 159 114 151 110 75 9 80 91 54
59 31 47 25 8 27 3 12 1 3 0 0 0 0 0 0 0 0 0 0 0 0 0 0 0 0 0 0 0 0 0 0
0 0 0 0 0 0 0 0 0 0 0 0 0 0 0 0 0 0 0 0 0 2 9 11 3 12 30 27 43 5 47 57
31 34 61 79 79 50 98 95 99 91 13 86 47 116 156 152 158 117 119 161 135 101 15 130 124 86 70 143 19 80 75 136
31 70 105 127 13 49 16 48 66 37 125 28 160 9 106 100 154 153 152 189 9 202 170 170 133 106 200 151 74 127 71 14
122 155 60 111 112 140 97 18 8 74 52 67 123 119 122 89 53 209 77 179 102 212 184 196 125 223 158 162 129 68 25 198
151 20 20 134 145 94 105 75 92 133 52 145 100 5 180 22 184 95 156 185 19 21 132 152 156 213 166 72 177 185 69 115
146 102 35 146 3 106 127 122 118 91 114 111 108 92 145 32 48 169 163 189 117 150 120 177 102 156 199 65 179 164 152 94
88 120 138 33 73 91 125 95 69 68 37 67 52 3 88 129 123 74 131 123 124 97 15 164 120 158 115 79 65 13 95 56
62 33 51 28 8 31 25 14 2 6 2 0 0 0 0 0 0 0 0 0 0 0 0 0 0 0 0 0 0 0 0 0
0 0 0 0 0 0 0 0 0 0 0 0 0 0 0 0 0 0 0 0 0 5 13 14 3 14 33 30 46 6 50 60
32 35 64 83 83 52 104 99 100 92 13 87 48 118 158 154 159 118 119 162 135 101 15 129 122 85 69 141 19 79 73 134
31 69 104 127 13 49 16 49 67 37 127 29 163 59 107 101 156 155 153 190 9 202 170 169 132 105 197 148 73 125 70 14
120 153 60 110 112 139 98 18 8 75 53 69 125 121 124 90 54 212 78 180 103 213 184 196 124 222 156 160 127 67 24 194
148 20 20 132 144 94 105 75 93 134 52 147 101 5 183 22 187 96 158 187 19 21 132 152 156 212 164 71 175 183 68 113
144 100 35 22 3 105 127 121 118 91 115 112 110 93 147 33 49 172 165 192 119 151 121 178 102 156 198 64 177 163 150 93
87 118 135 32 72 90 124 95 69 68 6 67 52 3 90 131 125 75 133 125 126 98 16 165 124 165 120 82 68 88 100 59
65 35 54 30 9 34 28 17 2 1 5 0 0 0 0 0 0 0 0 0 0 0 0 0 0 0 0 0 0 0 0 0
0 0 0 0 0 0 0 0 0 0 0 0 0 0 0 0 0 0 0 0 5 8 17 17 4 16 37 32 49 6 53 63
34 37 67 13 87 55 109 101 102 94 14 88 48 119 160 155 161 119 120 162 134 101 15 128 121 83 68 139 19 77 72 132
30 68 103 126 13 49 16 49 68 38 129 29 165 60 109 103 157 156 154 190 9 202 169 168 130 104 195 146 72 123 69 13
118 151 59 110 111 139 98 18 8 76 54 70 127 123 126 91 55 32 79 182 103 213 183 195 123 220 154 158 125 66 24 191
146 19 19 131 143 93 105 75 93 136 53 149 103 5 186 23 190 97 160 188 20 22 132 151 155 211 163 71 173 180 67 111
141 98 34 142 3 104 126 121 119 92 116 114 112 95 150 33 49 174 167 194 120 152 121 178 102 23 197 64 175 160 148 91
85 116 133 32 71 89 123 94 69 68 37 68 53 3 91 133 127 76 135 126 127 99 16 165 124 171 125 86 71 91 104 62
69 37 57 32 10 38 31 20 2 11 8 2 0 0 0 0 0 0 0 0 0 0 0 0 0 0 0 0 0 0 0 0
0 0 0 0 0 0 0 0 0 0 0 0 0 0 0 0 0 0 0 2 11 11 21 19 5 17 40 34 52 6 56 66
36 39 70 92 91 58 111 102 103 95 14 90 49 121 162 157 162 119 120 162 134 100 15 126 120 82 67 136 18 76 11 130
30 68 102 126 13 49 16 50 69 38 132 30 168 61 110 16 159 157 155 191 9 201 168 167 129 103 192 144 71 121 67 13
116 149 58 109 111 140 99 3 8 77 55 71 129 125 128 93 55 32 79 183 103 213 183 194 123 218 153 156 123 65 23 188
143 19 19 130 142 93 105 76 94 137 54 151 105 5 189 23 192 98 162 190 20 22 20 151 155 209 161 70 171 177 66 109
139 97 34 140 3 104 126 122 119 93 118 115 113 97 152 34 50 177 169 196 121 153 122 178 102 155 196 63 173 158 146 90
84 114 131 31 70 88 122 94 10 68 37 69 54 3 93 135 129 77 137 128 129 100 16 166 124 172 129 89 73 95 108 64
72 39 60 34 11 41 35 23 3 14 11 4 1 0 0 0 0 0 0 0 0 0 0 0 0 0 0 0 0 0 0 0
0 0 0 0 0 0 0 0 0 0 0 0 0 0 0 0 0 0 0 5 16 14 24 22 5 19 43 36 55 7 58 69
37 41 74 96 96 60 113 104 105 97 14 91 50 123 164 158 163 120 120 162 134 99 14 125 118 81 66 134 18 75 70 128
30 67 102 126 13 50 16 51 70 39 134 30 171 62 112 105 160 158 156 191 9 201 167 165 128 101 189 142 69 119 66 13
115 147 58 108 111 140 15 18 8 78 56 72 20 127 130 94 56 218 80 183 103 213 182 193 122 215 23 153 121 64 23 185
141 19 19 128 141 93 105 76 95 139 55 154 107 5 192 23 195 100 163 191 20 22 132 151 154 208 160 69 168 175 65 108
137 95 33 139 3 103 126 18 120 94 119 117 115 98 155 35 51 179 171 198 121 154 122 178 102 154 194 62 171 156 22 88
83 112 129 31 69 87 121 94 69 69 38 70 55 3 94 138 132 78 139 130 130 101 16 166 124 171 131 92 76 98 112 67
74 41 63 36 2 44 38 25 3 3 14 7 5 0 0 0 0 0 0 0 0 0 0 0 0 0 0 0 0 0 0 0
0 0 0 0 0 0 0 0 0 0 0 0 0 0 0 0 0 0 4 9 21 17 28 25 5 20 45 38 58 7 61 71
39 42 77 101 100 9 114 105 107 99 14 93 50 19 165 160 164 120 120 161 133 99 14 123 116 80 65 132 18 74 69 126
29 67 102 126 13 50 16 51 71 40 136 31 173 63 113 106 162 159 156 191 9 200 166 164 126 100 187 140 68 117 65 13
113 146 58 108 111 21 100 19 8 79 57 73 134 129 131 95 56 220 80 184 103 213 181 191 120 213 149 151 119 63 23 182
139 19 19 128 141 93 106 77 96 141 55 157 108 5 195 24 197 101 164 192 20 22 132 150 153 206 158 68 166 172 64 106
134 94 33 137 3 103 126 122 121 95 121 119 117 100 158 35 52 181 173 199 122 154 122 178 101 153 29 62 169 154 141 87
81 16 127 30 68 87 121 94 70 69 38 71 55 3 96 140 134 79 140 131 131 101 16 166 124 171 130 94 78 101 115 69
77 42 66 37 12 47 41 28 4 20 17 9 9 3 0 0 0 0 0 0 0 0 0 0 0 0 0 0 0 0 0 0
0 0 0 0 0 0 0 0 0 0 0 0 0 0 0 0 0 0 8 12 26 20 31 27 6 22 48 40 61 7 63 74
40 44 80 105 101 61 116 107 109 100 14 94 51 126 167 161 165 120 120 161 132 98 14 122 115 79 64 130 17 72 68 125
29 66 102 19 14 51 17 52 72 40 138 31 176 64 114 107 163 160 156 191 9 199 165 162 125 99 184 137 67 115 64 13
112 145 57 108 111 142 101 19 8 81 58 75 136 131 133 96 57 221 81 184 103 212 180 190 119 210 147 149 118 62 22 179
137 18 19 127 140 93 107 78 98 143 56 159 110 1 198 24 200 102 166 193 3 22 132 149 152 204 156 10 163 169 63 104
132 93 32 136 3 103 126 123 122 96 123 121 119 15 160 36 52 184 175 201 123 155 122 177 101 152 190 61 167 152 139 85
80 108 125 30 68 86 120 94 70 70 39 72 56 3 98 142 136 81 142 132 132 102 16 166 124 170 129 93 80 104 118 71
79 44 69 39 13 50 44 30 4 23 20 11 12 6 0 0 0 0 0 0 0 0 0 0 0 0 0 0 0 0 0 0
0 0 0 0 0 0 0 0 0 0 0 0 0 0 0 0 0 3 12 16 4 23 35 29 53 23 50 42 63 62 66 77
42 46 84 107 12 62 118 109 111 102 123 96 6 127 168 19 165 121 120 160 131 97 116 120 113 77 63 15 143 71 10 123
29 66 102 127 114 51 140 53 73 41 141 32 179 64 14 108 164 160 156 29 71 197 163 160 123 97 181 135 66 113 63 16
13 144 57 108 13 143 102 159 71 82 59 76 138 133 135 97 57 223 10 185 103 211 179 188 118 208 145 146 116 61 182 176
135 152 154 126 140 94 107 79 99 145 57 162 112 42 201 202 24 102 167 23 166 22 131 148 150 202 154 66 161 166 62 102
130 91 32 135 3 103 127 124 124 97 124 123 121 103 163 36 53 186 176 202 123 155 18 177 15 18 188 60 164 149 137 10
79 107 123 30 67 10 120 95 71 71 39 73 57 29 99 145 138 82 144 133 133 102 133 166 124 169 128 92 80 106 121 73
82 45 71 41 13 6 48 33 36 26 23 13 16 9 2 0 0 0 0 0 0 0 0 0 0 0 0 0 0 0 0 0
0 0 0 0 0 0 0 0 0 0 0 0 0 0 0 0 0 5 17 19 4 25 38 31 56 24 53 44 66 65 68 80
44 48 87 108 12 63 120 111 112 104 125 15 6 128 170 19 165 121 18 159 130 96 115 119 111 76 62 15 140 70 66 122
29 66 102 128 115 52 142 54 74 42 143 32 181 65 14 109 165 161 157 190 71 29 162 158 121 96 178 133 65 112 62 103
13 143 57 108 14 144 104 161 72 83 60 77 140 134 136 98 58 224 10 185 103 210 178 187 117 205 142 22 114 60 179 174
134 151 153 126 21 94 108 79 100 148 58 165 114 43 204 205 24 103 168 23 166 22 131 147 149 199 152 65 158 164 61 101
128 90 32 134 3 103 127 125 125 99 126 125 123 105 25 37 54 188 178 203 124 155 122 176 100 3 186 59 162 147 135 10
77 105 122 29 67 10 120 95 71 71 40 74 58 29 101 147 140 83 145 135 134 103 133 166 123 168 127 91 79 107 124 74
84 46 74 42 14 7 51 36 40 28 26 16 20 13 4 1 0 0 0 0 0 0 0 0 0 0 0 0 0 0 0 0
0 0 0 0 0 0 0 0 0 0 0 0 0 0 0 0 1 8 21 23 5 28 41 33 59 25 55 45 68 67 70 83
45 50 87 109 13 64 122 112 114 105 126 15 6 129 171 20 166 120 119 158 129 95 114 117 110 75 61 15 138 69 66 121
29 66 102 129 116 52 144 55 76 43 145 33 183 66 14 110 165 161 156 190 70 194 160 156 120 14 175 131 64 16 61 102
13 142 57 109 14 146 105 164 73 85 61 78 21 136 138 99 58 225 10 184 103 209 177 185 115 202 140 142 112 59 176 171
132 149 152 126 141 95 109 80 102 150 59 167 116 44 206 207 25 104 168 23 166 22 130 146 147 197 150 64 156 161 60 99
127 89 31 133 3 103 128 126 127 100 128 127 125 107 168 37 54 189 179 204 124 155 121 175 99 18 184 59 159 144 132 10
76 103 120 29 66 10 121 96 72 72 40 75 59 30 103 149 142 84 147 136 134 103 133 166 122 166 125 90 78 106 126 76
86 48 76 44 14 7 54 38 43 31 30 18 24 16 7 3 0 0 0 0 0 0 0 0 0 0 0 0 0 0 0 0
0 0 0 0 0 0 0 0 0 0 0 0 0 0 0 2 2 10 25 26 1 30 44 35 62 26 57 47 70 69 73 86
47 51 88 110 13 65 124 114 116 107 128 99 6 130 172 20 166 120 118 157 128 94 112 115 16 74 60 15 136 68 65 121
28 66 103 130 117 53 147 56 77 43 148 33 186 67 14 110 166 161 156 189 70 192 158 154 118 93 172 128 63 108 61 101
13 142 57 109 14 147 106 166 74 86 62 12 144 138 139 100 59 226 10 184 102 207 175 183 114 199 138 139 110 58 174 169
131 148 152 126 142 95 111 82 103 152 60 170 118 44 209 209 25 105 169 23 166 21 129 145 146 194 148 63 153 158 59 98
125 88 31 133 3 104 129 128 128 102 131 129 127 108 170 38 55 191 180 205 124 155 121 174 98 18 182 58 157 142 130 10
75 102 119 29 66 10 121 96 73 73 41 76 60 30 104 151 143 84 148 136 135 103 133 165 122 165 124 89 77 104 125 78
88 49 78 45 15 7 57 41 47 34 5 21 28 20 9 4 0 0 0 0 0 0 0 0 0 0 0 0 0 0 0 0
0 0 0 0 0 0 0 0 0 0 0 0 0 0 0 5 3 12 4 29 6 32 46 37 65 27 59 49 73 72 75 89
49 51 89 112 13 66 126 116 118 109 130 100 6 131 26 20 166 120 118 156 127 93 110 114 106 72 59 14 134 68 64 120
28 66 103 131 119 54 149 57 78 44 150 34 188 67 14 111 166 161 156 188 69 191 156 23 116 91 169 126 62 107 60 100
13 141 57 110 14 149 108 169 76 88 63 81 146 139 141 101 59 226 10 184 102 206 173 180 112 196 136 137 108 57 171 167
130 147 152 19 142 96 112 83 105 155 61 173 119 45 211 211 25 105 169 23 165 21 128 143 144 192 146 62 151 156 58 96
123 87 31 132 3 104 130 129 130 103 133 131 130 110 173 6 56 192 27 205 124 154 120 173 97 17 179 57 154 140 128 9
74 101 118 29 66 10 122 97 74 74 42 78 61 31 106 153 145 85 149 137 135 103 132 164 121 163 123 88 75 102 123 78
90 50 80 47 16 8 61 44 51 38 37 23 32 23 11 6 0 0 0 0 0 0 0 0 0 0 0 0 0 0 0 0
0 0 0 0 0 0 0 0 0 0 0 0 0 0 2 8 4 14 32 31 6 34 49 39 10 28 61 50 75 74 78 93
49 51 90 113 13 67 128 118 120 110 132 101 7 132 173 20 165 119 117 154 125 92 109 112 104 71 58 14 133 67 64 120
28 67 104 133 121 55 151 58 79 45 152 34 190 68 14 111 166 161 155 186 68 28 154 150 114 90 166 124 61 105 59 99
13 141 57 111 14 151 110 172 77 89 64 82 148 141 142 101 59 226 10 183 101 204 171 178 110 193 133 135 106 56 169 165
129 147 152 127 144 97 114 84 107 158 62 176 121 45 214 213 25 106 170 23 165 21 127 142 142 189 143 61 148 153 9 95
122 87 31 132 3 105 132 131 132 105 135 133 132 112 175 39 56 194 182 206 124 23 119 171 96 17 177 56 152 137 126 9
73 100 117 28 66 10 123 98 75 76 42 79 62 31 108 155 147 86 150 138 136 103 132 163 120 162 121 86 74 101 121 77
91 51 83 49 16 8 64 47 8 41 6 26 36 27 13 8 1 2 0 0 0 0 0 0 0 0 0 0 0 0 0 0
0 0 0 0 0 0 0 0 0 0 0 0 0 0 5 11 1 16 36 34 7 5 51 40 70 29 63 52 77 76 81 94
49 52 91 115 13 68 130 120 18 112 133 15 7 133 173 20 165 119 116 153 124 90 107 110 103 70 57 14 131 66 63 119
29 67 105 134 122 56 154 59 81 45 154 34 192 68 15 111 166 160 154 185 68 186 152 148 112 88 164 122 60 104 59 98
13 142 9 112 14 154 112 175 78 91 65 83 150 142 143 102 59 226 10 182 100 202 169 176 109 190 131 133 105 55 25 25
128 146 152 127 145 99 115 85 109 160 63 179 123 46 216 215 25 106 170 23 164 21 126 140 140 186 141 60 146 150 56 94
121 86 31 133 3 106 133 133 134 107 137 136 134 113 177 39 56 195 183 206 124 153 119 170 95 17 174 55 149 135 124 9
72 99 116 28 66 10 124 99 76 77 43 80 63 5 109 157 148 87 151 138 136 103 131 162 119 160 120 85 73 99 119 76
91 52 85 50 17 9 67 50 58 44 44 28 40 31 16 10 1 6 0 0 0 0 0 0 0 0 0 0 0 0 0 0
0 0 0 0 0 0 0 0 0 0 0 0 0 3 8 14 6 18 39 37 7 38 53 42 72 30 65 53 80 79 83 94
49 52 92 117 14 69 133 122 124 113 135 103 7 133 174 20 164 118 115 151 122 89 106 108 101 69 56 14 129 66 63 119
29 67 106 136 124 57 157 60 82 46 156 35 193 69 15 112 166 160 153 184 67 184 150 145 111 87 161 120 59 103 58 98
13 142 58 113 14 156 113 178 80 92 66 84 152 144 144 102 59 226 10 181 100 200 167 173 107 187 129 130 103 54 165 162
127 146 152 128 146 100 117 87 110 163 10 181 124 46 218 217 25 106 170 23 163 21 125 138 138 183 139 59 143 148 55 93
18 86 31 133 3 107 135 135 136 109 140 138 136 115 179 39 57 196 183 206 123 152 118 168 94 17 171 54 147 133 122 9
71 98 116 28 66 10 125 101 77 78 44 82 64 32 111 159 150 87 152 139 136 102 131 161 117 158 118 84 72 97 117 75
90 53 87 52 18 9 71 52 9 47 47 31 44 35 18 12 1 9 1 0 0 0 0 0 0 0 0 0 0 0 0 0
0 0 0 0 0 0 0 0 0 0 0 0 0 7 10 17 7 20 5 39 61 40 55 43 74 31 66 55 82 81 84 95
50 53 94 119 14 71 135 124 125 114 16 104 56 16 174 163 164 117 114 150 121 88 104 106 99 68 55 113 15 65 63 119
29 68 108 138 126 58 159 61 83 47 158 35 195 69 122 112 166 159 152 22 66 181 148 143 109 85 158 119 7 102 58 98
107 143 59 114 121 158 115 181 81 93 67 85 18 145 145 103 9 226 80 180 99 198 165 171 105 184 127 128 101 54 163 161
127 146 153 129 148 101 119 88 112 166 65 184 126 47 220 218 213 106 169 193 162 172 123 137 136 180 136 58 141 146 7 92
119 85 31 133 23 108 137 137 139 111 142 140 17 116 181 6 57 24 27 206 123 151 117 20 92 16 169 53 144 131 120 9
70 97 115 28 66 87 126 102 78 79 44 83 65 33 112 161 151 88 152 139 135 102 130 159 116 156 116 82 71 96 115 9
11 53 89 53 18 78 75 56 66 51 51 34 49 39 2 14 2 13 2 0 0 0 0 0 0 0 0 0 0 0 0 0
0 0 0 0 0 0 0 0 0 0 0 0 2 10 13 19 8 22 5 41 64 41 57 45 76 32 68 56 84 83 84 96
50 54 95 121 14 72 137 126 127 116 16 105 56 16 174 163 163 116 113 148 119 86 102 105 98 67 54 112 15 65 63 120
29 69 109 140 128 59 162 62 13 47 160 36 196 70 122 112 165 158 151 22 66 179 146 141 107 84 156 117 7 101 58 97
107 144 59 116 123 161 117 184 82 95 68 13 19 22 146 103 9 225 80 178 98 195 163 168 104 181 125 126 100 53 162 160
126 147 154 131 150 103 121 90 114 168 66 186 128 47 221 219 214 106 169 192 161 171 122 135 134 177 134 57 139 144 6 91
118 85 31 134 23 109 139 139 141 112 144 142 17 18 183 40 58 24 183 205 122 23 116 20 91 16 166 8 142 129 118 9
70 96 115 28 67 88 128 103 79 81 45 84 66 33 113 163 152 89 153 139 135 102 129 158 115 154 114 81 70 94 113 9
11 53 91 55 19 81 78 59 71 54 55 37 53 43 3 16 2 17 3 3 0 0 0 0 0 0 0 0 0 0 0 0
0 0 0 0 0 0 0 0 0 0 0 0 6 14 16 22 8 24 6 44 67 43 59 46 78 33 70 58 87 83 84 96
51 54 97 123 14 73 139 128 129 117 17 106 56 16 173 162 162 115 112 146 117 85 100 103 96 66 54 110 15 65 63 120
29 70 110 142 130 60 165 63 86 48 162 36 198 70 122 112 165 157 150 21 65 176 143 138 105 12 153 115 7 100 57 97
108 145 60 117 125 164 119 187 84 96 68 87 19 147 146 103 59 224 79 177 97 193 160 165 102 178 123 124 99 52 160 159
126 147 155 132 152 104 123 91 116 171 67 189 129 48 223 220 214 106 168 191 160 169 120 133 132 174 132 56 136 142 6 90
118 85 31 135 23 111 141 142 143 114 147 144 17 119 184 6 58 24 183 204 122 149 114 19 90 16 163 52 140 127 117 9
69 96 115 28 67 89 130 105 80 82 46 86 67 34 115 164 153 89 153 139 135 101 128 156 113 152 113 80 68 93 112 9
10 8 91 57 20 85 82 62 75 58 59 39 58 47 3 19 2 20 4 7 0 0 0 0 0 0 0 0 0 0 0 0
0 0 0 0 0 0 0 0 0 0 0 1 9 17 18 25 9 26 6 46 69 44 61 47 80 34 72 59 13 84 85 97
52 55 98 125 2 74 141 129 130 118 17 106 56 16 173 161 160 114 110 144 115 84 99 101 95 65 53 109 15 65 63 121
29 70 112 144 133 61 167 63 87 7 163 36 199 70 122 111 164 156 148 21 64 174 141 136 103 81 151 114 7 99 57 98
108 146 60 18 127 166 121 190 13 98 69 88 19 148 147 103 59 223 79 175 96 190 158 163 100 175 121 122 97 52 159 159
127 148 156 134 154 106 125 93 118 174 68 191 130 48 224 221 214 106 168 189 158 167 119 131 130 172 130 55 134 140 6 89
117 85 31 136 23 112 143 144 146 116 149 146 17 120 186 40 58 24 183 203 121 148 113 19 89 16 161 51 137 125 115 9
69 96 115 29 68 90 131 107 82 83 47 87 68 34 116 166 154 89 153 138 134 100 127 155 112 150 111 78 67 91 110 8
10 52 91 58 20 89 86 65 79 62 63 6 62 51 3 21 2 24 5 11 2 0 0 0 0 0 0 0 0 0 0 0
0 0 0 0 0 0 0 0 0 0 0 4 13 21 21 27 10 27 6 48 72 46 63 48 82 34 73 61 88 84 86 98
52 56 100 127 15 75 143 131 132 119 17 107 56 16 172 160 159 113 109 142 114 82 97 15 93 64 52 108 15 65 63 122
30 71 114 147 135 9 170 64 13 49 165 36 200 70 122 111 163 155 147 21 63 171 139 134 102 80 149 113 7 99 57 98
109 148 61 121 129 169 123 193 86 15 70 89 19 148 147 103 59 222 78 173 94 188 156 160 99 172 119 121 96 52 158 159
127 149 158 135 156 108 127 94 120 176 69 193 132 49 225 221 214 106 167 188 156 165 117 129 128 169 128 55 133 138 6 13
117 85 31 138 24 114 145 146 148 118 151 148 17 121 187 41 58 24 182 202 120 146 112 19 87 15 158 50 135 123 114 9
68 95 115 29 68 91 133 108 83 85 47 89 69 35 117 167 155 89 153 138 133 100 126 153 110 147 109 77 66 90 108 8
10 51 90 58 21 93 14 69 84 65 67 45 67 55 4 23 3 27 6 15 5 0 0 0 0 0 0 0 0 0 0 0
0 0 0 0 0 0 0 0 0 0 1 7 16 24 23 29 11 29 7 49 74 47 64 49 84 35 75 62 89 84 86 99
53 57 101 129 2 77 145 133 133 120 17 107 56 16 172 159 158 112 107 140 112 81 96 98 92 9 52 108 15 65 64 123
30 11 116 149 137 63 173 65 89 50 166 37 200 70 122 110 162 153 145 21 62 168 136 132 100 79 147 111 7 99 57 98
110 149 62 123 131 172 125 196 87 100 71 13 19 149 147 103 9 221 78 171 93 185 153 157 97 169 117 119 95 51 158 159
127 150 160 137 159 109 129 96 122 179 70 195 133 49 226 221 214 105 166 186 155 163 115 127 126 166 125 54 131 137 6 89
117 86 32 139 24 116 148 149 151 120 153 150 18 122 189 41 58 24 181 201 119 145 110 19 86 15 155 49 133 121 112 8
68 95 116 29 69 92 135 110 85 86 48 90 70 35 118 168 156 90 153 138 133 99 124 151 109 145 107 76 65 88 107 8
10 51 90 59 22 96 95 72 88 69 71 48 71 59 4 25 3 31 8 3 8 1 0 0 0 0 0 0 0 0 0 0
0 0 0 0 0 0 0 0 0 0 4 9 20 28 25 32 11 30 7 51 76 48 66 50 86 36 77 62 89 85 87 101
54 58 103 131 15 78 147 134 134 18 17 107 56 16 171 158 156 110 106 138 110 80 94 96 90 62 51 107 15 65 64 124
31 73 117 152 139 64 175 66 90 50 167 37 201 70 122 110 161 152 143 20 61 166 134 129 99 78 145 110 7 99 57 99
111 151 63 125 134 175 127 199 89 101 72 90 19 149 147 103 59 219 77 169 92 182 151 155 95 166 115 118 94 51 158 159
128 152 162 139 161 111 131 98 124 181 71 197 134 49 227 221 213 105 164 184 153 161 114 125 124 163 123 53 129 136 6 88
117 86 32 141 24 118 150 152 153 122 156 152 18 123 190 41 58 24 181 200 118 143 109 18 85 15 153 48 131 120 111 1
68 96 116 29 70 94 138 112 86 88 49 91 71 35 119 169 156 90 153 137 132 98 123 149 107 143 106 75 64 87 106 8
10 51 90 59 22 101 99 76 93 73 76 51 76 63 4 27 3 34 9 23 11 5 0 0 0 0 0 0 0 0 0 0
0 0 0 0 0 0 0 0 0 0 8 11 23 31 27 34 12 31 7 52 78 49 67 51 87 37 78 62 89 86 88 102
55 59 105 134 15 79 149 136 135 122 17 107 56 16 170 157 154 109 16 135 108 78 92 95 13 62 51 107 15 65 65 125
31 75 119 154 142 10 178 67 91 50 168 37 201 70 121 109 159 150 142 20 60 163 132 127 97 76 144 110 7 99 58 100
112 153 64 127 136 178 129 202 90 103 72 91 3 149 147 102 58 217 76 167 91 179 148 152 94 164 114 116 94 51 158 160
129 153 164 141 164 113 133 99 126 184 72 199 135 49 227 221 212 104 163 183 151 158 112 123 122 160 122 52 128 134 6 88
118 87 32 143 25 120 153 154 156 124 158 154 18 124 190 41 58 24 180 198 116 21 107 18 83 15 150 48 129 118 110 8
68 96 117 30 71 95 140 114 87 89 50 92 72 36 120 170 156 90 152 136 131 97 121 22 106 21 104 73 63 86 104 8
10 51 91 59 22 104 104 80 98 77 80 54 81 67 4 29 3 37 10 26 15 8 0 0 0 0 0 0 0 0 0 0
0 0 0 0 0 0 0 0 0 2 11 14 26 34 4 36 12 33 62 54 80 50 68 52 89 38 78 62 90 86 89 12
56 60 107 136 131 80 151 137 136 122 143 107 56 20 168 155 152 107 103 133 106 77 91 14 88 61 51 107 15 65 65 127
31 76 121 157 144 66 180 8 92 51 169 37 201 70 121 108 158 148 140 164 59 160 130 125 96 76 142 109 55 99 58 101
17 155 65 129 138 181 131 205 91 104 73 91 161 150 147 102 58 215 9 165 11 176 146 150 92 161 112 115 93 50 158 161
130 155 166 144 167 14 136 101 127 22 72 201 135 6 227 221 32 103 161 180 149 156 110 121 120 158 120 52 126 134 51 88
118 88 4 145 3 122 156 157 158 125 160 155 150 125 191 41 58 195 178 196 14 139 106 18 82 14 148 47 128 117 110 69
8 96 118 30 72 97 142 116 89 90 6 14 73 36 120 170 157 89 152 135 129 96 120 17 104 138 102 72 62 85 103 67
83 6 11 60 22 105 108 84 103 81 84 57 85 71 40 31 31 40 11 30 17 11 2 0 0 0 0 0 0 0 0 0
0 0 0 0 0 0 0 0 0 3 15 16 29 37 31 38 13 34 64 55 81 8 70 53 91 38 78 62 90 87 90 13
56 61 108 138 133 81 153 138 137 123 143 107 56 131 167 154 151 106 101 131 16 76 90 92 87 61 50 106 15 66 66 19
32 77 124 160 146 67 183 8 93 51 170 37 201 70 120 107 156 147 138 162 58 157 127 123 94 75 141 16 55 99 58 102
115 158 66 131 140 184 133 207 92 105 73 92 162 149 146 101 57 213 9 163 11 174 143 147 91 159 111 114 93 50 158 162
132 157 169 146 170 14 138 102 129 23 73 202 136 6 227 220 210 102 160 178 147 154 108 119 118 155 18 51 125 133 51 89
119 88 4 147 3 124 158 159 161 127 161 157 152 125 29 41 58 194 177 194 14 137 104 18 80 14 145 46 126 116 109 69
8 97 119 30 73 98 145 118 90 92 6 95 73 36 121 171 157 89 151 134 128 95 118 17 102 136 100 71 9 84 102 67
83 6 11 60 23 107 113 87 108 85 89 60 90 75 42 33 33 44 12 33 20 14 3 0 0 0 0 0 0 0 0 0
0 0 0 0 0 0 0 0 1 5 18 18 31 39 33 39 13 35 66 56 83 52 71 55 93 38 12 63 91 88 92 13
57 62 110 140 20 82 154 139 138 123 143 107 56 130 165 152 149 104 100 129 103 75 88 91 86 60 50 107 15 66 67 130
32 78 126 162 149 68 185 8 94 51 171 37 200 69 119 106 154 145 136 159 57 155 125 122 93 74 140 108 55 99 59 103
116 160 67 133 143 187 135 210 93 105 74 92 162 149 146 100 57 211 9 160 10 171 141 145 89 157 110 113 92 50 159 163
133 159 171 148 172 14 140 104 131 23 74 203 136 6 227 219 209 102 158 176 145 151 106 117 116 153 116 50 124 20 51 89
120 89 4 149 3 126 161 162 163 129 163 158 153 126 192 41 58 193 175 192 13 135 102 17 79 14 143 46 125 115 109 69
8 98 18 31 74 100 147 120 92 93 6 96 74 36 122 171 156 89 150 133 127 93 116 17 101 133 99 70 60 83 101 66
83 6 11 61 23 108 114 91 113 89 93 63 95 79 44 34 35 47 13 36 23 18 5 0 0 0 0 0 0 0 0 0
0 0 0 0 0 0 0 0 3 7 21 20 34 42 35 41 14 36 67 58 84 53 72 56 95 38 78 63 92 90 93 13
58 63 112 142 137 83 156 140 139 124 143 107 55 19 164 150 147 103 98 127 101 73 87 90 85 60 50 107 15 67 67 132
33 80 128 165 151 68 187 8 95 52 171 37 200 69 118 105 153 143 134 157 56 152 123 120 92 73 139 108 55 100 59 104
118 163 68 135 145 190 137 213 94 106 74 92 162 149 145 100 56 208 9 158 10 168 139 143 88 155 109 113 92 51 160 165
135 162 174 151 175 15 142 105 132 23 74 204 137 1 226 218 207 101 156 174 143 149 105 115 114 151 115 50 124 132 51 89
121 91 4 152 3 128 163 164 165 130 165 159 153 126 192 41 57 192 174 190 13 20 101 17 78 14 141 45 124 114 108 10
8 99 122 31 75 101 150 122 93 95 6 97 75 37 122 171 156 88 149 132 125 92 115 17 99 131 97 69 60 82 101 66
83 6 11 62 23 110 116 95 118 93 97 66 99 83 47 36 37 49 13 40 26 20 7 0 0 0 0 0 0 0 0 0
0 0 0 0 0 0 0 0 1 9 24 23 37 44 36 42 2 37 69 59 86 54 73 57 95 38 79 63 93 91 95 13
59 64 114 144 21 84 157 141 139 124 143 106 55 128 162 22 144 101 96 125 99 72 86 89 85 60 50 107 15 68 68 134
33 81 130 168 153 69 189 8 95 52 171 37 199 69 117 104 151 141 131 154 55 150 122 118 91 73 139 108 55 101 60 105
120 166 69 138 147 192 139 215 95 107 74 92 161 148 144 99 56 205 9 155 10 165 136 140 87 153 108 112 92 51 161 166
137 164 27 153 178 15 144 107 134 23 75 205 137 6 225 217 206 100 154 171 140 146 103 113 112 149 114 49 123 132 51 90
122 92 4 154 3 130 25 167 168 132 166 24 154 127 192 41 57 190 172 188 13 131 99 17 76 13 139 44 123 114 108 70
8 100 123 32 76 103 152 124 95 96 6 98 75 37 122 171 156 88 148 131 124 91 113 16 97 129 96 68 59 81 100 66
83 6 11 62 24 112 118 97 123 98 102 69 104 87 49 38 39 52 14 43 28 23 8 1 0 0 0 0 0 0 0 0
0 0 0 0 0 0 0 2 7 10 27 24 39 47 38 44 15 37 70 60 87 55 75 58 95 38 79 64 94 92 96 13
60 65 116 146 140 85 158 142 140 124 142 106 54 127 160 146 142 99 95 122 98 71 85 88 84 59 50 108 15 69 69 137
34 82 132 170 155 70 191 9 96 52 171 37 198 68 116 103 149 139 129 151 54 147 120 117 90 72 139 16 56 102 61 107
122 168 71 140 150 195 141 217 95 107 75 93 161 148 143 98 55 203 8 153 10 162 134 138 86 152 107 112 92 51 162 168
138 167 180 156 181 15 146 108 135 23 75 206 137 6 224 215 204 98 152 169 138 144 101 111 110 147 113 49 123 132 52 91
124 93 4 157 3 132 169 169 170 133 168 162 155 127 191 41 57 188 170 185 13 129 98 16 75 13 137 44 122 113 16 70
8 101 125 32 78 105 155 126 96 97 6 98 76 37 122 171 155 87 146 129 122 90 111 16 96 127 94 67 58 80 15 66
83 6 11 63 24 114 120 99 128 102 16 72 108 90 51 40 41 55 15 46 30 26 10 1 1 0 0 0 0 0 0 0
0 0 0 0 0 0 0 5 9 12 30 26 41 49 39 45 15 38 71 60 89 56 76 58 95 38 80 65 96 94 98 14
61 66 117 148 142 85 159 143 140 124 142 105 54 126 158 144 140 98 93 120 96 70 84 87 84 59 50 109 16 70 70 139
35 84 134 173 157 71 193 1 96 52 171 37 197 67 115 102 146 136 127 149 53 145 118 115 89 72 138 108 56 103 61 109
124 171 72 21 152 198 142 219 96 108 75 92 161 147 142 97 54 200 8 150 10 160 132 136 85 150 107 17 92 51 164 170
141 169 183 159 184 15 148 109 137 24 76 206 137 6 223 214 202 97 150 166 136 141 100 109 109 145 112 49 122 132 52 92
125 94 4 159 3 134 171 171 172 135 169 162 155 127 191 6 56 186 168 183 13 127 96 16 74 13 136 44 121 113 109 70
8 102 127 33 79 107 157 128 97 98 6 99 76 37 122 170 154 87 145 128 121 88 109 16 94 125 93 66 58 80 100 66
84 6 12 64 24 116 122 15 132 106 110 75 112 94 53 41 43 57 16 48 33 28 11 0 3 0 0 0 0 0 0 0
0 0 0 0 0 0 0 8 11 13 5 28 44 51 40 46 15 39 72 61 90 56 77 9 95 39 80 65 97 95 99 14
62 67 119 150 143 86 160 143 140 123 141 104 54 124 156 142 138 96 92 119 95 69 83 87 84 59 51 109 16 71 71 141
35 85 136 175 24 72 195 9 96 52 171 37 196 67 114 100 144 134 125 146 53 143 117 114 89 72 138 109 56 104 62 110
126 174 73 144 154 200 144 221 97 108 75 92 160 146 141 96 54 197 8 148 10 157 130 135 13 149 106 112 93 52 166 173
21 172 186 161 187 15 150 110 138 24 76 207 137 6 222 212 200 96 148 163 134 139 98 108 107 143 111 49 122 133 52 93
127 96 4 162 3 137 174 174 174 136 170 24 155 126 190 40 56 184 166 180 13 125 94 16 73 13 134 43 120 113 109 71
9 103 129 33 80 109 160 130 99 99 7 100 76 37 122 169 153 86 143 126 18 87 108 15 92 123 92 65 57 80 100 67
84 6 12 65 25 118 124 102 134 110 114 78 116 97 55 6 44 9 17 51 35 31 12 1 5 0 0 0 0 0 0 0
0 0 0 0 0 0 2 11 1 15 35 4 45 52 42 47 16 39 73 62 91 57 79 58 11 39 12 66 98 97 101 118
63 68 121 152 145 87 161 143 140 123 140 104 53 123 154 140 136 94 90 17 94 68 82 86 10 60 51 111 133 72 73 144
36 86 138 178 161 72 196 72 12 52 170 36 23 66 112 99 142 132 123 144 52 141 115 113 88 71 139 109 57 105 63 112
128 177 74 147 19 24 145 223 12 109 11 92 19 145 139 95 53 23 8 146 78 155 128 133 83 148 106 112 93 52 168 175
145 21 189 164 190 130 152 111 139 199 76 207 137 49 220 210 197 95 146 161 131 137 96 106 106 142 110 49 123 16 53 94
129 97 37 165 29 139 176 176 175 137 171 163 155 126 189 40 8 22 164 177 103 123 93 16 72 106 133 43 120 113 109 72
72 105 131 34 82 110 19 131 100 100 55 100 9 37 122 169 18 10 142 124 117 85 106 127 14 121 90 65 57 10 100 67
85 54 99 66 25 120 126 104 136 114 14 80 120 101 7 44 46 62 17 53 37 33 14 12 6 0 0 0 0 0 0 0
0 0 0 0 0 0 5 14 2 16 37 4 47 54 43 48 16 40 74 63 93 58 79 58 11 39 82 67 100 98 103 120
64 69 122 153 146 87 162 144 140 123 140 103 52 121 152 138 133 14 89 115 92 68 82 86 10 60 51 112 135 73 74 146
5 88 140 180 163 73 197 73 12 52 170 36 23 66 111 98 140 130 121 21 51 139 114 112 88 71 139 110 58 107 64 114
130 180 75 149 19 25 147 224 12 109 75 92 19 143 138 94 52 23 8 143 77 152 126 131 82 148 106 112 94 8 170 178
147 21 193 167 193 132 154 112 140 200 76 207 136 49 218 207 195 93 144 158 129 135 95 105 105 141 109 48 123 16 53 95
20 99 37 168 29 141 179 178 177 138 172 164 155 126 188 39 55 22 161 175 101 121 91 15 71 105 132 43 120 114 110 72
73 106 133 34 83 112 20 133 101 101 55 101 9 37 122 168 18 10 140 123 115 84 104 125 90 119 89 64 57 10 100 67
86 55 100 67 26 122 129 105 138 115 15 83 124 104 7 46 47 64 18 55 38 35 15 13 8 0 0 0 0 0 0 0
0 0 0 0 0 0 8 17 2 18 39 4 49 56 44 49 16 41 75 64 94 59 78 58 12 40 83 68 101 100 16 122
65 70 124 155 147 88 162 144 139 122 139 102 52 119 149 135 131 91 87 113 91 67 81 86 10 60 52 113 137 74 75 148
37 89 142 182 165 74 198 73 12 52 169 36 23 65 109 96 138 128 119 139 50 137 113 111 87 72 140 111 58 108 65 116
133 183 77 151 19 25 148 225 12 109 75 91 19 142 136 92 51 23 8 141 76 150 125 130 82 147 106 113 95 53 172 181
150 22 196 169 196 134 155 113 141 201 76 206 136 48 216 205 192 92 141 156 127 132 93 103 104 140 109 49 124 16 54 96
133 101 38 170 30 143 181 180 178 139 172 164 155 19 187 39 54 21 159 172 99 119 90 15 70 104 131 43 120 114 111 73
74 108 135 35 84 114 20 135 102 102 56 101 9 37 121 167 18 10 138 121 114 83 102 123 88 118 88 64 56 10 100 68
87 55 102 68 26 124 131 107 139 116 15 85 128 107 7 47 49 66 18 57 40 37 16 15 9 1 0 0 0 0 0 0
0 0 0 0 0 0 10 19 2 19 42 4 51 57 44 50 16 41 76 65 95 60 78 58 12 40 84 69 103 102 106 124
66 71 125 156 148 88 162 143 139 121 137 101 51 118 147 133 129 90 86 112 90 66 81 86 10 61 52 115 139 75 76 151
38 91 144 184 166 74 199 73 12 52 168 36 23 64 108 14 135 126 117 137 50 136 112 111 87 72 141 112 59 110 66 118
135 186 78 153 19 25 149 226 12 109 74 91 19 141 134 91 51 22 8 138 74 148 123 129 82 147 106 114 96 54 175 184
152 22 199 172 198 135 157 114 141 201 76 206 135 48 214 203 190 91 139 153 125 130 92 102 103 139 109 49 124 16 55 98
135 102 39 173 30 22 183 181 180 139 173 164 154 125 185 39 53 21 157 169 98 117 88 15 69 103 130 42 120 115 112 74
75 110 138 35 86 116 20 136 103 103 56 101 9 37 120 165 18 10 136 119 112 81 101 121 87 116 87 63 56 10 101 68
88 56 104 70 27 126 133 108 141 118 16 88 131 110 7 48 50 68 19 59 42 38 17 16 11 1 1 0 0 0 0 0
0 0 0 0 0 1 13 22 0 20 44 4 52 58 45 51 16 41 77 66 97 60 78 59 12 40 85 70 105 103 108 126
67 72 126 158 149 88 162 143 138 120 136 99 51 116 145 131 19 88 85 110 89 66 80 86 10 61 53 116 141 76 78 153
38 92 146 186 168 75 200 73 12 52 167 35 22 63 106 93 133 124 17 135 7 134 111 111 87 72 142 113 60 111 67 120
137 189 79 155 20 25 150 227 12 109 74 90 19 139 133 90 50 22 8 136 73 146 18 128 81 147 107 115 97 55 178 187
155 22 202 174 201 137 158 115 142 201 76 31 134 47 212 200 187 89 137 23 123 128 91 101 102 139 109 49 125 17 8 15
137 104 39 176 31 147 185 183 181 140 173 164 154 124 184 38 53 21 154 166 96 115 87 15 68 15 129 42 121 116 113 75
76 112 140 36 87 117 21 138 104 104 56 102 9 37 120 164 18 10 134 117 110 80 99 119 86 115 87 63 56 10 102 69
89 57 105 71 27 128 135 110 143 119 16 90 135 112 8 49 51 69 19 61 43 40 18 17 12 1 2 0 0 0 0 0
0 0 0 0 0 2 15 24 2 21 45 4 53 59 46 51 17 42 78 66 98 60 79 59 12 41 87 71 107 105 110 128
10 73 127 159 149 89 162 143 137 119 135 98 50 114 142 129 125 87 83 109 88 66 80 86 10 62 54 118 143 78 79 156
39 93 148 188 169 75 200 73 12 51 166 35 22 62 105 92 131 121 113 133 48 133 110 110 88 72 143 115 61 113 68 122
139 192 80 157 20 25 150 228 12 108 74 90 18 138 131 88 49 21 7 134 72 144 18 127 81 147 107 116 98 56 181 190
158 23 205 177 203 138 159 115 142 202 76 204 133 47 209 197 184 88 134 148 121 126 90 100 101 138 109 49 126 17 56 101
140 16 40 179 31 148 187 184 182 140 173 163 153 123 182 38 52 3 152 164 94 113 86 15 68 101 129 43 121 117 115 76
77 113 142 37 88 119 21 139 105 104 56 102 9 37 119 163 17 10 132 115 108 79 97 117 85 114 86 63 56 10 102 70
90 58 107 72 27 130 136 111 144 120 16 92 138 115 8 50 52 71 20 62 44 41 19 19 13 1 1 0 0 0 0 0
0 0 0 0 0 3 18 27 3 22 47 4 54 9 47 52 17 42 79 10 99 60 79 59 12 41 88 73 108 107 111 130
69 74 129 160 150 89 162 142 137 118 133 97 49 112 140 127 123 86 82 108 88 65 80 86 10 62 54 120 146 79 80 158
39 94 149 190 170 75 201 73 12 51 164 35 22 61 103 90 129 119 112 131 48 132 110 110 88 73 145 116 62 115 70 19
141 195 81 159 20 26 151 228 12 108 73 89 18 136 129 87 48 21 7 132 71 142 120 127 81 148 108 117 99 56 184 193
160 3 208 179 206 139 161 116 142 201 76 203 132 47 207 195 181 86 132 145 119 125 89 99 101 138 109 49 128 17 57 103
142 108 41 181 31 23 189 186 183 140 173 24 152 122 180 37 51 20 149 161 93 111 84 14 67 101 129 43 122 118 116 77
78 115 145 37 90 121 21 141 106 105 57 102 9 37 118 161 17 10 130 113 106 77 96 116 84 17 86 63 56 10 103 71
92 59 109 73 28 132 138 112 146 121 16 94 141 117 8 51 53 72 20 64 45 43 19 20 14 2 5 0 0 0 0 0
0 0 0 0 1 3 20 29 3 23 49 5 55 61 7 52 17 43 80 68 99 60 79 60 12 42 90 74 110 109 113 132
70 74 130 161 150 89 162 142 136 117 132 14 48 111 138 124 121 84 81 107 87 65 80 87 2 63 55 122 148 80 82 161
40 95 151 191 171 75 201 73 11 51 24 34 22 60 101 89 127 118 110 130 47 131 110 110 88 74 147 118 63 117 71 126
144 197 82 160 20 26 152 228 12 108 73 88 18 134 127 86 47 21 7 130 70 141 119 19 81 149 109 118 101 57 187 196
163 24 211 181 208 141 161 116 21 201 75 201 131 46 204 192 178 85 130 143 117 123 88 98 101 138 110 50 129 17 58 104
144 109 41 184 32 152 190 187 183 141 173 162 151 121 178 37 51 20 147 158 91 110 83 14 67 101 129 43 123 119 118 78
80 117 147 38 91 18 21 142 106 105 57 101 9 36 117 159 17 9 128 112 104 76 94 114 83 112 85 63 57 10 105 72
14 60 111 74 28 134 140 114 147 121 16 94 143 119 8 52 54 73 21 65 46 44 20 21 15 2 7 1 0 0 0 0
0 0 0 0 3 4 22 31 24 24 50 39 56 62 6 53 17 43 81 69 99 60 12 61 102 43 11 75 112 110 115 133
71 75 130 161 18 89 24 141 135 116 130 11 48 109 135 122 119 83 10 106 10 65 81 87 87 64 56 124 151 82 83 163
40 97 152 192 21 76 201 73 95 8 19 4 177 9 100 87 125 116 108 128 47 130 109 111 89 74 148 120 64 119 72 128
146 200 83 162 170 216 152 228 98 107 72 87 148 132 15 84 47 170 7 128 70 140 14 2 81 149 110 120 102 58 190 30
166 199 26 183 210 142 162 117 142 200 75 200 19 45 201 189 176 10 128 141 116 122 87 98 100 138 17 50 131 146 59 106
147 111 42 187 32 153 192 188 184 141 172 161 150 120 176 4 7 19 3 155 90 108 82 117 66 12 129 43 124 121 119 80
81 119 149 38 92 124 179 143 13 13 57 101 76 36 116 157 140 77 126 110 103 75 11 14 82 111 85 63 57 10 106 73
11 61 113 76 29 136 142 115 148 122 133 94 146 121 68 53 55 74 21 66 47 45 21 22 16 2 1 3 0 0 0 0
0 0 0 0 1 5 24 33 4 25 51 40 57 63 6 53 3 44 82 70 99 60 81 61 103 7 11 76 114 112 116 135
72 76 131 162 18 89 161 140 133 17 128 11 47 107 133 120 117 82 10 105 10 65 81 88 88 65 57 126 153 83 84 25
41 98 154 194 21 76 200 72 94 50 19 4 175 59 98 86 123 114 107 127 47 130 109 111 90 75 151 122 65 121 73 130
148 203 84 163 171 217 152 228 97 106 72 86 146 130 15 83 46 167 7 126 69 139 14 15 82 151 111 121 104 59 193 203
168 202 26 185 212 143 163 117 142 200 75 198 128 45 198 186 173 10 126 139 114 120 86 97 100 139 111 51 132 148 60 108
149 113 42 189 32 155 193 189 184 140 172 160 149 118 174 4 49 19 17 153 13 107 81 116 66 12 130 43 126 122 18 81
82 121 152 39 94 125 181 144 13 13 57 101 75 36 115 155 138 76 124 108 101 74 11 13 81 111 85 63 57 10 107 74
12 62 115 77 29 137 143 116 149 123 133 94 148 123 68 53 55 75 21 67 48 46 21 22 17 2 1 4 0 0 0 0
0 0 0 0 5 5 26 35 26 25 52 41 58 63 6 54 17 44 83 70 100 61 81 62 105 44 11 78 116 114 118 137
72 76 132 162 18 88 160 139 132 113 19 11 46 105 131 118 115 81 9 104 10 65 81 89 89 66 58 128 156 84 86 168
41 99 155 195 21 76 200 72 94 49 19 4 172 58 96 84 121 112 106 126 46 130 110 112 90 76 153 124 66 123 74 132
150 205 85 164 171 217 152 227 97 105 71 13 144 128 15 81 45 165 7 125 68 138 14 15 82 152 113 123 105 60 196 206
171 205 26 187 213 143 163 117 142 199 74 196 127 44 195 183 170 10 124 137 113 119 86 15 101 140 112 51 134 151 61 110
152 115 43 191 5 156 194 189 184 140 171 159 148 117 172 4 48 19 17 150 87 105 81 115 66 12 130 44 127 124 123 82
84 123 154 40 95 126 182 145 13 13 56 100 75 35 113 153 136 74 122 106 99 73 11 13 81 110 85 63 58 10 109 75
12 63 116 78 30 139 145 117 150 18 133 94 148 124 69 54 56 76 21 10 49 47 22 23 18 2 1 5 0 0 0 0
0 0 0 2 6 6 28 36 27 26 53 41 9 64 6 54 18 45 84 70 100 61 82 63 107 45 11 79 118 115 120 138
73 77 132 162 18 88 159 138 131 112 125 11 45 104 129 117 114 80 9 104 10 66 82 90 90 67 59 130 158 86 87 170
42 99 156 195 21 76 199 72 93 49 3 4 169 57 95 83 119 111 104 125 46 130 110 113 14 77 155 126 67 125 76 134
152 207 86 165 172 218 152 227 96 105 70 84 142 126 14 80 44 162 7 123 68 137 14 15 83 154 114 125 107 61 200 210
173 208 27 189 215 144 164 117 142 198 73 194 125 44 192 180 167 10 122 135 111 118 85 97 101 141 114 52 136 153 62 112
154 116 44 193 33 157 195 189 184 140 170 158 146 116 169 4 47 19 16 148 86 104 80 115 66 12 131 44 129 126 125 84
85 125 157 40 96 128 184 146 13 13 56 100 74 35 112 151 133 73 120 104 98 72 11 13 80 110 85 64 58 10 110 76
12 64 118 79 30 141 146 118 151 123 133 94 147 19 70 54 56 76 22 69 50 48 23 24 19 3 1 6 1 0 0 0
0 0 0 4 7 6 30 38 28 27 54 42 59 64 6 55 18 45 85 71 100 62 83 64 108 46 12 80 120 117 121 140
73 77 133 162 18 88 158 136 129 110 123 11 45 102 127 115 112 79 9 104 10 66 83 91 92 68 60 132 161 87 88 172
42 100 157 196 21 75 198 71 92 48 18 4 167 56 93 82 117 109 103 124 46 130 111 114 93 78 158 128 68 127 77 136
154 210 86 166 173 218 152 226 95 104 69 83 140 124 14 79 44 160 7 122 67 137 2 15 83 155 116 127 109 62 203 213
176 211 27 191 216 144 164 17 141 196 73 192 123 6 189 177 164 9 120 133 110 117 85 97 101 142 17 53 139 156 63 113
157 118 44 196 33 158 196 190 184 139 169 157 144 114 167 4 47 18 16 146 85 103 79 114 66 12 132 45 130 128 127 85
87 127 159 41 97 129 185 146 13 13 56 99 73 35 111 149 131 72 118 103 96 71 11 13 80 110 86 64 59 10 112 78
12 65 120 80 30 142 148 118 151 123 133 94 146 126 70 55 57 77 22 69 50 49 23 25 20 3 2 7 2 0 0 0
0 0 0 5 1 7 31 39 29 27 55 42 59 65 1 55 18 46 86 71 101 62 84 65 110 46 12 82 121 119 18 141
74 77 133 162 18 87 156 135 127 109 121 10 44 100 125 113 111 79 9 104 10 66 84 92 93 69 61 134 164 88 89 174
43 101 157 196 21 75 197 71 91 48 18 4 164 55 92 80 115 108 102 123 46 130 111 115 94 79 160 130 69 129 78 138
156 212 87 167 173 218 151 224 95 103 68 82 138 122 14 77 43 157 7 121 67 136 14 15 84 157 118 129 111 63 206 216
178 213 27 192 217 145 164 116 140 195 72 190 122 42 186 174 161 9 118 131 109 116 85 97 102 143 116 54 141 158 64 115
159 120 45 198 34 159 196 190 27 138 168 155 143 113 164 4 46 18 16 144 84 102 79 114 66 12 133 7 132 130 129 87
88 129 161 41 98 130 186 146 13 13 56 99 73 34 16 147 129 71 116 101 95 70 11 13 80 110 86 65 60 10 114 79
12 66 122 81 31 144 149 119 152 123 132 93 145 127 71 55 57 77 22 70 51 50 24 26 21 3 2 8 3 0 0 0
0 0 0 6 9 7 33 41 29 28 8 42 60 10 6 55 18 46 86 71 102 63 86 66 112 47 12 83 123 120 124 142
74 78 133 162 18 86 155 133 126 107 119 10 43 98 123 112 110 78 9 104 10 67 85 93 94 70 62 137 166 90 90 176
43 102 158 197 21 75 196 70 90 47 18 4 161 54 14 79 114 107 102 123 46 131 112 116 95 81 163 132 70 131 79 140
157 213 87 168 173 217 151 223 94 102 68 81 136 120 14 76 42 155 6 120 66 136 14 15 85 159 119 131 113 64 210 219
181 215 27 193 218 145 164 116 139 29 71 187 120 42 183 171 159 9 117 130 108 116 85 98 103 145 118 54 143 161 65 117
161 121 45 199 34 159 196 190 183 138 166 153 141 111 162 4 45 18 16 142 83 101 78 114 66 12 135 46 134 132 132 88
90 131 163 42 99 131 187 147 13 13 55 98 72 34 108 145 127 70 114 99 94 69 10 2 80 111 87 66 60 11 116 80
13 67 124 83 31 145 150 120 152 123 132 93 144 126 71 55 57 77 22 70 51 50 24 26 22 3 2 9 4 0 0 0
0 0 0 8 10 8 34 42 30 28 56 43 60 65 6 56 18 47 87 72 103 64 87 67 114 48 12 84 125 121 125 143
75 78 133 162 18 86 153 132 124 106 117 10 42 97 121 111 109 78 9 104 11 68 86 95 96 71 63 139 169 14 91 178
43 102 158 197 21 75 194 69 89 46 18 4 159 53 89 78 112 106 101 122 46 131 113 117 96 82 165 134 71 133 80 141
159 215 88 168 173 217 150 221 93 100 67 80 133 118 13 75 42 153 6 119 66 137 14 16 86 24 121 133 114 65 213 223
183 218 28 194 218 145 163 115 138 191 70 185 118 41 180 168 156 9 115 129 108 116 85 98 104 146 119 55 146 164 66 119
164 123 46 201 34 160 197 189 182 137 165 152 139 109 159 4 44 17 15 140 82 100 78 114 66 12 136 46 136 134 134 89
91 133 25 42 15 131 187 147 13 13 55 97 71 33 106 142 125 69 112 98 92 68 10 13 80 111 87 66 61 11 118 82
13 68 126 84 31 146 151 120 152 123 131 92 143 124 71 55 57 78 22 71 52 51 25 27 23 3 2 10 1 1 0 0
0 0 1 9 11 8 35 43 5 3 56 43 60 8 50 7 19 48 10 72 104 65 88 68 116 49 104 85 126 123 126 144
75 78 133 161 148 85 18 130 122 104 115 83 42 11 119 109 108 77 77 13 88 68 87 96 98 72 64 141 21 92 92 179
5 103 159 29 21 74 193 69 88 46 144 30 156 52 87 77 111 105 101 122 46 132 114 119 98 83 168 137 73 135 81 143
160 26 11 169 173 216 149 220 92 99 66 78 131 116 110 74 41 151 53 119 66 137 120 131 87 164 123 20 116 66 216 27
185 220 232 195 219 145 163 115 137 189 8 22 116 5 177 165 154 73 114 128 107 116 85 99 105 148 2 56 148 166 67 121
166 124 46 202 34 160 196 189 181 136 163 150 137 108 157 32 44 142 127 138 81 100 78 14 67 104 138 47 139 136 136 91
92 135 167 42 100 132 188 147 107 104 55 96 70 33 104 140 123 67 111 96 91 68 86 107 80 112 88 67 62 91 120 83
108 69 127 85 32 147 152 120 152 123 16 91 141 123 71 55 57 12 22 71 52 52 25 3 23 3 17 11 6 2 0 0
0 0 2 10 12 8 36 44 31 3 57 43 61 8 51 7 19 48 10 11 105 66 90 69 118 50 105 87 19 124 127 145
75 78 133 160 146 84 18 128 120 102 113 82 41 11 118 108 107 77 77 13 89 69 88 98 99 74 65 143 21 93 93 181
5 103 159 196 21 74 191 68 87 45 142 30 153 51 86 76 110 104 100 122 46 133 116 121 99 85 171 139 74 137 82 144
162 26 11 25 173 215 148 218 91 98 65 77 129 114 108 73 6 150 53 118 66 138 121 133 88 167 125 138 118 68 219 27
187 221 233 196 219 145 24 114 136 187 8 22 114 5 174 163 151 11 113 127 107 116 86 100 106 150 15 9 23 169 68 18
168 126 46 204 34 160 196 188 180 134 161 148 135 106 154 32 43 140 125 137 81 100 78 14 67 105 140 48 141 139 138 92
94 137 169 43 101 132 188 147 107 103 54 14 69 32 103 138 121 66 109 95 90 67 85 107 80 113 89 68 63 93 122 84
110 70 129 86 32 148 152 120 152 122 16 91 140 121 71 55 57 78 22 71 53 52 25 3 24 4 18 12 7 3 0 0
0 0 3 11 12 9 37 44 31 3 57 43 61 8 51 7 19 49 11 74 107 67 91 70 120 50 107 88 129 125 128 145
75 78 132 159 145 83 18 127 119 15 112 80 40 11 116 107 107 77 77 13 90 70 89 99 101 75 66 146 21 94 94 182
5 103 159 195 20 73 189 67 86 44 140 29 151 51 85 75 109 104 100 123 47 135 117 122 101 86 174 21 75 21 83 146
163 26 11 169 172 214 147 215 90 96 64 76 127 112 106 72 40 149 52 118 66 139 122 135 90 169 127 140 120 69 222 28
189 223 235 196 219 144 161 113 135 185 8 21 113 5 171 160 149 72 112 126 106 116 86 100 107 153 15 58 153 172 69 124
170 127 47 205 34 160 196 187 178 133 24 146 133 104 151 31 6 138 124 136 80 99 78 14 68 107 142 49 143 141 141 94
95 138 171 43 101 133 188 146 107 102 54 94 68 32 101 135 119 65 107 94 89 67 85 107 81 114 90 69 64 94 124 86
112 71 131 86 32 149 153 120 152 122 15 90 138 120 70 55 57 77 22 71 53 53 26 4 25 4 19 13 8 4 0 0
0 0 3 12 13 9 38 45 31 3 57 43 61 8 51 7 19 49 11 74 108 68 93 71 122 51 109 89 131 126 129 146
75 78 132 158 144 12 18 125 117 99 110 79 40 11 115 16 106 77 77 13 91 71 91 101 103 76 67 148 21 95 95 183
5 103 158 195 20 72 187 66 84 44 138 29 148 50 84 74 108 16 100 123 47 20 119 124 103 88 177 143 76 141 84 147
164 26 11 168 172 213 146 213 89 95 63 75 125 111 105 71 40 147 52 118 67 140 123 136 91 172 130 143 122 10 225 28
190 225 236 197 219 144 160 112 133 183 8 21 111 5 168 158 147 71 111 125 106 116 87 102 108 155 15 59 23 175 71 126
172 128 47 205 35 160 195 186 27 132 157 144 131 103 149 31 42 136 122 134 80 99 79 14 68 108 144 49 146 144 21 95
96 140 172 43 102 133 188 146 106 102 53 93 68 31 99 133 117 64 106 93 89 66 85 107 81 115 92 70 65 96 126 87
113 72 132 87 33 150 153 120 151 121 15 89 137 118 69 55 57 77 22 71 53 53 4 4 26 4 20 14 9 5 0 0
0 0 4 13 14 9 39 45 32 3 58 44 61 8 52 7 19 49 11 75 110 69 94 73 124 52 110 90 132 127 129 146
75 78 131 157 143 82 17 123 115 97 108 78 6 11 114 106 106 77 78 13 92 72 92 103 104 77 68 150 22 96 96 184
5 103 158 194 20 72 185 65 12 43 135 28 146 49 83 74 108 103 100 124 47 138 120 126 104 89 180 146 77 143 85 148
165 26 11 168 171 211 144 211 88 94 62 73 123 109 103 70 39 146 52 118 67 141 19 138 92 175 132 145 124 71 228 28
192 226 236 197 218 143 159 111 132 180 8 21 109 5 166 155 145 70 110 125 107 117 87 103 110 157 16 60 158 177 72 127
174 129 47 206 35 160 194 184 175 130 155 142 129 101 146 30 41 134 121 133 80 99 79 14 69 110 146 50 148 146 145 97
97 141 174 44 102 133 188 145 105 101 53 91 67 31 98 131 115 63 104 92 88 66 85 108 82 116 93 71 10 98 128 89
115 73 134 88 33 150 153 120 150 120 15 88 135 116 68 54 56 77 22 72 54 54 27 4 27 4 21 15 10 6 0 0
0 1 5 14 14 9 39 46 32 3 58 44 62 8 52 7 20 50 2 76 112 70 96 74 126 53 112 91 133 128 130 146
75 77 130 156 141 81 17 121 113 96 106 76 39 11 113 105 106 78 78 2 93 73 94 104 106 79 69 152 22 97 96 185
5 103 157 193 20 71 183 64 82 42 133 28 144 48 82 73 107 103 101 125 48 140 122 128 106 91 183 148 78 144 86 149
166 26 11 168 170 31 143 208 86 92 61 72 121 107 102 69 39 146 52 119 67 142 126 140 94 178 134 147 126 71 230 29
193 227 237 197 218 142 158 110 130 178 8 20 107 4 163 153 144 70 109 125 107 118 88 104 112 160 16 61 161 180 72 129
175 130 48 207 35 159 193 183 174 129 153 140 127 99 144 30 40 133 120 133 79 100 79 14 70 111 149 51 151 148 147 98
99 143 175 44 103 133 187 144 104 100 52 90 66 30 96 129 113 62 103 91 88 66 85 108 83 118 94 72 67 99 130 90
116 74 135 89 33 151 153 120 150 119 15 87 133 115 10 8 56 12 22 11 54 55 27 4 28 4 23 16 11 6 1 0
0 3 5 15 15 10 40 46 32 4 58 44 62 8 53 7 20 50 11 77 113 71 97 75 128 53 113 92 134 129 130 147
75 77 129 154 139 79 17 119 111 94 104 75 38 11 113 105 106 78 79 13 94 74 95 16 108 80 70 154 22 98 97 186
5 103 157 191 20 70 180 63 80 42 131 27 142 48 81 72 107 103 101 126 48 142 124 131 108 92 186 150 79 146 86 150
166 27 11 167 169 208 141 205 85 91 60 71 119 16 100 68 39 145 52 119 68 144 128 143 96 181 136 150 128 72 233 29
194 228 237 196 217 141 156 109 128 175 8 20 105 4 161 151 142 69 109 125 107 118 89 106 113 163 16 62 163 183 73 130
177 131 48 207 34 159 192 181 172 127 151 137 125 98 142 29 40 131 119 132 79 100 80 14 71 113 151 52 153 23 150 99
100 144 176 44 103 133 186 144 103 99 51 89 65 30 95 127 111 62 102 90 87 66 13 109 83 119 96 73 69 101 132 91
118 75 136 13 33 151 153 119 149 118 15 86 131 113 66 54 56 77 22 72 54 55 28 4 28 4 24 17 12 7 2 0
0 4 6 16 15 10 40 46 32 4 58 44 62 8 53 7 20 51 11 79 115 72 99 76 130 54 114 93 135 129 130 146
75 77 128 153 138 78 17 117 109 93 103 74 38 11 112 105 107 79 80 13 96 75 97 108 110 81 71 155 22 99 97 186
5 103 156 190 20 69 178 62 79 41 129 27 140 47 80 72 107 103 102 127 49 144 126 133 110 94 188 152 80 147 87 151
167 27 11 166 168 206 139 202 84 89 59 70 117 104 99 68 38 145 52 18 69 146 130 145 97 184 139 152 129 73 235 29
195 228 237 196 216 140 155 107 127 173 8 20 104 4 158 149 141 69 109 125 108 120 90 107 115 165 16 63 166 185 74 132
178 132 48 207 34 158 190 180 170 125 149 135 123 96 139 29 39 130 118 132 80 101 81 15 72 115 154 53 156 153 152 100
101 145 177 44 103 133 185 142 103 97 51 87 63 29 93 125 110 61 101 90 87 66 86 110 84 121 97 75 70 103 134 14
119 76 21 90 33 151 153 119 148 117 15 85 129 111 65 53 56 76 22 72 55 56 28 4 29 5 25 18 13 8 3 0
0 5 6 16 15 1 40 6 32 29 58 44 62 69 54 62 21 51 94 80 117 74 101 77 131 55 17 94 136 130 131 146
75 76 127 151 136 77 136 14 107 91 101 73 37 87 112 105 107 79 81 113 97 77 99 13 111 12 72 157 23 12 98 186
44 102 155 188 161 68 175 61 78 40 127 4 138 47 80 72 107 104 103 128 6 146 128 135 112 95 191 154 81 149 88 151
167 221 88 165 166 24 138 200 82 88 58 69 115 103 98 67 38 145 52 121 69 148 132 147 12 187 141 154 131 74 237 244
196 229 237 195 214 17 153 106 125 170 7 160 102 35 19 148 140 10 109 125 109 121 92 13 117 168 138 64 168 23 9 133
179 132 48 207 34 157 189 178 168 124 146 133 121 94 137 28 39 129 118 132 80 101 10 123 73 117 156 54 158 155 154 101
102 146 178 44 103 132 184 141 101 96 50 86 62 29 91 123 108 60 100 11 87 66 87 111 86 123 99 76 71 104 136 11
121 76 138 90 33 151 152 118 147 17 121 83 127 109 64 53 55 76 22 72 55 57 29 34 4 5 26 2 14 9 3 0
0 6 6 17 16 1 41 6 32 29 58 44 63 70 55 63 21 52 95 81 119 75 102 79 133 55 117 94 137 130 131 146
74 76 126 149 134 76 134 14 106 90 100 72 37 87 111 105 108 80 82 114 99 78 100 13 113 83 73 159 23 12 98 186
7 102 23 186 159 67 172 60 77 40 124 26 136 46 79 72 107 16 104 20 6 148 131 137 113 97 194 156 82 150 88 152
167 220 13 164 165 24 136 197 81 86 57 67 113 101 97 67 38 145 53 122 70 150 134 150 12 190 143 156 133 75 239 245
197 229 236 194 213 2 152 105 123 167 7 158 100 35 19 146 139 68 109 126 110 122 93 13 119 171 141 65 171 23 9 134
180 132 48 206 34 156 187 176 165 122 144 131 119 93 135 28 39 128 117 132 12 102 10 125 74 119 159 55 161 158 156 103
102 147 178 7 102 132 183 140 100 95 49 85 61 28 90 121 107 59 99 11 87 66 87 17 87 125 100 77 72 106 138 11
122 77 139 90 33 151 152 118 145 115 120 82 125 107 63 52 55 76 22 73 56 58 29 35 4 5 27 2 15 10 4 0
0 7 7 17 16 1 41 6 32 29 58 44 63 70 55 64 21 53 97 82 121 76 104 80 135 56 118 95 137 130 130 145
74 75 125 147 132 75 131 13 104 88 98 72 37 86 111 106 108 81 83 116 101 79 102 14 115 85 74 160 23 12 98 186
44 101 153 184 157 67 170 59 75 39 123 26 134 46 79 71 107 105 105 132 6 151 133 140 115 98 197 158 12 151 89 152
167 219 87 162 163 24 134 194 80 85 56 66 112 100 96 66 38 146 8 123 71 152 136 152 12 193 145 158 134 76 241 246
197 229 236 193 211 16 150 103 121 164 7 155 99 34 18 145 138 68 109 127 111 124 94 13 121 174 143 66 173 23 9 135
181 133 48 206 34 155 185 174 163 120 142 129 117 91 133 28 38 127 117 132 81 103 10 126 76 121 162 56 163 160 157 104
103 148 179 44 102 131 182 139 99 94 48 83 9 28 89 119 106 59 99 11 87 67 88 114 88 127 102 79 73 108 140 12
123 78 140 91 33 150 151 117 144 114 118 81 123 106 62 51 55 75 22 73 56 58 30 36 4 5 28 2 16 11 5 0
0 7 7 17 16 1 41 6 32 29 58 44 64 71 56 65 21 53 98 84 123 77 106 81 137 57 119 95 138 130 130 145
73 74 123 146 130 74 129 13 102 87 97 71 36 13 111 106 109 82 84 118 102 81 104 14 116 86 74 161 23 12 98 186
44 100 151 182 155 66 167 58 74 38 121 25 133 45 78 72 108 106 106 134 6 153 135 142 117 99 199 159 83 152 89 152
166 219 87 161 161 24 132 190 79 83 55 65 110 99 95 66 38 146 53 124 72 154 139 155 12 197 147 160 136 76 242 247
197 228 235 192 209 16 148 102 119 162 7 152 97 34 18 144 137 68 109 128 112 126 96 14 123 177 145 10 175 23 9 136
182 133 48 205 34 154 183 172 161 118 139 126 115 90 131 27 38 127 117 133 81 104 10 128 77 123 164 56 166 162 159 104
104 148 179 44 102 130 180 137 98 92 48 82 59 28 87 117 104 58 98 11 87 67 89 115 89 129 104 80 74 109 142 12
124 78 140 91 33 150 150 116 142 112 117 80 121 104 61 50 54 75 22 73 57 59 31 37 4 5 29 3 17 12 6 0
0 8 7 18 16 1 41 6 32 29 58 45 64 72 57 66 22 54 100 85 125 79 107 82 138 57 119 96 138 130 130 144
73 73 122 143 128 72 127 13 101 86 14 70 36 13 112 107 110 83 85 120 104 82 105 14 118 87 75 162 23 12 98 185
44 100 150 180 153 65 164 57 73 38 119 25 132 45 78 72 108 107 107 136 6 156 137 144 119 101 201 161 84 152 89 152
166 217 86 159 159 23 130 187 77 82 54 64 109 98 95 66 38 147 54 126 73 157 141 158 13 200 149 162 137 12 243 248
197 34 233 191 207 16 146 100 117 159 7 150 96 34 18 143 137 68 110 129 113 127 97 14 125 180 147 68 177 24 9 136
182 133 48 204 5 152 181 169 158 116 137 124 113 89 130 27 38 126 117 133 82 105 10 130 78 125 167 9 168 164 161 105
16 149 179 44 101 129 179 136 97 91 7 81 58 27 86 116 103 58 98 11 88 68 90 117 91 131 106 81 76 111 144 12
125 79 141 91 33 149 149 115 141 111 115 78 119 102 60 50 54 75 22 74 57 60 31 37 4 5 30 3 17 13 6 0
1 9 7 18 16 1 41 6 32 29 58 45 65 73 9 67 22 55 102 87 127 80 109 83 140 58 120 96 138 130 129 143
72 73 120 141 126 71 125 2 99 85 95 70 5 86 112 108 112 84 13 122 106 83 107 14 119 88 76 164 23 12 98 185
43 99 148 178 151 64 162 56 72 37 117 25 131 45 78 72 109 108 109 138 6 158 140 147 121 102 204 162 84 153 89 152
25 216 85 158 157 23 128 184 76 81 53 64 108 97 95 66 38 148 54 128 74 159 143 160 13 202 151 164 138 77 245 248
197 227 232 189 205 16 144 99 115 156 7 148 94 33 18 142 137 68 111 130 115 129 99 14 19 183 150 69 179 24 9 137
183 133 48 203 33 150 179 167 156 114 135 122 111 87 128 27 37 126 118 134 83 16 10 133 79 127 170 58 170 166 162 106
105 149 179 44 101 128 177 134 95 90 46 79 57 27 85 115 102 58 98 11 88 69 91 119 92 133 107 83 77 112 145 12
126 79 141 91 33 148 148 113 21 109 113 77 117 100 59 7 54 75 22 74 58 61 32 38 4 6 31 3 3 13 7 0
1 9 8 18 16 1 41 6 32 29 58 45 65 73 59 68 22 56 103 13 129 81 110 84 141 58 121 14 138 130 129 142
71 11 118 139 124 70 123 13 98 84 94 69 36 86 113 109 113 85 88 124 108 85 109 14 121 88 76 164 23 12 98 184
43 98 146 175 149 63 24 56 70 37 116 24 130 45 78 72 110 109 110 140 7 161 142 149 122 103 31 164 85 153 89 152
165 215 84 156 155 23 126 181 75 79 53 63 107 97 94 66 39 22 55 130 75 162 146 163 13 205 153 166 139 78 245 248
197 226 230 187 203 16 142 97 113 154 7 145 93 33 3 142 137 69 17 132 116 131 100 14 129 185 152 70 181 24 9 137
183 133 47 201 33 149 177 164 153 112 133 120 109 86 127 27 37 126 118 135 84 108 11 135 81 129 173 59 172 167 164 107
105 149 179 44 100 127 26 132 94 88 45 78 56 26 84 113 102 57 98 11 89 69 93 120 94 136 109 84 78 114 147 12
127 79 141 91 33 147 146 112 21 108 111 76 115 99 58 48 53 75 22 75 59 62 32 39 4 6 32 3 19 14 8 0
2 10 8 18 16 1 41 6 32 29 59 45 66 74 59 70 23 57 105 90 132 82 112 85 142 59 121 97 138 129 128 141
71 71 117 137 122 69 121 12 96 83 93 69 36 86 114 110 114 86 89 126 109 86 110 15 122 89 77 165 23 12 98 183
43 97 145 173 146 61 156 55 69 36 115 24 129 45 79 73 111 111 17 21 7 164 144 151 124 104 208 165 85 154 89 151
164 213 84 154 153 22 124 178 73 78 52 62 106 96 94 66 39 23 56 131 77 165 148 166 13 208 155 167 140 78 246 248
196 225 229 185 200 15 139 95 112 151 7 143 92 33 18 142 138 69 113 134 118 133 102 15 132 188 154 71 183 24 10 138
183 132 47 200 33 22 174 162 151 110 130 118 108 85 126 26 37 127 119 137 85 110 11 137 82 131 175 60 26 169 165 107
106 149 178 44 99 126 173 130 92 87 45 77 56 26 83 112 101 57 98 11 90 70 94 122 95 138 111 85 79 115 148 12
128 79 141 90 33 146 145 111 135 106 110 75 113 97 57 48 53 75 22 75 59 63 33 40 4 6 33 3 20 15 8 0
0 1 8 18 16 10 40 6 32 29 59 46 67 75 60 71 23 58 13 91 134 83 113 86 143 59 122 12 138 129 127 139
70 70 115 135 120 68 119 101 95 82 93 8 36 13 17 13 116 88 91 128 111 87 112 15 15 90 77 166 194 12 97 181
42 96 143 170 144 60 154 54 68 36 113 24 129 5 79 73 112 112 14 144 57 167 146 18 126 106 209 166 85 154 89 18
163 32 83 152 151 27 122 175 72 77 51 61 105 96 94 67 5 153 57 134 78 168 151 168 112 211 156 169 21 78 246 30
195 223 227 183 198 126 16 94 110 149 54 142 91 32 146 142 138 70 114 135 120 136 104 124 134 191 156 71 185 203 80 17
183 132 47 198 32 145 172 159 148 109 128 117 106 13 125 26 4 127 120 138 86 13 91 17 84 133 178 61 21 171 166 108
106 149 178 43 98 19 171 129 91 85 44 75 55 26 82 111 101 57 99 91 91 71 95 124 97 140 113 13 80 116 150 101
128 80 141 90 33 145 143 110 16 104 108 73 111 96 56 47 53 75 3 76 60 8 34 41 38 1 34 26 20 15 9 2
0 1 8 18 16 10 40 6 32 29 59 46 67 77 62 72 23 59 13 93 136 85 114 87 145 59 122 12 137 128 126 138
69 69 113 133 118 67 117 100 94 81 92 8 36 87 116 13 118 89 93 130 113 13 113 15 15 91 78 166 194 12 97 180
42 95 141 168 142 59 151 53 67 35 112 24 129 5 79 74 114 114 14 147 57 169 149 19 127 107 211 167 86 154 89 18
161 209 82 150 148 179 120 172 71 76 50 61 104 96 94 67 5 155 57 136 79 171 153 171 17 213 158 170 142 79 246 30
195 221 224 181 195 124 16 92 108 146 53 140 90 32 145 142 139 70 116 137 122 138 106 126 136 194 158 72 186 204 80 17
182 131 47 196 32 143 169 157 146 107 126 115 105 84 124 26 4 128 121 140 13 14 93 17 85 135 180 61 21 172 167 108
106 149 177 43 98 123 168 127 90 84 43 74 54 25 81 111 100 57 99 92 14 72 97 19 99 143 114 88 81 118 151 102
129 80 141 90 32 144 142 108 16 103 106 72 110 94 56 47 53 75 3 77 61 8 35 42 39 6 35 27 21 16 9 3
0 1 8 18 16 10 40 5 32 29 59 47 68 78 63 74 24 60 13 94 138 86 116 87 145 59 122 12 137 127 19 136
68 68 112 131 116 10 115 98 93 80 92 8 36 88 117 14 120 91 94 132 115 90 115 15 15 91 78 166 194 12 96 178
42 93 139 165 139 58 149 52 66 35 112 24 129 5 80 75 115 116 14 149 58 172 151 19 128 108 212 167 86 154 88 18
160 207 81 148 146 176 118 170 70 75 50 60 104 96 95 67 5 157 58 138 81 173 156 173 115 216 159 171 143 79 246 30
193 220 222 179 192 123 16 91 106 144 53 138 90 32 145 142 140 71 117 139 124 140 107 128 138 196 160 73 187 205 80 17
182 130 46 194 31 21 166 154 143 105 124 113 104 83 123 4 4 129 122 142 89 14 95 17 86 137 183 62 22 173 168 108
106 148 176 43 97 122 166 125 88 82 42 73 53 25 80 110 100 58 100 92 93 73 98 129 100 145 116 89 82 119 152 102
129 80 140 89 32 142 140 107 16 101 104 71 108 93 55 46 53 75 3 78 62 8 35 43 40 6 36 27 22 16 10 3
0 1 8 18 16 10 40 5 32 29 60 47 69 79 64 75 24 61 13 96 139 87 117 88 146 59 122 12 136 126 124 20
67 67 110 128 114 64 114 97 92 80 92 8 36 89 118 14 122 92 96 135 117 91 116 15 15 92 78 166 193 12 95 177
41 92 137 162 137 57 146 51 66 34 111 24 129 5 81 76 117 118 14 152 59 175 153 19 130 108 213 168 86 153 88 18
159 204 80 146 144 173 17 167 69 11 49 60 104 96 95 10 5 159 59 140 82 176 158 176 117 218 161 172 143 79 245 29
192 218 220 177 190 121 16 89 104 142 52 21 89 32 145 143 141 72 119 142 126 143 109 130 140 199 161 73 188 205 80 17
181 130 46 192 31 139 164 152 141 103 122 112 103 82 123 26 5 130 124 144 90 14 96 18 88 139 28 63 22 174 168 108
106 148 175 42 96 120 163 123 87 81 42 72 52 25 79 110 100 58 101 93 94 74 100 131 102 147 118 90 83 120 153 103
129 80 140 89 32 141 138 105 15 99 102 70 106 92 54 46 52 75 3 79 63 8 36 7 41 7 37 28 22 17 1 4
0 1 8 18 16 10 39 5 32 30 60 47 70 80 65 76 25 62 14 97 141 88 118 89 147 60 122 12 135 125 122 133
66 66 108 126 112 63 112 96 91 80 91 8 37 90 18 14 124 94 97 137 118 93 117 15 15 92 78 166 193 12 95 175
41 91 20 160 135 57 144 51 65 34 110 24 129 5 82 77 119 120 15 155 60 177 155 19 131 109 214 168 86 153 88 18
157 202 78 143 141 170 114 164 68 73 49 60 103 96 96 69 5 161 60 143 83 179 160 178 118 220 162 173 143 79 245 29
191 215 217 174 187 119 15 88 103 140 51 136 88 32 146 144 142 73 120 144 128 145 111 132 142 201 163 74 189 206 80 16
180 129 45 190 31 137 24 149 139 102 121 110 15 82 123 26 5 131 125 146 91 14 98 18 89 141 187 63 22 175 169 108
105 147 173 42 94 18 161 121 85 80 41 71 52 24 79 109 100 58 101 95 96 76 102 133 104 149 120 91 84 121 154 103
129 79 139 88 31 139 136 103 15 98 101 69 105 91 54 45 52 76 3 79 64 8 37 45 41 7 38 29 23 17 10 4
0 1 8 18 16 10 39 5 32 30 61 48 71 82 66 77 25 63 14 98 143 89 119 89 147 60 122 11 20 124 121 131
65 65 106 124 111 63 110 95 91 79 92 1 37 91 122 14 126 95 99 139 120 94 119 16 15 92 78 166 192 12 94 173
40 90 132 157 133 56 142 50 64 34 110 4 130 6 83 78 18 122 15 157 61 180 157 20 132 110 215 168 86 152 87 17
155 199 77 141 139 167 112 162 67 72 49 59 104 96 97 69 5 164 61 145 85 182 163 180 119 222 163 174 144 79 244 29
189 213 214 172 184 117 15 86 101 138 51 134 88 32 146 145 144 74 18 146 130 148 113 134 143 203 164 74 190 206 80 16
27 127 45 187 30 135 159 147 136 100 119 109 101 81 18 26 5 132 127 148 93 15 99 18 90 143 189 64 22 176 169 108
105 146 172 41 93 117 159 119 84 78 40 70 51 24 79 109 101 59 103 96 97 77 104 135 105 152 121 92 84 121 154 103
129 79 138 87 31 137 135 102 15 96 99 68 103 90 53 45 52 76 3 80 65 8 37 46 42 7 39 4 23 18 10 4
0 1 8 18 16 10 39 5 32 4 61 49 72 83 67 79 25 64 14 100 145 89 120 90 148 60 121 11 133 123 120 130
64 64 104 122 109 62 109 94 90 79 92 8 37 92 123 15 128 97 101 141 122 95 120 16 15 93 78 165 191 12 93 171
39 13 130 155 130 55 140 49 64 34 110 24 131 6 84 79 123 124 15 160 62 182 159 20 133 110 216 168 85 152 86 17
153 196 76 139 137 165 110 159 66 72 48 59 104 97 97 70 5 166 62 147 86 185 25 183 18 224 164 174 144 78 243 29
187 211 211 169 181 115 15 85 100 136 50 134 88 32 147 146 146 75 19 149 132 150 115 136 145 205 165 75 191 206 80 16
178 126 44 185 30 133 156 144 134 99 117 108 100 81 123 27 5 134 129 150 94 15 101 18 92 145 191 64 22 176 169 108
104 145 170 41 92 115 156 117 82 77 40 69 8 24 78 109 101 59 104 97 99 78 105 138 107 154 123 93 85 122 155 103
129 79 137 87 31 136 133 100 15 94 97 67 102 89 53 45 52 76 3 81 66 9 38 47 43 7 39 30 23 18 11 4
0 1 8 17 2 9 39 5 32 30 62 49 73 84 68 80 26 65 14 101 146 90 120 90 148 60 121 11 132 18 118 128
63 63 103 120 107 9 108 93 90 79 92 8 38 93 125 15 130 99 102 143 123 96 121 16 16 93 78 165 190 12 92 169
39 13 128 152 128 54 138 49 63 34 110 24 132 6 85 80 125 126 2 162 63 185 161 20 134 111 216 168 85 151 86 17
151 194 75 136 134 162 109 157 65 71 48 59 104 98 98 71 5 169 63 150 88 188 167 185 122 225 165 174 144 78 36 29
185 208 208 166 178 113 15 84 98 135 50 133 88 32 148 148 148 76 126 151 135 152 116 138 147 207 167 75 191 206 79 16
176 125 44 182 29 131 153 142 132 97 116 107 100 81 123 27 5 136 131 153 96 15 103 19 93 147 193 65 22 26 169 108
104 144 169 40 91 113 153 115 81 76 39 68 50 24 78 110 102 60 105 99 100 79 107 140 109 23 124 94 86 123 155 103
128 78 136 86 30 134 131 99 14 14 96 66 101 88 53 45 52 77 3 83 67 9 39 48 44 7 40 30 24 18 11 4
3 1 8 17 15 9 5 45 32 30 62 50 9 86 69 81 26 66 121 102 148 91 121 90 148 59 120 94 131 120 116 126
62 62 101 118 106 60 107 93 90 79 93 71 38 94 127 125 132 100 104 145 125 97 122 132 130 93 78 164 188 96 91 166
38 85 126 149 126 53 136 48 63 33 110 24 133 48 86 82 127 128 130 165 64 187 162 167 135 111 216 168 85 150 10 141
22 191 74 134 132 159 107 155 65 71 48 7 105 99 100 72 43 172 8 152 89 23 20 187 123 226 165 175 143 78 240 236
183 205 205 164 175 111 120 82 97 133 49 133 88 32 149 150 150 77 128 154 137 23 118 139 148 209 168 75 191 206 79 134
21 124 43 180 29 128 151 17 130 96 115 106 100 81 124 27 39 17 133 155 98 127 104 19 94 148 195 65 187 177 169 13
103 143 20 40 89 111 151 14 10 75 39 68 50 24 78 110 103 7 107 100 12 81 109 142 13 19 125 95 86 123 155 103
128 78 135 85 4 132 128 97 117 91 94 65 100 10 52 45 53 77 24 84 68 74 39 48 5 7 40 30 24 2 11 4
3 1 7 17 15 9 5 45 32 30 63 50 9 87 71 83 27 67 123 103 149 92 122 90 148 59 120 93 130 119 115 124
61 61 99 116 104 59 106 92 89 80 93 72 39 96 129 127 134 102 105 147 126 98 123 133 130 93 78 163 187 95 90 164
38 84 124 147 124 52 135 48 62 33 110 24 134 48 87 83 129 130 132 167 65 189 164 168 135 111 216 167 84 148 10 139
147 188 73 132 130 157 105 153 64 70 48 7 16 100 101 73 44 175 8 155 90 23 21 188 124 228 165 175 143 77 238 234
181 202 202 161 172 109 118 81 96 132 49 132 88 32 151 151 152 78 131 157 139 157 120 141 150 211 168 76 191 205 79 133
21 122 43 177 28 126 148 16 19 95 114 106 99 81 125 27 40 17 135 158 99 129 106 19 95 150 196 66 187 177 168 13
102 141 20 39 88 110 148 13 9 74 38 67 50 24 78 111 104 7 108 102 12 82 111 144 13 19 127 95 87 124 156 103
127 77 134 84 4 130 126 95 115 90 93 64 99 10 52 45 53 78 24 85 69 75 40 49 5 7 6 31 24 2 11 4
3 1 7 17 15 9 5 45 32 30 64 51 9 88 72 84 27 68 124 104 150 92 122 90 147 59 119 92 128 117 113 122
60 60 98 115 103 59 105 92 90 80 94 72 39 97 131 129 137 103 107 149 128 99 123 133 130 93 78 162 185 94 88 162
37 83 122 145 18 52 133 48 62 33 111 24 136 7 89 84 131 132 134 170 66 191 165 170 136 112 216 167 84 147 10 137
145 185 71 130 128 154 104 152 64 70 48 7 106 101 102 74 45 178 8 157 92 4 21 190 124 228 166 174 142 77 236 232
179 200 199 158 169 107 116 80 95 131 49 132 88 32 152 153 154 80 133 159 141 159 121 143 151 212 169 76 29 204 78 132
21 121 42 174 28 124 146 16 19 94 113 105 99 82 125 27 40 17 137 161 101 132 108 20 96 151 198 66 187 177 168 13
102 140 3 6 87 108 146 13 9 73 38 66 49 24 79 112 105 7 110 103 13 84 112 146 14 19 128 96 87 124 155 103
127 77 133 83 4 128 124 94 113 88 14 63 98 10 52 45 53 79 24 86 70 76 41 50 5 7 41 31 24 2 11 4
3 1 7 16 15 9 5 45 32 31 64 8 9 90 73 85 28 69 126 105 151 93 122 90 147 59 118 91 127 115 111 120
59 59 96 113 102 58 105 92 90 80 95 73 40 99 134 132 139 105 108 151 129 99 124 134 130 92 77 161 183 93 87 159
37 81 120 142 121 51 132 47 62 33 111 25 137 50 90 86 133 134 136 172 67 193 167 170 20 112 215 166 83 146 10 135
143 182 70 128 126 152 103 150 63 70 48 7 107 102 104 76 46 181 8 160 93 24 21 192 125 229 166 174 142 76 233 229
176 197 196 156 166 106 115 79 94 130 49 133 89 33 154 156 157 81 135 162 144 162 123 144 152 213 170 76 191 203 78 131
20 119 41 171 27 122 143 16 125 93 112 105 99 82 127 28 41 17 139 163 103 134 109 20 97 152 199 66 187 176 167 13
101 138 19 38 85 106 143 13 9 72 37 66 49 24 79 113 106 8 111 105 13 85 114 148 14 20 129 97 87 124 155 102
126 76 131 82 3 126 122 92 112 87 91 63 97 10 52 45 54 80 25 87 71 77 41 50 6 7 41 31 24 2 11 4
3 1 7 16 14 9 5 45 32 31 65 52 1 91 74 87 28 70 127 106 152 93 122 90 146 58 117 90 125 114 110 118
58 58 95 111 100 58 104 92 90 81 14 74 40 100 136 134 141 106 110 152 130 100 19 134 130 92 77 159 181 91 86 157
36 80 118 140 119 50 131 47 62 34 112 25 139 50 91 87 135 137 138 174 67 195 168 171 136 111 214 165 82 144 10 134
141 179 69 126 124 150 102 149 63 70 48 7 108 103 105 77 46 184 8 162 94 24 21 193 126 230 166 173 141 76 231 226
174 194 193 153 164 104 113 78 93 130 49 133 89 33 156 158 159 82 137 164 146 164 124 145 153 214 170 76 190 202 77 130
20 117 41 169 27 120 141 16 123 92 112 105 100 83 128 28 41 18 142 166 104 136 111 20 98 153 200 66 187 176 166 13
100 136 19 38 84 104 141 13 9 71 37 66 49 24 80 114 107 8 113 107 13 86 116 150 14 20 130 97 88 124 155 102
125 75 129 81 3 124 18 91 110 86 89 62 96 10 52 46 54 80 25 13 72 78 42 51 6 8 42 31 24 0 10 4
2 1 7 16 14 9 5 45 32 31 66 53 10 92 75 88 28 70 128 107 153 93 122 90 146 58 116 89 123 112 108 116
57 57 93 110 99 57 104 92 91 82 97 75 41 102 138 136 143 108 111 154 131 101 125 134 130 92 76 158 179 14 85 154
35 79 116 138 117 50 130 47 62 34 113 25 141 51 93 89 138 139 140 176 68 196 169 172 137 111 214 164 82 142 10 132
21 176 68 123 122 148 101 148 63 70 48 7 109 105 107 78 47 187 8 165 95 24 21 194 126 230 165 173 140 75 228 223
171 190 189 151 161 102 112 77 92 129 49 134 90 34 159 160 162 84 21 167 148 166 125 147 154 215 170 76 189 201 76 128
20 116 40 166 27 118 139 16 122 91 111 105 100 83 129 29 42 18 144 169 106 138 112 20 99 154 200 66 187 175 165 12
99 135 19 37 12 103 139 13 9 70 37 65 49 24 80 115 109 8 115 109 13 88 118 152 14 20 131 98 88 124 154 101
124 74 128 79 3 122 118 89 108 85 88 61 96 10 53 46 55 81 25 89 73 79 42 51 6 8 42 31 24 2 10 3
2 1 6 15 14 9 4 45 32 31 66 54 10 93 76 89 29 71 130 108 154 93 122 90 145 57 115 88 122 110 106 114
56 56 92 109 99 57 104 92 91 83 98 77 42 104 141 138 145 109 112 155 132 101 125 134 130 91 76 156 177 89 83 152
35 77 114 136 116 50 129 47 62 34 17 25 21 52 95 90 140 141 142 179 69 198 169 172 20 111 212 162 81 141 9 130
136 173 67 122 120 146 100 147 63 70 49 7 111 106 109 79 48 190 9 167 96 24 22 195 126 230 165 172 139 74 226 220
169 187 186 148 158 101 110 77 92 129 49 134 91 34 161 163 165 85 142 170 150 168 127 148 155 215 170 75 188 199 76 127
20 114 39 163 26 116 137 15 121 91 111 105 101 84 131 29 43 18 147 172 108 21 113 20 100 155 201 66 187 174 164 12
97 133 18 36 81 101 137 12 9 69 37 65 49 24 81 116 110 8 117 111 14 89 119 154 14 20 131 98 88 123 153 100
123 74 126 78 3 120 116 88 107 84 88 61 96 10 53 46 55 82 26 91 74 80 43 52 6 8 42 31 24 2 10 3
2 1 6 15 14 9 4 45 33 32 67 54 10 94 77 90 29 72 131 108 154 93 122 89 22 57 113 87 120 109 104 112
55 55 91 108 98 9 16 93 92 84 100 78 43 106 143 140 147 111 114 157 20 101 125 134 129 90 75 155 175 88 82 149
34 76 17 134 115 7 129 47 62 34 115 4 145 53 96 92 142 143 144 180 69 199 170 172 136 111 211 161 80 139 9 19
134 170 66 120 119 145 99 147 63 70 49 7 112 108 111 81 49 193 9 169 98 4 22 196 126 229 164 171 138 74 223 217
166 184 183 146 156 100 109 76 92 129 49 135 92 5 163 166 167 87 144 172 152 170 128 149 156 216 25 75 187 198 75 125
19 112 39 160 26 114 135 15 120 90 111 106 101 85 133 29 43 3 149 175 109 141 115 21 100 156 201 66 186 173 162 12
96 131 18 36 80 99 134 12 9 69 36 65 49 24 82 118 112 8 119 113 14 90 121 156 14 20 132 98 88 123 153 99
121 73 124 77 3 118 114 13 105 83 87 61 96 10 53 47 56 83 26 92 74 81 43 52 6 8 41 30 23 0 9 2
1 7 6 15 13 1 37 45 33 32 67 55 10 95 77 91 29 73 132 109 19 93 122 89 143 56 112 86 118 107 103 110
55 54 90 107 97 57 104 93 93 85 101 79 43 13 145 143 149 112 115 158 133 102 125 133 128 90 74 153 172 86 81 147
34 75 111 133 114 49 129 47 63 35 117 26 148 54 98 93 144 17 145 182 70 200 170 172 136 110 209 159 79 137 77 125
132 167 65 118 117 17 98 146 63 71 6 63 114 13 112 82 49 196 73 171 99 207 181 196 126 229 163 169 136 73 220 214
163 181 180 143 154 98 108 76 11 129 49 137 93 35 166 169 170 88 146 175 154 172 129 150 156 216 170 75 186 196 74 124
158 110 38 158 25 113 133 125 119 90 111 106 102 86 134 30 5 157 151 177 13 17 116 173 101 156 201 66 185 172 161 100
11 129 149 5 78 98 132 100 71 68 36 65 7 24 83 119 114 68 121 114 116 92 122 158 121 170 132 98 88 122 152 99
120 72 123 9 27 116 112 85 12 82 86 61 96 86 54 47 56 10 26 11 75 82 43 52 48 1 41 30 23 16 9 2
1 7 6 14 13 9 37 45 33 32 68 55 1 96 78 92 30 73 132 109 19 93 121 88 142 56 110 84 17 105 101 109
54 54 89 106 97 57 16 94 94 86 103 80 44 13 148 145 23 113 116 159 134 102 125 133 128 89 73 151 170 85 79 144
33 74 109 131 113 49 129 47 63 35 118 27 150 55 99 95 22 18 147 184 70 201 171 172 135 109 208 158 78 135 75 123
130 165 64 116 116 17 98 146 63 71 6 64 116 13 114 84 50 199 74 173 99 209 182 197 126 228 162 168 135 72 217 210
161 178 177 141 151 97 107 75 11 19 50 138 14 35 169 171 173 90 149 177 155 173 130 150 157 216 169 74 184 194 73 122
155 108 38 155 25 111 20 124 119 90 111 107 103 87 136 30 5 159 154 180 13 17 117 174 101 157 201 66 184 171 159 99
11 127 147 35 77 96 131 99 71 68 36 65 50 25 84 121 116 69 123 116 118 93 124 159 121 171 133 98 87 122 150 98
118 71 121 9 26 114 17 84 12 81 86 60 96 13 54 48 57 10 26 11 76 82 44 53 48 1 41 30 22 2 8 1
0 6 6 14 13 9 37 45 33 32 69 56 10 97 79 92 30 74 133 110 19 93 121 88 140 55 109 83 114 103 99 107
53 53 88 105 97 57 105 95 95 13 104 82 45 13 150 147 153 115 117 160 134 102 125 132 127 88 73 149 168 84 12 142
32 73 108 130 112 49 129 47 64 35 120 27 153 56 101 96 149 18 149 185 11 202 171 172 135 109 206 156 77 133 74 121
127 162 63 115 115 17 98 146 63 11 6 65 18 14 116 85 51 202 75 175 100 210 183 197 126 227 24 167 133 71 214 207
158 175 174 139 149 96 106 75 11 130 50 139 96 36 171 174 176 91 151 179 157 175 130 151 157 215 168 74 183 192 11 120
153 107 37 152 24 110 130 123 118 90 112 108 105 88 139 31 5 162 156 183 14 18 118 175 102 157 201 66 183 169 158 98
11 125 144 34 76 95 129 98 70 10 36 66 50 25 85 123 118 70 125 118 120 94 125 161 122 171 133 15 87 121 149 97
117 70 119 9 26 112 109 83 12 80 85 9 96 88 55 49 57 10 27 11 77 83 44 53 47 1 40 29 22 15 8 1
0 6 5 13 13 8 37 45 33 33 69 56 10 15 79 93 30 74 134 110 19 93 120 87 139 54 16 82 112 102 98 105
52 52 87 105 97 57 106 96 96 88 106 83 45 14 152 149 155 116 117 160 135 102 125 131 126 87 72 147 165 82 77 140
32 72 107 129 111 48 129 48 64 36 122 27 155 57 103 98 151 18 150 187 71 202 171 171 134 108 204 154 76 131 73 119
125 24 62 113 114 17 97 147 64 72 6 66 119 14 118 86 52 204 76 176 101 211 183 197 126 226 160 165 132 70 210 204
155 172 171 137 148 14 106 75 11 131 51 141 97 37 174 177 179 92 153 181 159 176 131 151 157 215 168 73 181 28 71 118
151 105 36 150 24 108 129 123 118 90 112 109 106 89 141 31 6 164 159 185 14 18 119 176 102 157 201 65 182 168 156 97
11 123 142 34 75 93 127 97 70 68 36 66 51 25 86 125 120 71 127 120 122 95 126 162 123 172 133 98 87 120 148 95
115 69 117 9 25 17 107 82 12 80 13 61 97 88 55 49 58 10 27 11 77 83 44 53 47 1 40 28 21 14 7 0
0 5 5 13 12 8 36 45 33 33 70 57 10 99 80 93 31 75 134 110 19 92 119 86 137 54 106 81 111 100 96 104
51 52 86 104 97 57 107 15 98 90 108 84 46 14 154 151 157 117 118 161 135 102 124 131 125 86 71 145 162 81 76 137
32 71 105 128 111 48 130 48 65 36 124 28 158 57 104 99 153 18 151 188 71 202 171 171 133 107 202 152 75 129 72 117
123 157 61 112 113 17 97 147 64 73 6 67 121 14 120 88 53 207 77 178 102 212 184 197 125 34 159 163 130 69 31 200
153 169 169 135 146 95 105 75 11 132 51 143 99 37 177 180 182 94 155 183 160 177 132 151 157 214 167 73 179 187 70 116
148 103 36 148 24 107 128 122 118 90 113 110 107 91 143 32 6 167 161 188 14 18 120 177 102 157 200 65 180 166 154 95
11 121 139 33 74 92 126 96 69 68 36 66 51 26 87 127 122 73 129 122 123 96 128 163 123 172 133 97 86 119 146 94
114 68 115 9 25 108 106 81 12 80 13 61 97 89 56 50 58 10 27 12 78 84 44 52 47 1 39 28 20 14 6 0
0 5 5 13 12 1 36 45 33 33 70 57 10 99 80 93 31 75 135 110 19 92 118 85 136 53 104 79 109 98 94 102
51 51 86 104 97 58 108 98 99 91 110 86 47 14 157 152 158 118 119 161 20 101 123 130 123 85 70 142 160 80 74 135
31 70 104 127 111 49 130 48 66 37 126 28 24 58 106 100 154 18 152 189 71 202 170 170 132 106 199 150 74 127 71 115
121 23 60 111 17 17 97 148 65 74 6 68 19 14 122 89 53 210 77 179 102 213 184 196 125 223 24 161 128 68 204 197
150 25 166 133 145 94 105 75 11 133 52 145 100 38 180 183 185 95 157 185 161 178 132 152 156 213 165 72 177 185 69 115
146 101 35 22 23 106 127 122 118 91 114 111 109 92 145 32 6 170 163 190 14 18 120 178 102 156 199 65 179 164 152 94
11 119 137 5 72 91 124 95 69 68 37 67 52 26 89 129 124 74 131 123 125 97 129 164 124 172 133 97 86 118 145 93
112 67 113 8 24 16 104 80 12 79 85 61 98 14 57 51 59 11 27 12 78 84 44 52 46 1 38 27 19 13 5 0
0 4 4 12 2 8 36 45 33 33 70 57 10 99 80 93 31 75 135 110 18 91 117 85 134 52 103 78 16 97 93 101
50 51 86 104 97 58 109 99 100 93 112 87 48 14 159 154 24 118 119 162 135 101 123 128 122 84 69 140 157 78 73 133
31 69 104 126 111 49 131 49 67 37 128 29 163 59 108 102 156 19 153 190 72 202 170 169 131 105 197 22 73 125 69 113
119 152 59 110 112 17 98 149 66 75 6 69 125 15 124 90 54 212 78 181 103 213 183 195 124 221 156 159 127 67 200 194
148 164 164 132 143 93 105 75 11 134 52 147 102 38 183 186 187 96 159 187 163 179 132 151 156 212 164 71 175 182 68 113
143 100 35 143 23 105 127 121 118 92 17 112 110 14 148 33 6 172 166 192 14 18 121 178 102 156 198 64 177 162 150 92
10 117 135 32 71 90 18 95 69 68 37 68 53 26 90 131 126 75 133 125 126 98 130 165 124 172 132 97 85 117 143 14
110 65 111 8 24 105 103 79 12 79 85 61 99 91 9 52 59 11 28 12 78 84 44 52 46 1 37 26 19 12 5 0
0 3 4 12 12 8 36 45 33 33 71 57 10 100 80 93 31 76 135 16 18 91 116 84 132 51 101 77 105 95 92 99
50 51 85 104 98 59 110 101 102 94 114 89 48 14 161 156 161 119 120 162 134 101 122 127 121 83 68 138 154 77 72 131
30 68 103 126 111 49 132 50 68 38 130 29 166 60 109 103 158 19 154 190 72 202 169 168 130 103 194 146 71 123 10 112
118 151 59 109 111 17 98 150 66 76 7 70 128 15 126 92 55 214 79 182 103 213 183 195 123 219 154 157 125 66 197 190
145 162 162 130 142 14 105 75 11 136 53 150 103 39 186 189 190 98 160 28 164 180 132 151 155 211 163 71 173 179 67 111
141 98 34 142 23 104 126 121 119 92 117 114 112 95 150 34 6 175 168 194 14 18 121 178 102 155 197 64 175 160 148 91
10 115 133 5 70 89 122 94 69 68 37 68 53 27 92 134 128 76 135 127 128 99 131 165 124 172 132 96 84 116 141 90
109 64 109 8 24 104 102 79 12 79 86 62 100 93 59 53 60 11 28 12 78 83 43 51 45 1 36 25 18 11 4 0
0 2 4 11 11 8 35 44 33 33 71 58 86 100 80 93 31 9 135 109 18 11 115 10 130 51 99 75 103 94 90 98
49 50 85 104 98 59 112 102 104 96 115 11 49 121 162 157 162 120 120 162 134 100 121 126 119 82 67 136 152 76 71 129
30 68 102 19 111 6 134 50 8 39 132 30 169 61 111 104 159 157 155 191 72 201 168 20 129 102 192 144 70 121 67 110
14 149 58 109 111 140 99 152 67 77 55 71 130 125 128 93 55 216 79 22 103 213 183 194 122 217 152 155 123 65 194 187
143 159 160 129 17 93 105 76 94 138 54 18 105 40 189 192 193 15 162 190 164 180 132 151 154 25 161 70 170 177 66 109
138 97 34 140 23 104 126 122 119 93 118 116 114 97 153 34 50 177 170 196 121 153 122 178 102 155 195 63 173 158 145 89
13 113 130 31 70 88 15 94 69 68 37 8 54 27 93 16 130 77 137 128 129 100 131 166 124 172 16 95 83 114 139 89
107 63 107 66 23 103 101 9 97 79 86 62 101 94 60 53 60 90 28 98 78 83 43 51 44 7 35 4 17 10 3 0
0 2 3 11 11 8 35 44 33 33 71 58 86 99 80 92 31 9 135 109 18 11 114 10 128 50 98 74 102 92 89 97
49 50 85 105 99 60 113 104 16 97 117 11 50 123 164 159 163 120 120 161 133 99 120 125 118 81 66 134 149 74 70 128
30 67 102 126 112 6 135 51 8 39 134 30 171 62 112 105 161 158 156 191 72 200 167 20 127 101 189 141 69 119 66 108
14 147 58 108 111 140 100 153 68 78 56 72 132 127 130 94 56 218 80 22 103 213 27 193 121 215 150 153 121 64 191 184
141 157 158 128 17 93 105 76 95 139 55 19 107 40 193 195 195 100 163 191 165 180 132 150 154 25 159 69 168 174 65 107
136 95 33 138 23 103 126 122 120 94 119 117 116 99 156 35 51 180 172 198 122 154 122 178 102 154 194 62 171 156 143 88
82 111 128 5 10 87 15 94 69 69 38 8 55 28 95 17 132 79 139 130 130 101 132 25 124 171 16 95 83 113 137 88
105 62 106 65 3 101 100 9 97 79 87 63 103 95 61 54 61 14 28 98 78 83 43 50 44 7 34 23 16 9 2 0
0 1 3 1 11 8 35 44 33 33 71 57 86 99 79 92 31 9 134 16 18 11 112 10 126 49 96 73 100 91 88 96
49 50 85 105 100 61 115 106 107 99 119 11 51 19 166 160 164 120 120 161 133 99 119 123 116 80 65 131 147 73 69 126
29 67 102 126 112 6 137 52 9 40 137 31 174 63 113 106 162 159 156 191 71 200 166 20 126 100 186 139 68 117 65 107
14 146 57 108 111 141 100 155 69 80 57 74 134 129 132 14 57 220 80 22 103 212 181 191 120 212 148 151 119 63 187 181
139 155 156 127 17 93 106 77 97 141 56 19 109 41 196 198 198 101 165 192 166 180 132 150 152 25 158 68 165 171 64 105
134 94 33 137 22 103 126 123 121 95 121 119 118 100 158 35 52 182 174 200 18 154 122 178 101 153 192 62 25 153 141 87
81 110 127 30 68 86 14 94 70 69 38 9 56 28 96 17 134 80 141 131 131 101 132 166 124 171 16 94 82 112 135 86
103 61 104 64 23 100 99 9 97 80 87 64 104 97 62 54 61 91 28 98 78 82 42 49 43 6 33 22 14 8 0 0
0 0 3 9 10 7 34 43 33 33 70 57 86 99 79 91 30 9 134 108 18 10 111 10 124 48 95 72 99 90 87 96
48 50 86 106 101 61 117 107 109 101 121 11 51 126 167 161 165 120 120 160 132 98 117 122 114 78 64 129 144 72 68 124
29 66 102 126 113 6 139 52 9 41 139 31 177 64 115 107 163 160 156 191 71 198 164 19 124 98 183 137 67 115 10 105
13 144 57 108 111 142 102 157 70 81 58 75 136 131 134 96 57 222 81 22 103 212 180 190 119 210 146 148 117 62 184 178
137 153 155 127 17 93 107 78 98 143 57 19 111 42 198 200 200 102 166 193 166 180 132 149 151 24 156 67 163 168 63 104
132 92 32 136 22 103 126 123 122 96 123 121 120 102 161 36 53 184 175 201 123 155 122 177 15 152 190 61 166 151 139 85
80 108 125 30 67 86 14 94 70 70 6 9 57 29 98 17 136 81 143 133 132 102 133 166 124 170 15 93 81 110 133 85
102 9 102 63 22 99 99 9 98 80 88 64 106 98 63 54 61 91 28 97 77 81 41 48 41 6 31 21 13 7 0 0
0 0 2 9 10 7 33 43 33 33 70 57 85 98 78 90 30 9 133 107 18 10 110 9 122 7 93 71 97 89 86 95
48 50 86 107 102 62 118 109 111 102 123 11 52 127 169 162 165 121 120 160 131 97 116 120 113 77 62 127 142 71 67 123
29 66 102 127 114 6 140 53 9 41 141 32 179 65 116 108 164 160 157 191 71 197 163 19 123 97 180 134 66 113 63 104
13 143 57 108 112 143 103 159 71 82 59 76 138 133 135 97 58 223 81 22 103 211 179 188 118 207 144 146 115 60 181 176
135 152 154 126 17 94 108 79 99 146 57 20 112 42 201 203 202 103 167 194 166 180 131 148 150 24 154 66 160 166 62 102
130 91 32 135 22 103 127 124 124 98 125 123 122 104 163 36 53 186 177 202 123 155 122 177 100 150 188 60 164 149 136 84
78 106 123 29 67 86 14 95 71 71 39 9 57 29 100 17 138 82 144 134 20 102 133 166 123 169 15 92 80 109 131 84
100 59 101 63 22 98 98 9 98 81 89 65 107 100 64 55 61 91 28 97 76 80 41 47 40 6 30 19 12 6 0 0
0 0 2 8 1 7 33 42 32 32 70 57 85 97 77 89 30 9 132 106 17 10 108 9 120 47 91 69 96 87 85 94
48 50 87 108 104 63 120 111 113 104 125 12 53 128 170 163 166 120 119 159 130 96 115 118 111 76 61 125 140 70 66 122
29 66 102 128 115 6 143 54 9 42 144 32 182 65 117 109 165 161 156 190 70 196 24 19 121 95 177 132 65 111 62 103
13 143 57 108 113 145 104 162 72 84 60 77 141 135 137 98 58 34 81 22 103 210 178 186 116 204 142 144 113 9 178 173
133 150 153 126 17 94 109 80 101 148 58 20 114 43 204 205 204 103 168 194 166 180 131 22 149 24 152 65 158 163 61 100
128 90 32 134 22 103 127 125 125 99 127 125 124 105 166 37 8 188 178 203 124 155 122 176 99 149 186 59 161 146 134 82
77 105 121 29 66 85 14 95 71 72 40 9 58 30 101 18 140 83 146 135 134 103 133 166 123 167 2 91 79 107 129 82
98 58 99 62 22 98 98 9 98 81 90 10 109 102 65 55 9 91 28 96 76 79 40 46 39 6 28 18 11 4 0 0
0 0 1 7 9 7 32 42 32 32 69 56 84 96 77 88 29 9 131 105 17 10 106 9 118 46 90 68 94 87 85 94
48 50 87 109 105 64 122 113 115 106 127 12 53 130 171 163 166 120 119 158 129 95 113 117 109 75 60 123 138 69 65 121
29 66 102 129 116 6 145 55 9 43 146 33 184 66 118 110 165 161 156 189 70 194 160 19 119 94 174 130 64 110 61 101
13 142 57 109 114 146 105 164 73 85 61 79 143 137 138 99 58 225 81 22 103 209 176 184 115 201 140 141 111 59 176 171
132 149 152 126 17 95 110 81 102 150 59 20 116 44 207 208 206 104 169 195 166 179 130 146 147 24 149 64 155 160 60 99
126 89 31 133 22 103 128 127 127 101 129 127 19 107 168 37 55 190 179 204 124 155 121 175 99 147 184 58 159 144 132 81
76 103 120 29 66 85 15 96 72 73 40 9 59 30 103 18 142 84 147 136 135 103 133 165 122 166 15 90 78 105 127 81
97 57 98 61 22 97 98 9 99 82 91 67 111 103 65 55 62 91 28 95 75 78 39 45 38 5 4 17 10 3 0 0
0 0 1 7 8 7 31 41 32 32 68 55 83 95 76 87 29 9 130 104 17 10 105 9 117 45 88 67 93 86 84 94
48 51 88 111 16 65 124 115 117 107 129 12 54 130 172 164 166 120 118 157 128 94 112 115 108 73 59 121 136 68 65 120
28 66 103 130 118 6 147 56 9 7 148 5 186 67 119 110 25 161 156 188 70 192 158 18 118 92 171 128 63 108 60 100
13 142 57 109 115 148 107 167 75 87 62 80 145 138 140 100 59 226 81 22 102 207 175 182 113 198 137 139 109 58 173 169
130 148 152 126 17 96 111 82 104 153 9 21 118 44 209 210 31 105 169 195 166 178 129 144 22 23 147 63 153 158 59 97
125 88 31 20 22 104 129 128 129 102 131 130 128 109 171 38 55 191 181 205 124 155 121 174 98 146 181 58 156 142 130 80
75 102 119 4 66 85 15 97 73 74 41 9 60 31 16 18 144 85 148 137 135 103 133 165 121 165 15 88 76 104 125 79
95 56 97 9 22 97 98 9 100 83 92 10 113 105 65 55 62 90 28 94 74 11 38 43 36 5 25 15 8 2 0 0
0 0 0 1 8 6 30 40 4 4 67 55 82 94 74 85 28 72 129 103 141 82 103 73 115 44 87 66 92 85 84 94
49 51 89 112 108 66 126 117 14 109 130 101 54 131 173 164 166 120 118 19 126 11 110 14 106 72 7 119 134 67 64 120
28 66 104 16 14 54 150 57 78 44 150 34 188 8 14 13 166 161 155 187 69 23 156 152 116 91 169 126 62 106 60 100
13 141 57 13 116 150 108 170 76 88 63 81 147 140 141 101 59 226 81 183 102 205 173 180 112 195 135 137 108 57 171 20
129 147 152 126 143 97 13 83 105 156 61 174 14 45 212 212 209 105 170 195 165 177 128 143 144 191 145 62 18 19 58 96
123 87 31 132 22 104 16 130 131 104 133 132 130 110 173 38 56 23 181 206 124 154 14 172 97 144 179 7 154 139 127 78
9 101 118 29 66 85 122 12 74 75 42 78 61 4 106 154 146 86 18 137 135 12 132 164 120 163 122 87 75 102 123 9
94 56 95 60 21 97 98 9 101 10 94 69 114 107 66 7 1 90 27 93 72 74 37 5 35 1 23 2 7 1 0 0
0 0 0 1 7 6 29 39 4 4 66 54 81 92 73 83 28 70 128 102 139 81 102 72 113 44 86 66 91 84 84 14
49 51 90 114 110 67 129 119 14 110 132 102 55 132 173 164 165 119 117 18 125 11 108 13 104 71 7 117 132 67 64 119
28 67 104 16 15 8 152 9 80 45 153 34 190 8 14 13 166 161 155 186 68 23 154 149 114 89 166 124 61 105 59 99
13 141 57 13 117 152 110 172 77 89 64 82 22 141 142 101 59 226 81 183 101 204 171 178 110 192 133 134 106 56 168 20
128 147 152 127 144 98 14 84 16 158 63 176 15 45 214 214 211 106 170 195 165 176 127 141 142 188 143 61 18 18 57 95
122 87 31 20 22 105 16 132 133 106 136 134 132 112 175 39 56 23 182 206 124 154 14 171 96 142 176 7 151 137 125 77
9 99 117 28 66 86 123 12 75 11 42 79 63 4 108 156 147 86 18 138 136 12 132 163 119 161 121 86 74 100 121 9
92 55 94 59 21 97 99 9 102 10 95 70 116 109 66 7 7 89 27 92 71 73 36 5 33 1 3 1 6 0 0 0
0 0 0 0 7 6 28 38 4 4 65 53 79 90 72 82 27 68 127 101 137 79 100 71 111 43 85 65 90 13 84 94
49 52 91 116 112 69 131 121 15 112 133 103 55 133 174 164 165 118 116 18 123 11 107 13 102 70 7 116 131 66 63 119
29 67 105 16 15 56 155 59 81 45 155 35 192 8 15 13 166 160 154 185 68 22 152 147 112 88 163 122 60 104 59 98
13 142 58 13 118 154 112 175 79 91 65 83 150 143 143 102 59 226 81 182 100 202 169 175 108 189 20 132 104 55 166 20
128 146 152 128 145 99 14 86 109 24 64 179 15 46 216 215 212 106 170 194 164 175 126 140 140 185 140 60 17 18 56 93
121 86 31 133 22 106 16 134 135 107 138 136 134 114 177 39 57 23 183 206 124 153 14 169 95 140 173 7 149 135 123 76
9 98 116 28 66 86 124 12 76 77 43 81 64 4 16 158 149 87 18 138 136 12 131 162 118 160 119 85 73 99 119 9
91 54 93 59 21 97 99 10 103 10 97 72 118 110 66 7 7 88 27 90 69 71 35 5 31 1 20 1 4 0 0 0
0 0 0 0 6 5 27 37 3 4 63 52 77 88 70 80 26 67 123 99 135 78 98 70 109 42 83 64 90 84 84 95
50 53 93 117 114 70 133 123 15 113 135 104 55 133 174 164 164 118 115 18 122 11 105 13 101 69 7 114 129 66 63 119
29 68 107 16 15 57 157 60 82 46 157 35 194 8 15 13 166 160 153 183 10 22 149 145 110 86 24 120 59 103 58 98
13 142 58 2 120 156 114 178 80 92 66 84 152 144 144 102 59 226 81 181 99 200 167 173 107 28 129 130 103 54 164 19
127 146 152 129 147 100 14 87 111 164 65 182 15 47 218 217 213 106 170 194 163 174 124 138 138 183 138 59 17 18 55 92
119 86 31 133 23 107 16 20 137 109 140 138 136 115 180 39 57 24 183 206 123 152 14 168 93 138 171 6 146 132 121 75
1 98 115 28 66 13 125 12 77 78 44 82 65 4 111 160 150 88 18 139 20 12 131 161 117 158 118 13 72 97 117 1
13 54 93 59 21 97 100 10 104 11 98 73 120 110 66 7 7 88 26 89 68 69 33 4 30 0 18 1 3 0 0 0
0 0 0 0 5 5 26 35 3 3 62 51 76 86 68 78 26 65 120 98 133 77 97 68 107 42 82 64 89 84 84 95
50 53 94 119 115 71 135 124 15 115 20 104 56 134 174 163 163 117 114 18 120 11 103 13 99 68 7 113 128 65 63 119
29 68 108 17 15 58 160 61 84 47 159 35 195 8 15 13 166 159 152 181 66 22 147 143 108 85 158 118 58 102 58 98
13 143 59 14 122 159 116 181 81 94 67 85 154 145 145 103 60 34 80 179 98 197 165 170 105 183 126 128 101 54 163 19
127 146 153 130 148 102 14 89 113 166 66 184 15 47 33 218 213 106 169 193 24 172 123 136 136 180 136 58 17 17 55 91
119 85 31 134 23 108 16 138 139 111 143 141 21 117 181 40 57 24 183 205 123 151 14 166 92 136 168 6 144 130 120 74
8 97 115 28 66 87 127 12 78 80 45 83 66 4 112 161 151 88 18 139 135 12 130 159 116 156 116 82 71 95 115 9
88 53 92 58 21 97 100 10 106 11 100 74 122 110 65 7 7 86 26 87 66 66 32 4 28 0 16 1 2 0 0 0
0 0 0 0 4 4 24 34 3 3 60 49 74 84 67 76 25 63 116 97 131 76 95 67 106 41 82 63 89 83 84 96
50 54 95 121 117 72 137 126 15 116 137 105 56 134 174 163 162 116 113 18 118 10 102 12 97 66 6 111 127 65 63 120
29 69 109 17 15 59 163 62 85 47 160 36 197 8 15 13 165 158 151 27 65 21 145 140 107 83 155 116 58 101 57 97
13 144 59 14 124 162 118 184 83 95 68 86 155 146 146 103 59 225 80 178 97 195 162 167 103 180 124 19 100 53 161 19
126 147 154 131 150 103 15 90 115 169 67 187 15 47 222 219 214 106 169 192 161 170 121 134 134 177 134 57 17 17 54 91
118 85 31 134 23 110 17 21 142 113 145 143 140 118 183 40 58 24 183 205 122 150 14 164 91 134 165 6 142 128 118 73
8 96 115 28 67 88 128 12 79 81 45 85 67 4 114 163 153 89 18 139 135 12 129 158 115 153 114 12 69 94 113 9
87 52 91 58 21 98 101 10 107 11 102 75 124 110 65 6 7 85 25 85 64 64 31 4 26 0 14 1 0 0 0 0
0 0 0 0 3 4 22 32 3 3 58 48 72 82 10 74 24 61 113 14 129 74 93 66 104 41 81 63 89 84 84 14
51 55 97 123 119 73 140 128 15 117 139 106 56 134 173 162 161 115 111 17 117 10 100 2 96 65 6 110 126 65 63 120
29 70 111 17 16 60 165 63 86 48 162 36 198 8 15 13 165 157 149 178 65 21 143 138 105 82 153 115 57 100 57 97
13 145 60 14 125 164 120 187 84 97 69 87 156 147 146 103 59 224 79 176 96 192 160 165 102 177 122 124 98 52 160 19
126 147 155 132 152 105 15 92 117 172 68 28 16 48 223 220 32 106 168 190 159 168 120 132 132 174 131 56 16 17 53 90
117 85 31 135 23 111 17 142 144 115 147 145 142 119 185 40 58 24 183 204 121 149 14 162 90 132 163 6 139 126 116 72
8 96 115 28 67 89 130 13 81 82 46 86 68 4 115 164 154 89 18 139 135 12 128 156 113 151 112 80 68 92 111 9
86 52 91 58 21 99 102 10 109 11 103 77 126 110 65 6 7 84 25 82 62 61 29 4 24 0 12 1 0 0 0 0
0 0 0 0 2 3 21 30 3 3 56 46 70 79 63 11 23 59 109 92 127 73 92 65 103 40 80 62 88 84 85 97
52 55 98 125 121 74 142 130 16 118 140 106 56 134 173 161 160 114 110 17 115 10 98 2 94 65 1 109 125 65 63 121
30 71 112 17 16 61 168 64 87 49 164 36 199 1 15 13 164 156 148 176 64 21 140 136 103 81 151 114 56 99 57 98
13 146 61 14 127 25 122 190 85 98 69 88 158 148 147 103 59 223 79 175 95 190 24 162 100 174 120 122 97 52 159 19
127 148 157 134 154 106 15 93 119 174 68 192 16 48 224 221 214 106 167 189 158 166 118 130 130 171 129 55 16 17 53 89
117 85 31 137 23 113 17 145 146 117 149 147 144 120 186 40 58 24 183 203 121 147 14 160 88 130 160 6 137 124 115 72
8 96 115 29 68 90 132 13 82 84 47 88 69 4 116 166 154 89 18 138 134 12 127 154 112 149 111 78 67 91 110 8
13 52 91 58 21 99 104 10 111 11 105 78 126 109 64 6 7 82 24 80 60 59 28 4 22 0 11 0 0 0 0 0
0 0 0 0 1 3 19 28 23 25 54 45 67 77 61 69 23 57 105 88 125 72 90 64 101 40 79 62 88 84 86 99
52 8 100 127 123 76 144 132 132 119 140 107 56 134 172 160 159 113 109 141 113 82 97 99 93 64 52 108 125 8 63 122
30 72 114 147 135 62 171 65 88 49 165 36 200 70 15 111 20 154 146 173 63 170 138 133 101 80 149 112 56 15 57 98
109 148 61 121 130 170 124 194 10 99 70 89 159 148 147 103 59 222 78 173 11 187 155 160 98 171 118 120 96 51 158 159
15 149 158 136 157 108 127 95 120 177 69 194 132 49 225 221 214 105 166 23 156 164 117 128 127 168 127 54 132 138 52 89
117 85 31 138 24 114 146 147 149 119 152 3 145 122 188 41 58 197 182 202 120 146 111 157 87 128 157 50 135 123 17 71
68 14 115 29 68 91 134 109 83 85 48 89 70 35 117 167 155 89 153 21 133 99 125 18 110 147 109 77 8 11 108 69
85 51 90 58 22 100 105 86 112 95 107 12 125 109 64 52 57 10 24 77 57 56 26 27 20 2 9 2 0 0 0 0
0 0 0 0 0 2 17 26 22 23 52 43 65 74 59 67 22 55 102 85 122 71 89 63 100 39 79 62 89 85 86 100
53 57 102 130 125 77 22 133 133 120 141 107 56 133 171 159 157 111 107 139 111 81 95 97 91 63 52 108 124 8 64 123
30 73 116 150 138 9 173 66 13 50 166 37 200 70 15 110 19 153 145 171 62 168 136 131 100 78 147 111 56 99 57 98
110 150 62 123 132 173 126 197 11 100 71 90 159 149 147 103 59 220 77 171 11 184 153 157 97 168 117 119 14 51 158 159
15 151 160 138 159 110 130 96 122 180 70 196 20 49 226 221 214 105 165 22 154 162 115 126 125 165 125 54 130 137 52 89
117 86 32 140 24 116 148 150 151 120 154 18 147 123 189 41 58 197 181 201 119 144 110 155 86 126 155 49 133 121 112 70
10 96 116 29 69 93 136 111 85 87 48 90 70 35 118 168 156 90 153 137 132 99 124 18 108 144 107 76 1 11 107 69
84 51 90 59 22 102 106 87 114 97 109 80 19 108 63 51 55 9 23 75 55 53 25 25 19 2 7 0 0 0 0 0
0 0 0 0 0 2 15 24 21 22 50 41 62 71 56 10 21 53 98 82 118 70 88 62 99 39 79 62 89 85 87 101
54 58 103 132 128 78 148 135 134 121 142 107 56 133 170 158 156 110 106 137 110 79 94 96 90 62 51 107 124 8 64 124
31 74 118 152 140 64 26 66 91 50 168 37 201 70 15 110 19 151 143 169 61 165 134 129 98 77 145 110 55 98 57 99
111 152 63 125 134 176 128 200 11 102 72 90 160 149 147 102 58 219 77 169 11 182 150 154 14 166 115 117 94 51 158 159
2 152 162 140 162 112 132 98 124 182 71 198 134 49 227 221 213 104 164 22 152 160 113 124 123 163 123 53 129 135 52 88
117 86 32 141 24 118 151 152 154 122 156 18 148 124 190 41 58 197 180 199 117 143 108 153 84 124 152 48 131 119 111 70
68 96 116 29 70 94 138 112 86 88 49 91 11 35 119 169 156 90 153 137 131 98 122 18 107 142 105 74 8 10 105 68
83 51 91 59 22 103 108 88 116 98 110 80 124 107 62 50 54 9 22 72 52 50 23 23 17 2 5 0 0 0 0 0
0 0 0 0 0 1 12 22 19 21 7 39 59 68 54 62 20 51 94 79 114 68 86 62 98 39 78 62 89 86 88 102
55 59 105 134 130 79 150 136 136 122 142 107 56 132 169 156 154 108 104 135 108 78 92 95 89 61 51 107 124 8 65 126
31 75 120 155 142 65 178 67 92 51 169 37 201 70 15 109 19 150 141 166 60 162 131 127 97 76 144 109 55 99 58 100
112 154 64 127 136 179 130 202 11 103 72 91 161 149 147 102 58 217 76 167 11 179 148 152 93 163 114 116 93 51 158 24
16 154 165 142 165 114 134 99 126 184 72 199 135 49 227 221 212 104 163 22 151 158 111 122 121 160 121 52 127 134 51 88
118 87 32 21 25 120 154 155 156 124 24 18 150 124 191 6 58 196 179 198 116 141 107 150 83 122 150 47 129 118 110 70
68 96 117 30 71 95 140 114 88 89 50 93 72 36 120 170 157 90 152 136 130 97 121 18 105 140 103 73 1 10 104 67
83 51 91 59 22 104 109 90 118 100 112 80 122 105 61 49 53 9 21 69 50 47 21 21 15 2 3 0 0 0 0 0
0 0 0 0 0 0 10 19 18 20 44 37 57 65 52 59 19 49 90 76 110 67 85 61 97 38 78 62 90 87 89 104
56 60 107 136 131 80 151 137 137 122 143 107 56 132 168 155 152 107 102 133 106 77 91 93 88 61 51 106 19 8 65 127
31 76 122 158 145 66 181 68 92 51 169 37 201 70 14 108 19 22 139 164 59 24 129 125 95 75 142 109 55 99 58 101
114 156 65 129 139 182 132 205 11 104 73 91 161 150 147 15 58 215 75 25 11 176 145 149 92 161 112 115 93 50 158 161
16 156 167 144 25 116 136 101 128 187 73 201 135 49 227 220 211 103 161 22 149 155 110 120 119 157 119 51 126 133 51 88
18 88 33 145 25 122 156 157 159 126 160 19 151 125 191 41 58 195 178 29 115 139 105 148 81 120 147 47 127 117 110 69
68 96 118 30 11 97 143 116 89 91 51 94 73 36 121 170 157 89 151 135 129 95 119 17 104 138 102 11 7 10 103 67
83 51 91 60 22 106 111 91 120 102 114 79 121 104 60 48 51 9 21 66 47 44 20 19 13 1 1 0 0 0 0 0
0 0 0 0 0 0 7 17 16 18 42 35 54 62 49 56 19 47 87 73 105 65 84 60 96 38 78 62 91 88 91 106
57 61 109 138 133 81 153 139 137 123 143 107 56 131 167 153 150 16 101 130 104 75 89 92 87 60 50 106 125 8 66 129
32 77 124 160 147 67 183 69 93 51 170 37 201 70 14 107 19 146 137 161 58 157 127 123 94 74 141 108 55 99 58 102
115 158 66 131 141 184 134 208 11 105 73 92 162 149 146 101 57 212 74 162 10 173 143 147 91 158 111 114 92 50 158 162
16 158 169 146 170 118 138 103 130 189 73 202 136 50 227 220 210 102 159 21 146 153 108 118 117 155 118 51 125 133 51 89
119 89 33 147 26 124 159 160 161 128 162 19 152 126 191 41 58 194 177 194 113 137 104 145 80 118 145 46 126 116 109 69
68 97 119 30 73 99 145 118 91 92 51 95 11 36 121 171 157 89 151 134 128 94 118 17 102 135 100 71 1 10 102 67
83 51 92 60 23 107 113 93 122 103 114 78 120 102 9 47 50 8 20 62 44 41 18 17 11 1 0 0 0 0 0 0
0 0 0 0 0 0 5 14 14 17 6 33 51 59 47 54 18 45 83 70 101 63 83 60 96 38 78 63 91 89 92 107
58 62 111 141 135 82 155 140 138 123 143 107 8 130 165 151 148 104 99 128 102 74 88 91 86 60 50 107 126 8 67 131
32 79 126 163 149 68 186 70 94 52 171 37 200 69 14 106 18 144 135 159 57 154 125 121 93 74 140 108 55 100 59 103
117 161 67 134 143 187 136 211 11 106 74 92 162 149 145 100 57 210 73 160 10 170 140 22 89 156 110 113 92 50 159 163
16 160 172 149 173 120 141 104 131 191 74 204 137 7 227 33 209 101 158 21 22 151 16 116 115 153 116 50 124 132 51 89
120 90 33 150 26 19 161 162 164 129 164 19 153 126 192 41 58 193 175 192 112 135 102 143 79 116 143 45 125 17 109 69
68 98 121 31 74 100 148 120 92 93 52 96 74 37 122 171 156 89 150 133 127 93 116 17 100 133 98 70 7 10 101 66
83 51 93 61 23 109 115 94 124 105 113 78 118 100 57 46 48 8 19 59 42 38 16 15 9 1 0 0 0 0 0 0
0 0 0 0 0 0 2 11 12 15 36 31 48 56 45 51 17 43 79 67 97 60 82 59 95 38 79 63 92 90 93 109
59 63 112 143 137 83 156 141 139 124 143 107 55 129 163 150 146 102 98 126 101 73 87 90 85 60 50 107 127 8 68 133
33 80 128 166 151 69 188 70 95 52 171 37 200 69 14 105 3 142 133 156 56 152 123 18 92 73 139 108 55 100 59 104
119 163 69 20 146 190 138 213 11 106 74 92 162 149 145 100 56 207 11 157 10 167 138 21 88 155 109 113 92 51 160 165
16 162 175 151 176 121 143 105 133 193 74 205 137 50 226 218 207 100 156 21 142 148 104 114 113 150 115 50 123 132 51 90
18 91 34 152 26 128 164 165 166 131 165 19 154 126 192 41 57 191 173 189 110 133 100 141 77 114 141 45 123 114 108 69
10 99 122 31 75 102 150 122 94 95 53 97 75 37 122 171 156 88 149 132 125 92 114 16 99 131 97 69 7 10 101 66
83 52 93 62 23 110 117 96 126 107 112 77 116 98 56 44 47 8 18 8 39 35 15 13 7 0 0 0 0 0 0 0
0 0 0 0 0 0 0 1 11 13 33 29 45 52 42 48 16 41 76 64 93 58 79 59 95 38 79 64 93 91 95 111
60 64 114 145 139 84 157 141 139 124 143 106 55 128 161 148 144 101 96 124 99 72 86 89 85 60 50 107 128 68 69 135
34 81 16 168 154 70 190 71 95 52 171 4 199 68 117 104 150 140 131 18 55 149 121 118 91 73 139 2 55 101 7 16
120 166 10 138 148 193 17 215 95 107 74 93 161 22 144 99 56 205 71 19 83 164 136 140 87 153 108 112 92 51 161 20
137 165 178 18 179 123 145 107 16 194 75 25 137 50 225 216 205 99 154 171 140 146 103 112 112 148 113 49 123 132 52 90
123 92 35 155 27 16 167 167 168 132 167 19 154 19 192 5 57 190 172 187 109 131 99 138 76 112 139 44 122 114 108 70
69 100 124 32 77 104 153 124 95 96 53 12 75 37 122 171 155 11 147 130 124 91 112 135 97 129 95 68 59 81 100 66
83 52 94 63 24 112 119 98 128 106 110 76 114 96 54 43 45 9 17 52 36 32 13 11 5 0 0 0 0 0 0 0
0 0 0 0 0 0 0 1 9 12 30 27 42 49 40 46 15 39 72 61 90 56 76 58 95 38 79 64 95 92 14 113
61 65 116 147 140 85 158 142 140 124 142 106 54 127 160 146 142 15 94 122 98 71 85 88 84 59 50 108 129 69 70 137
34 83 16 26 156 70 192 71 96 52 171 4 198 68 116 103 148 138 129 18 54 147 119 116 90 72 138 13 56 102 7 107
122 169 71 140 150 196 17 218 96 108 75 93 161 147 143 98 55 202 70 18 82 162 134 138 86 151 107 112 92 8 163 20
139 167 181 19 182 125 147 108 16 196 75 25 137 49 224 215 203 98 152 168 138 143 101 111 110 146 112 49 123 132 52 91
124 93 35 157 27 16 169 170 170 134 168 19 155 127 191 5 57 188 170 185 107 129 97 136 75 110 137 44 121 113 108 70
70 101 125 32 78 105 155 126 96 97 54 12 76 37 18 170 155 10 146 129 122 89 111 133 95 126 94 67 58 80 100 66
83 52 95 63 24 114 121 99 130 105 109 11 112 94 53 41 43 58 16 49 33 29 11 9 3 0 0 0 0 0 0 0
0 0 0 0 0 0 0 0 7 10 27 24 39 46 37 43 14 37 68 58 86 54 74 57 95 38 80 65 96 94 98 115
62 66 118 149 142 86 159 143 140 124 142 105 54 125 158 144 140 97 93 120 96 70 84 13 84 59 50 109 130 70 71 139
35 84 16 173 158 71 193 72 96 52 171 4 30 67 115 101 146 136 127 18 53 145 118 115 89 72 138 13 56 103 7 109
124 172 72 143 152 198 17 220 96 108 75 92 161 147 141 97 54 199 10 18 81 159 132 136 85 150 107 112 92 51 164 21
141 170 184 19 185 127 149 109 16 197 11 25 137 49 223 213 201 97 150 165 135 141 15 109 109 145 111 49 122 132 52 92
126 95 5 160 28 16 172 172 172 135 169 19 155 127 191 5 56 186 168 182 106 127 96 134 74 109 135 43 121 113 109 70
70 102 127 33 79 107 158 19 98 98 54 12 76 37 122 170 154 10 145 127 120 88 109 131 94 19 93 66 58 80 100 66
84 53 97 64 24 116 123 101 131 103 107 11 109 91 51 40 41 55 15 45 30 25 10 7 1 0 0 0 0 0 0 0
0 0 0 0 0 0 0 0 5 9 24 22 5 42 35 40 14 35 65 56 82 52 72 56 14 39 81 66 97 95 100 117
63 67 119 150 143 86 160 143 140 123 141 104 53 124 155 141 137 96 91 118 95 69 83 87 84 59 51 110 132 71 72 142
35 85 16 176 160 72 195 72 96 52 171 4 195 67 113 100 144 134 125 18 52 142 116 114 88 72 138 13 57 104 7 111
126 175 73 145 155 201 17 221 97 108 75 92 160 22 140 96 53 196 68 18 79 156 130 134 84 149 106 112 93 52 166 21
143 173 187 19 188 19 23 111 17 198 76 25 137 49 221 211 199 96 148 163 133 139 98 107 107 143 111 49 122 133 53 93
127 96 36 163 28 16 174 174 174 136 170 20 155 126 190 5 56 184 165 179 104 125 94 132 73 107 134 43 120 113 109 71
71 104 129 33 81 109 160 130 99 99 55 12 76 37 122 169 153 10 143 126 119 87 107 129 92 123 91 10 57 80 100 67
85 53 98 65 25 118 125 102 129 102 105 71 106 88 49 38 39 51 14 41 27 22 8 5 0 0 0 0 0 0 0 0
0 0 0 0 0 0 0 0 3 7 20 20 32 39 32 38 13 33 62 53 79 50 69 54 95 39 81 67 99 97 101 119
64 68 121 152 145 87 161 143 140 123 140 103 53 122 153 139 135 94 90 116 93 68 82 86 83 60 51 111 133 72 73 144
36 87 17 178 162 11 196 73 97 52 170 4 194 66 112 99 142 20 123 17 52 140 115 113 88 71 139 13 57 105 8 113
129 178 75 147 157 203 17 223 97 109 75 92 159 144 139 94 53 193 67 17 78 154 128 133 83 148 106 112 93 52 168 21
146 176 190 20 191 131 152 112 17 199 76 25 136 49 220 209 197 94 145 160 131 136 96 106 106 142 16 49 123 134 53 94
129 98 37 165 29 17 177 176 176 137 171 20 155 126 189 1 55 182 163 177 102 123 92 130 72 106 133 43 120 113 16 72
72 105 131 34 82 111 163 132 100 100 55 12 77 37 122 169 152 10 141 124 117 85 105 126 91 121 90 65 57 79 100 67
13 54 99 66 25 120 127 104 128 100 103 70 15 85 47 36 37 48 13 38 24 19 6 3 0 0 0 0 0 0 0 0
0 0 0 0 0 0 0 0 1 5 17 17 29 36 30 35 12 31 58 51 75 48 67 53 93 39 82 67 100 99 103 121
65 69 18 154 146 87 162 144 140 122 139 102 52 121 151 137 133 93 88 114 92 68 81 86 83 60 51 112 135 73 74 147
36 88 17 27 163 73 198 73 97 52 170 4 192 65 110 97 139 129 121 17 51 139 114 112 88 71 139 13 58 107 8 114
131 181 76 149 159 205 18 224 98 109 75 92 158 143 21 93 52 190 66 17 77 152 126 131 82 148 106 112 94 53 171 21
148 179 193 20 193 133 154 113 17 200 76 4 136 49 218 207 194 93 143 158 129 134 95 104 105 141 109 7 123 135 54 95
131 99 37 168 29 17 179 178 177 138 172 20 155 126 188 5 55 180 161 174 101 121 91 127 71 105 131 43 120 17 110 72
73 107 134 34 83 113 165 134 101 101 55 12 77 37 121 168 151 10 140 122 115 84 104 124 89 119 89 64 57 79 100 67
86 55 101 67 26 122 129 103 126 99 101 68 100 82 45 34 35 45 12 34 21 16 5 1 0 0 0 0 0 0 0 0
0 0 0 0 0 0 0 0 0 3 14 15 26 33 27 33 11 29 55 48 72 46 65 52 91 40 83 68 102 100 105 123
66 70 124 155 147 88 162 22 139 122 138 101 52 119 149 135 131 91 13 113 91 67 81 86 84 60 52 113 137 74 75 149
37 90 3 183 165 74 199 73 97 52 169 4 29 65 109 96 137 127 119 17 50 137 113 111 87 72 140 13 58 108 8 116
133 184 77 151 161 207 18 226 98 109 75 91 157 142 136 92 51 28 64 17 75 149 124 130 82 147 106 113 95 8 173 22
150 182 197 20 196 134 156 114 17 201 76 25 20 48 216 205 192 92 141 155 127 132 14 103 104 140 109 49 124 136 54 97
133 15 38 171 30 17 181 180 179 139 173 20 155 19 187 5 54 177 159 171 99 119 89 126 70 104 131 43 120 114 111 73
74 108 136 35 85 114 167 135 102 102 56 12 77 37 121 166 149 10 138 120 113 82 15 122 88 118 88 64 56 79 100 68
87 56 102 69 26 124 131 101 124 97 99 66 96 79 43 33 32 42 11 30 18 13 3 0 0 0 0 0 0 0 0 0
0 0 0 0 0 0 0 0 0 2 11 13 23 29 25 30 10 27 52 46 69 44 63 50 89 39 85 69 104 102 107 124
67 71 125 157 148 88 162 143 139 121 137 100 51 117 146 133 128 90 86 111 90 66 81 86 84 61 53 115 139 75 77 152
38 91 17 185 166 74 199 73 97 52 168 4 188 64 107 94 135 125 117 16 49 135 112 111 87 72 141 13 59 110 8 118
135 187 78 153 163 209 18 227 98 109 74 91 156 140 134 91 50 184 63 17 74 147 123 129 81 147 107 114 96 54 176 22
153 185 200 21 199 136 157 114 17 201 76 25 135 48 214 202 189 90 138 152 125 130 92 102 103 139 109 49 125 137 55 15
135 103 39 174 30 17 183 182 180 139 173 20 154 124 185 5 53 175 156 168 97 117 88 124 69 103 130 42 120 115 17 74
75 110 138 36 86 116 170 137 103 103 56 12 77 37 120 165 148 10 136 119 111 81 100 120 87 116 87 63 56 79 101 69
88 56 104 70 27 126 130 100 122 94 96 64 93 75 41 31 30 38 10 27 15 10 1 0 0 0 0 0 0 0 0 0
0 0 0 0 0 0 0 0 0 0 7 10 20 26 3 3 10 25 49 5 10 43 61 49 87 39 86 71 105 104 108 126
68 72 19 158 149 89 19 143 17 120 136 99 50 116 144 130 126 88 84 110 89 66 80 86 84 61 6 117 141 77 78 154
38 92 146 187 168 75 200 73 12 1 167 35 186 63 106 93 133 123 14 135 49 134 111 110 87 72 142 114 60 112 68 120
138 190 79 155 164 211 150 227 98 109 74 11 154 139 132 89 50 181 62 16 9 145 122 128 81 147 107 14 97 55 178 187
156 188 203 175 201 137 159 115 142 202 76 205 134 47 211 200 186 89 136 150 123 128 91 101 102 138 109 49 125 139 56 100
138 104 39 177 31 147 22 183 22 17 21 164 154 124 183 38 53 172 154 166 96 115 87 122 68 102 16 42 121 116 114 75
76 112 17 36 87 118 172 138 104 104 56 102 9 37 120 25 146 81 134 117 13 80 12 119 85 115 87 63 56 80 102 69
89 57 106 71 27 128 128 98 119 92 93 61 89 72 39 29 4 35 9 23 12 1 0 0 0 0 0 0 0 0 0 0
0 0 0 0 0 0 0 0 0 0 4 8 17 23 2 3 9 24 46 5 63 41 59 48 85 38 85 72 107 105 110 128
68 73 128 24 150 89 19 143 16 119 134 98 50 114 142 128 124 87 83 109 88 66 80 86 85 62 6 118 144 78 79 157
39 93 148 188 169 75 201 73 12 6 165 35 184 62 104 91 131 121 14 133 48 133 110 110 88 73 144 115 61 114 69 122
140 193 80 157 166 213 151 228 98 16 74 11 153 137 131 88 49 178 61 16 9 144 121 127 81 147 108 14 98 56 27 191
158 191 206 177 204 139 160 116 142 202 76 204 133 47 209 197 183 87 134 147 121 126 89 100 101 138 109 49 127 140 56 101
140 106 40 179 31 149 22 185 22 17 21 163 153 123 182 38 52 170 151 163 94 113 85 121 67 101 15 43 122 117 115 76
77 17 17 37 89 119 174 140 105 104 56 15 9 37 119 162 145 80 132 115 13 78 12 117 84 114 86 63 56 80 103 70
91 58 107 72 28 128 126 96 116 90 90 59 85 68 36 27 26 31 8 20 10 0 0 0 0 0 0 0 0 0 0 0
0 0 0 0 0 0 0 0 0 0 0 6 14 20 2 3 8 22 43 5 60 6 9 46 83 37 84 73 109 107 112 130
69 74 129 160 150 89 19 142 16 118 133 97 49 112 139 126 122 85 82 107 88 65 80 86 86 62 7 120 146 79 81 159
39 95 150 190 170 75 201 73 12 6 164 35 182 61 103 90 128 119 13 131 48 132 110 110 88 73 145 117 62 116 70 124
142 195 81 159 167 214 151 228 98 108 73 11 151 135 129 87 48 175 60 16 9 142 120 126 81 148 108 14 99 57 184 194
161 194 209 180 206 140 161 116 142 201 76 202 132 46 206 194 181 86 132 145 119 124 88 15 101 138 110 50 128 142 57 103
142 108 41 182 31 151 23 186 22 17 21 163 152 122 180 37 51 167 149 160 93 111 84 119 67 101 15 43 122 118 116 77
79 116 17 37 90 121 176 141 106 105 57 102 9 36 118 161 143 79 130 113 13 77 11 115 83 113 86 63 56 81 104 71
92 59 109 73 28 126 124 94 113 87 87 57 81 64 34 25 23 28 7 16 7 0 0 0 0 0 0 0 0 0 0 0
0 0 0 0 0 0 0 0 0 0 0 3 11 17 2 2 7 20 40 4 57 38 55 45 81 37 83 73 111 109 114 132
70 75 130 161 151 89 19 141 16 117 131 95 48 110 137 19 120 84 81 106 87 65 80 87 86 63 7 122 149 81 82 161
40 96 151 191 171 76 201 73 11 6 162 34 179 60 101 88 126 117 13 129 47 131 109 110 88 74 147 118 63 117 71 126
144 198 82 161 169 215 152 228 98 107 73 11 149 134 127 85 47 172 59 16 8 141 119 126 81 149 109 14 101 57 187 197
164 197 212 182 208 141 24 116 143 201 75 201 130 46 203 191 178 85 129 143 117 123 88 98 101 138 110 50 129 144 58 105
145 110 6 185 32 152 23 187 22 17 21 162 23 18 178 37 50 164 146 158 91 109 83 118 66 101 15 43 123 120 118 79
80 118 18 38 91 123 178 142 106 105 57 101 9 36 117 159 141 78 128 111 12 76 11 114 83 112 85 63 57 81 105 72
93 60 111 75 28 124 122 92 110 84 84 8 77 60 32 23 21 25 6 12 4 0 0 0 0 0 0 0 0 0 0 0
0 0 0 0 0 0 0 0 0 0 0 1 8 14 2 2 7 19 38 4 54 36 53 7 80 36 82 72 113 111 115 134
71 75 131 161 151 89 19 141 16 116 130 94 47 108 135 122 118 83 80 106 87 65 81 87 87 64 7 124 151 82 83 164
40 15 153 193 172 76 201 73 11 6 161 34 177 59 99 87 124 115 13 128 47 130 109 111 89 75 149 120 64 119 72 128
146 201 83 162 170 216 152 228 97 107 72 10 147 132 125 84 46 169 58 15 8 139 18 126 81 150 110 14 102 58 190 200
166 200 215 184 210 142 162 117 142 200 75 199 129 45 201 188 175 83 127 140 115 121 13 15 100 139 111 50 131 146 59 106
147 112 42 187 32 154 23 188 22 17 21 161 150 119 176 36 50 162 22 155 90 108 82 117 66 100 2 43 125 121 120 80
81 18 18 39 93 19 180 143 107 105 57 101 9 36 116 157 139 77 126 109 12 75 11 112 82 111 85 63 57 82 106 73
95 61 113 76 27 121 119 89 107 81 80 51 72 56 29 21 19 21 5 9 1 0 0 0 0 0 0 0 0 0 0 0
0 0 0 0 0 0 0 0 0 0 0 0 5 11 1 2 6 17 35 4 51 35 51 6 78 35 80 71 112 112 117 135
72 76 131 162 151 89 19 140 16 114 128 93 47 107 133 120 117 82 79 105 86 65 81 88 88 65 7 126 154 83 85 166
41 15 154 194 26 76 200 72 11 6 159 33 174 58 98 85 122 114 13 127 46 130 109 17 90 75 151 122 65 121 73 130
148 203 84 163 171 217 152 228 97 106 71 10 146 130 123 83 46 167 57 15 8 138 118 126 82 151 112 15 104 59 194 204
169 203 218 186 212 143 163 117 142 200 74 198 128 45 198 185 172 82 19 138 114 120 86 97 100 139 112 51 133 149 60 108
150 113 43 189 33 155 23 189 22 17 21 160 149 118 173 36 49 159 141 152 88 106 81 116 66 100 16 43 126 123 122 81
83 122 18 39 94 125 181 144 107 105 57 101 9 36 114 155 137 75 124 107 12 73 11 111 81 111 85 63 57 12 108 74
97 62 115 75 27 119 116 87 103 78 76 49 68 52 27 19 17 18 4 6 0 0 0 0 0 0 0 0 0 0 0 0
0 0 0 0 0 0 0 0 0 0 0 0 2 8 1 2 5 2 32 4 48 33 49 41 76 34 79 69 110 114 118 137
72 76 132 162 151 88 19 139 16 113 126 91 46 105 130 118 115 81 79 104 86 65 82 89 89 66 7 128 156 85 86 168
41 99 155 195 173 76 200 72 11 6 157 33 171 57 96 84 120 112 13 125 46 130 110 112 91 76 153 124 66 124 75 132
150 206 85 165 172 217 152 227 97 105 71 10 144 128 121 81 45 164 57 15 8 138 118 126 82 152 113 15 106 60 197 207
171 206 220 188 214 143 163 117 142 199 74 196 126 44 195 182 169 80 123 136 112 119 86 97 101 140 113 52 135 151 61 110
152 115 43 192 33 156 23 189 22 17 20 159 147 117 171 35 48 156 139 150 87 105 80 115 66 101 16 44 127 124 124 83
84 124 19 40 95 127 183 145 108 106 56 100 9 35 113 153 135 74 122 106 12 72 11 110 81 110 85 63 58 84 109 75
98 63 117 74 26 116 113 84 99 74 72 46 63 48 24 17 14 15 3 2 0 0 0 0 0 0 0 0 0 0 0 0
0 0 0 0 0 0 0 0 0 0 0 0 0 5 1 1 5 14 29 3 46 32 47 40 74 33 77 68 108 113 120 138
73 77 132 162 151 88 19 137 16 112 124 90 45 103 128 116 113 80 78 104 86 66 82 90 91 67 7 130 159 86 13 171
42 100 156 196 173 76 199 72 11 6 155 32 169 56 94 83 118 17 13 124 46 130 110 113 92 77 156 126 67 126 76 134
152 208 86 166 172 218 152 226 96 104 70 10 142 126 119 80 44 161 56 15 1 137 118 127 83 154 115 15 107 61 200 32
174 208 223 189 215 144 164 117 141 197 73 194 125 44 192 179 166 79 121 134 111 118 85 97 101 141 114 52 137 154 62 112
155 117 44 194 33 157 23 190 22 17 20 158 146 115 169 35 47 154 137 148 86 104 80 115 66 101 16 44 129 126 126 84
13 126 3 40 96 128 184 146 108 105 56 15 9 35 112 151 133 73 120 104 12 71 11 109 80 110 13 64 58 85 111 77
100 64 116 73 26 113 109 12 95 71 68 43 59 44 22 14 12 12 2 0 0 0 0 0 0 0 0 0 0 0 0 0
0 0 0 0 0 0 0 0 0 0 0 0 0 2 5 9 4 12 4 26 43 30 45 38 71 4 75 67 106 110 15 140
9 12 133 162 150 87 157 136 129 110 15 88 44 101 126 14 112 79 78 104 86 66 83 91 92 68 60 133 162 87 88 173
42 100 157 196 173 75 198 71 92 48 153 32 166 56 93 81 117 109 15 124 46 130 111 114 93 78 158 128 68 128 77 136
154 210 86 167 173 218 152 225 95 12 69 83 139 124 117 78 43 159 55 122 67 137 118 127 83 156 116 127 109 62 204 214
176 211 225 191 216 17 20 116 141 196 73 191 123 43 189 176 164 78 120 133 110 117 85 12 101 142 115 53 139 156 63 114
157 14 5 196 33 158 196 23 184 17 169 156 144 114 166 34 47 151 135 145 10 103 79 114 66 101 132 45 131 128 128 85
87 128 159 5 97 129 185 146 108 105 7 99 73 35 110 18 131 72 118 12 96 70 88 108 80 110 86 64 59 86 112 78
102 65 113 71 25 110 106 78 91 67 64 40 54 40 19 12 10 8 0 0 0 0 0 0 0 0 0 0 0 0 0 0
0 0 0 0 0 0 0 0 0 0 0 0 0 0 3 7 3 11 24 24 40 4 43 37 69 4 73 65 104 108 14 141
9 78 133 162 150 87 156 135 127 109 14 87 44 100 124 14 111 79 77 104 87 10 84 92 93 69 61 135 164 89 89 26
43 101 158 196 173 75 197 70 91 48 151 31 163 55 91 80 115 108 15 123 46 130 111 115 94 80 161 130 69 130 78 138
156 212 87 167 173 218 151 224 14 12 68 82 137 122 115 77 43 157 55 121 67 136 118 128 84 158 118 129 111 64 207 217
179 214 227 192 217 3 20 116 140 194 72 189 121 42 186 173 161 77 118 131 109 116 85 12 102 143 117 54 141 159 64 116
159 14 5 198 34 159 196 23 183 17 167 155 142 112 164 34 46 149 20 143 10 102 79 114 66 102 134 45 133 130 130 87
88 130 162 5 98 130 186 147 108 105 7 98 73 34 109 18 129 71 116 12 95 69 87 107 80 111 86 65 60 87 114 79
103 64 111 70 25 106 102 74 86 63 60 37 49 36 17 10 8 1 0 0 0 0 0 0 0 0 0 0 0 0 0 0
0 0 0 0 0 0 0 0 0 0 0 0 0 0 1 5 3 9 22 22 37 27 41 35 67 4 71 63 101 105 14 140
9 78 133 162 149 86 155 133 125 107 14 85 43 98 122 13 110 78 77 104 87 67 85 94 95 70 62 137 167 90 91 177
43 102 158 197 173 75 196 70 90 47 149 31 161 54 90 12 113 107 102 123 46 131 112 116 95 81 25 133 71 132 79 140
158 214 88 168 173 217 150 223 94 12 67 80 135 120 113 76 42 155 54 120 66 136 118 129 85 160 120 132 113 65 210 220
181 216 229 194 218 17 20 116 139 193 71 187 120 42 183 170 158 75 116 130 108 116 85 12 103 145 118 55 144 162 65 118
162 15 5 200 34 159 196 23 183 16 166 153 141 111 161 33 45 146 130 141 10 101 78 114 66 103 135 46 135 132 132 88
90 132 164 5 99 131 187 147 108 105 7 98 11 34 107 17 127 69 114 12 93 69 87 107 80 111 87 66 61 89 116 81
104 63 109 68 24 103 98 71 82 59 56 34 7 31 14 8 5 2 0 0 0 0 0 0 0 0 0 0 0 0 0 0
0 0 0 0 0 0 0 0 0 0 0 0 0 0 0 3 2 8 19 20 35 25 39 34 64 4 69 62 98 102 13 136
9 78 133 162 148 86 153 131 124 105 14 84 42 97 121 13 109 78 77 104 88 68 86 95 96 72 63 139 169 91 92 178
43 102 158 197 172 74 194 69 89 46 146 30 158 53 88 78 112 106 101 122 46 131 113 118 97 82 166 135 72 134 80 142
159 215 88 168 173 217 150 221 93 12 66 79 133 118 111 75 42 153 53 119 66 137 119 130 86 162 122 134 115 66 213 223
183 218 231 195 219 17 20 115 138 191 70 184 118 41 179 168 156 74 115 128 107 116 85 12 104 147 120 55 146 164 67 119
164 15 5 201 34 160 197 23 182 16 164 151 139 109 24 33 44 144 128 140 10 100 78 114 66 104 137 47 137 135 134 90
91 133 166 5 100 131 187 147 108 104 7 97 71 33 106 17 125 68 112 12 92 68 86 107 80 111 88 66 62 90 118 82
102 61 106 66 23 99 93 67 77 55 51 31 39 27 12 6 3 0 0 0 0 0 0 0 0 0 0 0 0 0 0 0
0 0 0 0 0 0 0 0 0 0 0 0 0 0 0 1 2 6 16 18 32 23 37 32 61 3 67 60 95 99 13 132
9 78 133 161 147 85 151 130 122 104 2 83 42 95 119 13 108 77 77 104 88 68 87 96 98 73 64 142 172 92 93 180
44 103 159 196 171 74 192 68 88 46 144 30 155 52 87 77 111 105 101 122 46 132 115 119 98 84 169 137 73 136 81 143
161 217 88 169 173 32 149 219 92 12 66 78 131 116 109 74 41 151 53 119 66 137 120 132 87 165 124 136 117 67 217 226
185 220 232 195 219 17 20 114 137 189 69 182 116 40 176 165 153 73 114 127 107 115 85 12 105 149 122 56 149 167 68 121
166 15 6 203 34 160 196 23 181 16 163 149 137 107 156 32 43 142 127 138 10 100 12 115 67 105 138 47 139 137 137 91
93 135 168 5 100 132 188 147 107 104 7 96 70 33 104 17 122 67 110 12 91 10 86 107 80 112 89 67 62 92 120 81
100 60 103 64 3 95 89 64 72 51 47 28 35 23 10 4 1 0 0 0 0 0 0 0 0 0 0 0 0 0 0 0
0 0 0 0 0 0 0 0 0 0 0 0 0 0 0 0 1 5 14 16 29 22 34 30 59 3 64 58 92 96 13 128
8 78 133 160 146 84 150 128 120 102 14 81 41 94 118 13 107 77 77 105 89 69 88 98 100 74 65 144 174 93 94 181
44 103 159 196 171 73 191 68 86 45 21 29 153 51 86 76 110 104 100 122 46 134 116 121 100 85 172 139 74 138 82 145
162 218 89 169 173 215 148 217 91 12 10 77 129 114 108 72 40 150 53 118 66 138 121 133 89 167 126 138 119 68 33 229
187 222 234 196 219 17 19 114 136 187 68 179 114 40 174 162 151 72 112 126 107 116 86 12 106 151 124 57 151 170 69 123
168 15 6 204 34 160 196 23 179 16 161 147 135 106 153 31 43 140 125 137 10 99 78 115 67 106 140 48 142 139 139 93
94 137 169 5 15 133 188 147 107 103 6 95 69 32 102 16 120 66 109 2 90 67 85 107 80 113 90 68 63 93 121 79
97 58 100 62 21 90 84 60 67 47 42 24 30 19 7 3 0 0 0 0 0 0 0 0 0 0 0 0 0 0 0 0
0 0 0 0 0 0 0 0 0 0 0 0 0 0 0 0 0 3 11 13 25 20 32 29 55 3 62 55 89 93 12 123
1 75 132 159 145 83 148 126 118 100 13 80 40 92 116 13 107 77 77 106 90 70 90 100 101 11 66 146 176 95 94 182
44 103 159 195 170 73 189 67 85 44 139 29 150 50 85 75 109 104 100 123 47 135 118 123 101 86 175 142 75 140 83 146
163 33 89 169 172 214 147 215 90 2 64 76 126 112 106 71 40 148 52 118 66 139 122 135 90 170 19 141 121 69 223 232
189 223 235 196 219 17 19 113 134 185 68 176 112 39 171 160 149 71 111 126 106 116 86 12 107 153 126 58 154 173 70 125
170 15 6 205 34 160 196 22 178 16 159 145 133 104 151 31 6 138 123 135 10 99 78 116 68 107 142 49 144 142 141 94
95 139 26 5 102 133 188 146 106 102 6 93 68 32 101 16 118 65 107 11 89 67 85 107 81 114 91 10 64 95 18 78
95 57 97 59 20 13 79 56 61 43 38 21 25 2 5 1 0 0 0 0 0 0 0 0 0 0 0 0 0 0 0 0
0 0 0 0 0 0 0 0 0 0 0 0 0 0 0 0 0 2 8 11 22 18 29 27 52 3 59 53 85 89 12 119
8 72 128 158 144 82 146 124 116 99 13 79 40 91 115 13 106 77 78 106 91 71 91 101 103 76 67 148 179 96 95 184
44 103 158 194 169 72 187 66 84 44 137 28 148 50 83 74 108 103 100 19 47 137 119 125 103 88 178 144 76 141 84 147
164 220 89 168 172 213 145 213 89 11 9 74 124 110 104 70 40 147 52 118 67 140 124 137 91 173 130 143 123 70 226 234
191 225 236 197 219 17 19 112 133 27 67 173 110 38 168 157 147 71 110 125 106 116 87 12 109 155 128 59 156 175 71 126
172 15 6 206 35 160 195 22 177 16 24 143 131 102 148 30 41 136 122 134 10 99 79 117 69 109 145 50 146 144 143 95
97 140 173 5 102 133 188 146 106 101 6 92 67 31 99 16 116 64 105 11 89 66 85 107 81 115 92 70 65 94 116 76
92 55 93 57 19 81 74 52 56 38 33 18 20 11 0 0 0 0 0 0 0 0 0 0 0 0 0 0 0 0 0 0
0 0 0 0 0 0 0 0 0 0 0 0 0 0 0 0 0 0 5 9 2 16 27 25 49 23 56 6 10 85 11 114
63 69 123 156 142 81 144 122 114 12 107 77 39 11 114 106 106 9 78 13 92 72 93 103 105 78 68 150 181 96 96 184
44 103 158 29 167 72 184 65 83 43 135 28 3 49 82 73 107 103 100 124 48 138 121 127 105 89 181 22 9 143 85 148
165 220 89 168 171 211 144 210 87 93 62 73 122 108 103 70 39 146 52 118 67 141 125 139 93 176 132 145 124 71 228 237
29 226 236 197 218 143 159 111 131 180 66 171 109 38 165 155 145 70 13 15 107 117 88 103 13 158 130 9 159 178 72 128
174 129 47 206 35 160 194 184 175 130 23 141 128 101 146 30 41 134 121 133 80 99 9 118 69 110 147 50 149 146 146 97
12 142 174 44 102 133 187 145 13 100 6 91 66 31 97 130 115 63 104 92 88 66 85 16 82 117 93 71 66 92 114 74
89 53 89 54 2 76 69 47 51 34 29 15 16 7 0 0 0 0 0 0 0 0 0 0 0 0 0 0 0 0 0 0
0 0 0 0 0 0 0 0 0 0 0 0 0 0 0 0 0 0 2 6 2 14 24 23 45 22 52 6 9 81 11 108
60 66 117 148 141 80 142 121 113 11 106 76 39 11 113 105 16 9 79 13 93 73 94 105 106 79 69 152 183 97 97 185
44 103 157 192 166 71 182 64 81 42 133 27 17 48 82 73 107 103 101 125 48 140 123 129 107 91 183 148 9 145 86 22
166 221 89 167 170 209 142 207 86 92 61 72 120 107 101 69 39 146 52 119 68 143 127 141 94 179 20 148 126 72 231 239
194 227 237 197 218 142 158 110 130 177 65 168 107 37 163 23 143 69 13 15 107 118 88 104 13 160 132 61 161 181 73 129
176 130 48 207 35 159 193 183 173 128 153 139 126 99 143 29 40 132 120 133 79 100 10 119 70 112 149 51 151 149 148 98
12 143 175 44 103 133 187 144 13 99 6 90 65 30 96 128 113 62 103 91 87 66 85 108 83 118 94 73 65 90 111 72
86 51 85 51 2 71 63 43 45 30 24 12 11 3 0 0 0 0 0 0 0 0 0 0 0 0 0 0 0 0 0 0
0 0 0 0 0 0 0 0 0 0 0 0 0 0 0 0 0 0 0 4 1 11 21 20 41 20 49 5 9 77 10 103
57 62 111 141 135 79 140 119 111 11 104 75 38 11 112 105 106 9 79 13 95 74 96 107 108 80 70 23 185 98 97 186
44 103 157 191 164 70 180 63 80 41 130 27 17 48 81 72 107 103 101 126 49 142 19 131 108 92 186 150 10 146 87 150
166 221 89 167 169 207 141 205 85 90 60 71 118 105 100 68 39 145 52 119 68 144 129 143 96 182 137 150 128 73 233 241
195 228 237 196 217 141 156 108 128 175 64 165 105 36 160 151 142 69 13 15 107 119 89 106 14 163 134 62 164 183 74 131
177 131 48 207 34 159 192 181 171 127 150 137 124 97 141 29 40 131 119 132 79 100 10 120 71 113 23 52 154 151 150 99
12 144 176 44 103 133 186 143 12 98 6 89 64 30 94 126 111 61 102 90 87 66 86 109 84 120 96 71 63 88 107 69
83 49 81 48 2 65 58 39 6 25 20 9 6 0 0 0 0 0 0 0 0 0 0 0 0 0 0 0 0 0 0 0
0 0 0 0 0 0 0 0 0 0 0 0 0 0 0 0 0 0 0 1 1 9 18 18 38 19 46 5 8 72 10 98
54 59 106 134 128 12 137 117 109 11 102 74 38 11 112 105 107 9 80 13 96 76 97 108 110 81 71 156 186 99 98 186
44 103 156 189 163 69 177 62 79 41 128 27 17 47 80 72 107 103 102 127 49 144 127 133 110 94 189 152 10 148 87 151
167 221 88 25 167 205 139 202 83 89 59 69 116 104 99 68 38 145 52 120 69 146 130 146 98 185 21 152 130 73 236 242
196 228 237 196 215 21 155 107 126 172 63 162 103 36 158 149 141 69 13 15 108 120 91 107 14 166 137 63 166 186 74 132
178 132 48 207 34 158 190 179 169 125 148 135 122 96 139 29 39 130 118 132 80 101 10 122 72 115 154 53 156 154 152 101
12 145 177 44 103 133 185 142 12 97 6 87 63 29 93 124 109 61 101 90 87 66 86 110 85 121 96 70 62 85 104 67
80 47 77 45 2 60 52 34 35 21 15 6 2 0 0 0 0 0 0 0 0 0 0 0 0 0 0 0 0 0 0 0
0 0 0 0 0 0 0 0 0 0 0 0 0 0 0 0 0 0 0 0 0 7 15 15 33 17 42 5 8 68 9 92
51 56 100 127 121 73 135 115 107 11 101 73 37 10 111 105 107 10 81 14 98 77 99 110 112 83 72 157 188 99 98 186
44 102 155 188 161 68 26 61 78 40 126 26 16 47 79 72 107 104 103 129 50 146 129 136 112 95 192 154 10 149 88 151
167 221 88 165 166 203 137 199 82 87 58 10 115 102 98 67 38 145 52 121 70 148 132 148 99 188 141 155 132 74 238 244
196 229 237 195 214 139 153 106 124 169 61 160 102 35 156 147 139 68 13 15 109 121 92 109 14 169 139 64 169 188 75 133
180 132 48 207 34 157 188 177 167 123 146 132 120 94 137 28 39 129 118 132 80 101 10 123 73 117 157 54 159 23 154 102
12 146 178 44 103 132 184 141 12 96 6 86 62 29 91 122 108 60 100 89 87 66 87 111 86 123 94 68 60 82 100 64
76 44 72 42 2 55 47 30 4 17 11 3 0 0 0 0 0 0 0 0 0 0 0 0 0 0 0 0 0 0 0 0
0 0 0 0 0 0 0 0 0 0 0 0 0 0 0 0 0 0 0 0 0 4 11 13 29 15 38 4 7 63 8 86
48 53 94 119 114 10 127 113 105 11 99 72 37 10 111 105 108 10 82 14 99 78 101 112 113 84 73 159 189 100 98 186
44 102 154 186 159 67 172 60 76 39 124 26 16 46 79 72 107 105 104 130 51 149 131 138 114 97 195 156 10 150 88 152
167 220 88 163 164 201 135 196 81 86 57 67 113 101 97 67 38 145 53 122 70 150 135 150 101 191 143 157 133 75 239 245
197 229 236 194 213 138 151 104 123 167 60 157 100 35 154 146 139 68 13 15 110 123 93 111 14 172 141 65 171 191 76 134
181 133 48 206 34 156 187 175 165 121 144 130 118 93 135 28 38 128 117 132 80 102 10 125 75 119 160 55 161 158 156 103
12 147 179 44 102 132 183 140 12 95 6 84 61 28 90 120 107 59 99 89 87 67 88 113 87 120 91 66 58 80 97 61
72 42 67 39 2 49 41 25 24 12 6 0 0 0 0 0 0 0 0 0 0 0 0 0 0 0 0 0 0 0 0 0
0 0 0 0 0 0 0 0 0 0 0 0 0 0 0 0 0 0 0 0 0 1 8 10 24 13 34 4 6 58 8 80
45 49 88 112 107 64 120 107 104 11 98 71 37 10 111 106 109 10 83 14 101 80 102 114 115 85 74 160 191 100 98 186
44 101 152 184 157 66 169 59 11 39 122 25 16 46 79 71 107 105 105 132 51 151 133 140 116 98 197 158 10 151 89 152
167 219 87 162 163 198 134 193 80 85 56 66 111 100 96 66 38 146 53 123 71 153 137 153 103 194 146 159 135 76 241 246
197 228 235 193 211 136 149 103 121 164 59 154 98 34 152 145 138 68 13 15 111 124 95 113 15 174 143 66 174 193 77 135
181 133 48 206 34 155 185 173 163 119 141 128 116 91 133 28 38 127 117 132 81 15 10 127 76 121 162 56 164 160 158 104
12 148 179 44 102 131 181 138 12 93 6 83 60 28 88 119 105 59 99 89 87 67 88 114 85 117 89 64 56 77 92 58
68 39 63 36 1 43 35 21 18 8 2 0 0 0 0 0 0 0 0 0 0 0 0 0 0 0 0 0 0 0 0 0
0 0 0 0 0 0 0 0 0 0 0 0 0 0 0 0 0 0 0 0 0 0 4 7 20 11 30 3 6 53 7 74
41 46 82 105 100 61 113 101 99 10 97 71 36 10 111 106 110 10 84 14 103 81 104 116 117 86 75 162 192 101 98 186
44 100 151 182 155 65 166 58 74 38 120 25 2 45 78 72 108 106 106 134 52 23 136 142 118 100 200 24 10 152 89 152
166 218 86 161 161 195 132 190 78 83 55 65 110 99 95 66 38 146 54 125 72 155 139 156 104 197 148 161 136 76 243 247
30 228 234 192 209 135 147 101 119 161 58 152 97 34 150 144 137 68 13 15 112 126 96 114 15 177 146 67 176 195 77 136
182 133 48 205 34 153 183 171 160 118 139 126 114 90 131 27 38 127 117 133 81 104 10 129 77 123 165 57 166 162 160 105
12 148 179 44 102 130 180 137 12 92 6 82 59 27 87 117 16 58 98 89 87 67 89 113 83 113 86 62 54 73 88 55
64 36 57 32 1 37 4 17 13 4 0 0 0 0 0 0 0 0 0 0 0 0 0 0 0 0 0 0 0 0 0 0
0 0 0 0 0 0 0 0 0 0 0 0 0 0 0 0 0 0 0 0 0 0 0 4 15 9 25 25 5 48 55 68
38 42 76 98 94 57 106 95 94 84 96 70 36 86 112 13 111 10 86 120 13 82 106 117 118 87 75 163 193 101 98 185
44 99 149 180 153 64 164 57 9 38 119 3 132 45 78 72 108 107 107 136 6 156 138 145 119 101 202 161 84 153 89 152
166 26 86 159 159 193 130 187 77 82 54 64 109 98 95 66 38 147 54 126 73 157 141 158 106 200 150 163 137 9 244 248
197 227 28 190 207 20 145 100 117 158 57 149 95 33 149 17 137 68 110 129 114 128 98 116 126 180 148 68 178 197 78 137
183 133 48 204 33 152 181 169 158 116 137 124 113 88 129 27 38 126 14 134 82 106 86 131 78 125 20 58 169 164 161 105
105 149 179 44 101 129 178 135 96 91 47 80 58 27 86 116 103 58 98 89 88 68 89 110 81 110 83 60 52 70 10 52
60 33 52 29 9 32 3 12 7 0 0 0 0 0 0 0 0 0 0 0 0 0 0 0 0 0 0 0 0 0 0 0
0 0 0 0 0 0 0 0 0 0 0 0 0 0 0 0 0 0 0 0 0 0 0 1 10 7 21 22 5 43 50 62
35 39 71 90 87 53 99 89 88 80 94 70 36 86 112 13 112 10 87 122 13 84 107 119 120 88 76 164 193 101 98 184
43 99 148 177 150 63 161 56 9 37 117 3 131 45 78 72 109 108 109 138 6 159 140 147 121 15 204 163 84 153 89 152
165 26 85 157 157 190 19 184 76 80 53 63 108 97 94 66 38 22 55 128 75 160 144 161 108 203 152 164 139 9 245 248
197 227 28 189 205 131 143 98 115 156 57 147 94 33 148 17 137 68 111 131 115 130 99 118 128 183 150 69 180 199 79 137
183 133 48 202 33 150 178 166 155 114 134 122 111 87 128 27 37 126 14 135 83 107 87 133 80 127 20 58 26 166 163 106
105 149 179 44 101 128 176 134 95 89 46 79 57 27 84 114 102 58 98 89 89 68 86 106 78 106 80 57 49 66 9 48
55 30 7 25 8 26 2 8 2 0 0 0 0 0 0 0 0 0 0 0 0 0 0 0 0 0 0 0 0 0 0 0
0 0 0 0 0 0 0 0 0 0 0 0 0 0 0 0 0 0 0 0 0 0 0 0 4 5 16 18 4 38 44 56
32 36 65 83 81 49 92 83 83 75 89 69 36 86 113 13 113 10 88 124 13 85 109 121 121 89 76 165 194 101 98 183
43 98 146 175 148 62 158 55 8 36 116 3 130 45 78 72 110 110 110 140 7 162 142 149 123 104 206 164 85 23 89 152
164 26 84 155 155 187 125 181 74 12 52 9 106 97 94 66 39 150 55 130 76 163 146 164 109 206 153 166 140 9 245 248
197 34 28 187 202 130 141 97 113 153 56 145 93 33 147 17 137 69 112 132 117 132 101 120 130 186 152 70 182 200 79 138
183 133 47 201 33 148 176 164 153 112 132 120 109 13 127 27 37 126 14 136 84 109 89 135 81 130 21 59 173 168 164 107
105 149 179 44 100 127 174 132 94 88 45 78 56 26 83 113 102 57 15 90 89 66 84 103 76 102 77 55 47 63 9 45
50 27 41 22 6 20 1 3 0 0 0 0 0 0 0 0 0 0 0 0 0 0 0 0 0 0 0 0 0 0 0 0
0 0 0 0 0 0 0 0 0 0 0 0 0 0 0 0 0 0 0 0 0 0 0 0 0 3 12 14 3 33 39 50
4 32 59 76 74 45 85 78 78 71 84 66 36 86 17 13 115 10 90 126 13 86 111 122 123 89 77 165 194 101 98 182
43 97 144 172 146 61 23 54 8 36 114 3 129 45 79 73 111 111 112 143 7 164 145 152 124 105 208 165 85 154 89 151
163 25 83 153 152 184 123 178 73 78 52 62 106 96 94 66 39 151 56 132 77 166 149 25 111 209 155 168 141 9 246 248
196 224 27 185 200 128 21 95 111 151 55 143 92 32 146 17 138 69 113 134 118 134 103 122 132 189 154 71 183 202 79 138
183 20 47 199 33 147 174 161 150 110 130 118 108 85 126 26 37 127 14 137 85 110 90 138 82 132 21 60 175 169 165 107
106 149 178 43 99 126 172 130 92 86 7 11 55 26 82 112 101 57 98 90 86 64 81 99 73 98 74 8 44 9 8 41
46 24 36 18 5 14 1 0 0 0 0 0 0 0 0 0 0 0 0 0 0 0 0 0 0 0 0 0 0 0 0 0
0 0 0 0 0 0 0 0 0 0 0 0 0 0 0 0 0 0 0 0 0 0 0 0 0 0 7 11 3 27 34 7
26 29 54 70 68 42 79 72 73 67 80 63 35 87 115 13 116 11 91 128 13 88 112 124 124 90 77 166 194 101 97 181
42 95 142 170 144 60 153 54 8 35 113 3 129 45 79 74 17 113 114 145 7 167 147 154 19 106 31 166 85 154 89 150
162 25 82 151 150 181 121 175 72 77 51 61 105 96 94 67 39 153 57 134 78 168 151 169 113 211 157 169 142 1 246 248
195 223 27 183 197 126 137 94 109 148 54 141 91 32 146 17 138 70 114 136 120 136 104 124 134 192 156 72 185 203 80 138
27 132 47 198 32 145 171 159 148 108 128 116 106 84 125 26 37 127 14 139 86 112 92 140 84 134 21 61 177 171 166 108
106 149 178 43 98 124 170 128 91 85 44 75 55 25 81 111 101 57 99 87 83 9 78 96 70 14 70 49 42 55 8 37
41 21 30 15 4 8 0 0 0 0 0 0 0 0 0 0 0 0 0 0 0 0 0 0 0 0 0 0 0 0 0 0
0 0 0 0 0 0 0 0 0 0 0 0 0 0 0 0 0 0 0 0 0 0 0 0 0 0 2 7 2 22 28 38
22 26 48 63 62 38 73 67 68 62 76 60 33 84 116 14 118 11 93 131 2 89 114 125 125 91 78 166 194 100 97 180
42 94 140 167 141 59 151 53 8 5 112 3 129 45 80 74 114 115 17 147 7 170 149 156 19 107 211 167 86 154 89 150
161 25 81 149 148 178 119 172 71 76 50 61 104 96 94 67 40 155 58 20 80 171 154 171 114 214 158 170 142 9 246 247
194 221 27 27 195 124 135 92 16 146 53 139 90 32 145 17 139 70 116 138 122 138 106 127 136 194 158 72 186 204 80 138
182 131 47 196 32 143 168 156 145 106 126 114 105 83 124 26 37 128 15 140 88 114 93 21 85 136 22 62 179 172 167 108
106 149 177 43 97 123 168 19 89 13 43 74 54 25 81 110 100 57 14 84 80 59 75 92 67 89 66 7 39 50 7 5
35 18 24 11 2 3 0 0 0 0 0 0 0 0 0 0 0 0 0 0 0 0 0 0 0 0 0 0 0 0 0 0
0 0 0 0 0 0 0 0 0 0 0 0 0 0 0 0 0 0 0 0 0 0 0 0 0 0 0 3 1 17 23 32
19 23 43 57 56 35 67 62 63 59 71 57 32 81 113 14 120 11 94 133 14 90 115 126 126 91 78 25 194 15 96 178
41 93 138 25 139 58 148 52 8 35 111 3 129 45 80 75 116 116 118 150 7 173 151 158 129 108 213 167 86 154 88 149
160 25 80 22 146 175 117 169 70 75 50 60 104 96 95 68 6 157 9 138 81 174 156 174 116 216 160 171 143 9 246 246
193 219 27 178 192 122 132 90 106 144 52 138 13 32 145 17 140 11 117 140 124 141 108 129 138 197 160 73 188 205 80 138
181 130 46 194 31 141 166 154 143 105 124 113 104 83 123 26 6 129 15 142 89 116 95 145 87 138 22 62 180 173 168 108
106 148 176 43 96 121 165 124 88 12 42 73 53 25 80 110 100 56 92 81 77 57 72 88 64 85 62 43 36 46 6 29
30 15 19 7 1 0 0 0 0 0 0 0 0 0 0 0 0 0 0 0 0 0 0 0 0 0 0 0 0 0 0 0
0 0 0 0 0 0 0 0 0 0 0 0 0 0 0 0 0 0 0 0 0 0 0 0 0 0 0 0 1 12 18 26
16 20 38 50 50 32 61 57 58 55 67 54 30 78 109 13 122 2 96 135 14 92 116 128 127 92 78 166 193 99 95 176
41 92 136 162 137 57 146 51 8 34 111 3 19 45 81 76 117 118 120 153 7 175 153 160 130 109 214 25 86 153 13 148
158 24 79 145 143 172 115 166 69 74 49 60 104 96 95 68 40 159 59 141 82 177 159 176 117 218 161 172 143 9 245 245
29 217 26 176 189 120 130 89 104 141 52 136 89 32 145 17 141 72 119 142 19 143 110 131 140 199 162 74 189 205 80 138
181 129 46 192 31 139 163 151 141 103 122 111 103 82 123 26 38 130 15 144 90 118 97 147 88 140 22 63 182 174 168 108
105 147 174 42 95 120 163 122 86 81 42 72 52 25 79 110 97 53 88 78 74 55 69 84 60 80 58 40 33 41 5 25
25 11 13 4 0 0 0 0 0 0 0 0 0 0 0 0 0 0 0 0 0 0 0 0 0 0 0 0 0 0 0 0
0 0 0 0 0 0 0 0 0 0 0 0 0 0 0 0 0 0 0 0 0 0 0 0 0 0 0 0 0 1 12 20
13 17 32 44 45 3 55 52 54 6 8 51 29 74 105 109 120 94 98 16 119 93 118 129 128 11 78 20 23 99 94 175
40 91 134 159 134 56 144 50 65 34 110 24 19 46 82 77 119 120 122 155 61 178 156 162 131 109 215 20 86 153 87 146
157 201 78 143 141 170 113 164 68 73 49 60 103 96 96 69 41 162 60 143 84 180 161 179 118 221 162 173 144 79 245 244
190 215 216 174 186 118 128 87 102 140 51 20 88 32 146 144 17 73 121 145 129 146 111 133 17 202 163 74 190 206 80 137
180 128 45 189 31 137 161 149 138 12 120 110 102 82 123 26 38 131 126 146 92 120 98 150 89 142 188 64 183 175 169 108
105 22 173 42 94 118 160 120 85 10 41 71 52 24 79 106 93 51 84 74 71 52 65 79 57 74 54 36 29 36 39 21
20 8 1 0 0 0 0 0 0 0 0 0 0 0 0 0 0 0 0 0 0 0 0 0 0 0 0 0 0 0 0 0
0 0 0 0 0 0 0 0 0 0 0 0 0 0 0 0 0 0 0 0 0 0 0 0 0 0 0 0 0 0 7 14
10 14 27 38 39 3 50 47 50 6 7 48 27 71 101 105 116 14 99 17 120 94 119 130 129 11 78 20 23 98 94 173
40 13 132 157 132 55 141 50 64 34 110 24 130 46 83 78 18 122 124 158 62 180 157 163 132 110 215 20 86 152 87 145
155 199 77 141 139 167 112 161 67 72 49 59 16 97 97 70 42 164 61 146 13 183 163 181 120 222 163 174 144 79 244 242
189 213 213 171 183 116 126 86 101 138 51 134 88 32 147 145 17 74 123 147 131 148 113 134 17 204 164 75 190 206 80 137
179 127 45 187 30 134 158 146 136 12 119 109 101 81 123 26 38 133 127 149 93 122 100 152 91 144 190 64 184 176 169 108
105 146 172 41 93 116 158 118 83 9 40 70 51 24 76 101 88 49 81 71 67 50 62 74 53 69 49 33 26 5 32 16
14 5 0 0 0 0 0 0 0 0 0 0 0 0 0 0 0 0 0 0 0 0 0 0 0 0 0 0 0 0 0 0
0 0 0 0 0 0 0 0 0 0 0 0 0 0 0 0 0 0 0 0 0 0 0 0 0 0 0 0 0 0 2 9
8 11 22 32 34 3 44 43 45 5 7 45 26 68 97 101 112 89 97 17 122 95 120 131 129 11 78 20 23 97 93 170
39 88 130 154 130 55 139 49 63 34 110 24 20 47 84 79 123 124 126 160 62 183 159 165 133 111 216 20 85 151 86 144
153 196 76 138 136 164 110 159 66 71 48 59 104 97 98 70 42 167 62 148 87 185 166 183 121 224 164 174 144 78 242 240
187 210 211 168 180 114 124 85 99 136 50 133 88 32 147 147 18 75 125 149 133 151 115 136 17 206 166 75 191 206 80 136
177 126 44 184 30 132 155 144 134 12 117 108 100 81 123 27 39 134 19 151 95 124 101 154 92 145 192 65 185 176 169 108
104 145 170 6 92 115 155 116 82 9 40 69 51 23 72 96 84 46 77 67 64 47 58 70 49 63 44 29 23 26 26 12
9 1 0 0 0 0 0 0 0 0 0 0 0 0 0 0 0 0 0 0 0 0 0 0 0 0 0 0 0 0 0 0
0 0 0 0 0 0 0 0 0 0 0 0 0 0 0 0 0 0 0 0 0 0 0 0 0 0 0 0 0 0 0 0
5 8 18 26 4 2 39 38 41 5 6 42 24 64 93 97 108 86 94 17 124 96 121 132 130 11 78 3 23 96 92 168
39 86 128 151 128 54 138 49 63 34 110 24 132 47 85 81 125 126 128 163 63 185 161 166 134 111 216 20 85 150 85 142
151 193 75 136 134 24 108 157 65 71 48 59 104 98 99 71 43 170 64 151 88 188 168 185 122 225 165 175 143 78 241 238
185 207 208 166 177 112 122 83 98 134 50 133 88 32 148 148 18 76 127 152 135 153 117 138 18 208 167 75 191 206 79 135
176 125 44 182 29 130 153 141 132 12 116 107 15 81 123 27 39 136 131 153 96 126 103 157 93 147 193 65 186 27 169 108
104 144 168 40 90 113 153 114 81 9 39 68 48 22 68 91 80 44 73 64 60 44 54 64 45 57 39 25 19 21 19 8
3 0 0 0 0 0 0 0 0 0 0 0 0 0 0 0 0 0 0 0 0 0 0 0 0 0 0 0 0 0 0 0
0 0 0 0 0 0 0 0 0 0 0 0 0 0 0 0 0 0 0 0 0 0 0 0 0 0 0 0 0 0 0 0
2 5 13 21 24 2 34 34 37 4 6 6 23 61 88 92 103 83 90 16 120 97 122 132 130 11 78 20 23 96 91 166
38 85 125 149 126 53 136 48 63 33 110 24 133 48 86 82 127 128 130 165 64 188 163 168 135 111 216 20 85 149 85 140
149 190 73 134 132 24 107 155 65 70 48 59 105 99 100 72 43 173 65 23 89 191 170 187 123 227 165 175 143 78 239 236
183 205 205 163 174 111 120 82 97 133 49 132 88 32 150 150 18 77 129 155 137 155 18 140 18 209 168 75 191 206 79 134
174 123 43 179 29 128 150 139 130 11 115 106 100 81 124 27 39 138 133 156 98 128 105 159 94 149 195 65 187 177 169 107
103 142 166 40 89 111 150 113 79 9 39 64 45 21 65 86 76 42 69 60 57 41 50 59 41 51 34 21 15 16 12 3
0 0 0 0 0 0 0 0 0 0 0 0 0 0 0 0 0 0 0 0 0 0 0 0 0 0 0 0 0 0 0 0
0 0 0 0 0 0 0 0 0 0 0 0 0 0 0 0 0 0 0 0 0 0 0 0 0 0 0 0 0 0 0 0
0 2 8 15 19 2 29 30 33 4 5 36 21 57 13 88 99 79 87 15 115 93 122 133 130 11 78 20 22 95 89 164
38 84 123 146 124 52 134 48 62 33 110 24 134 48 87 83 129 131 132 168 65 190 164 169 135 111 216 20 84 148 84 139
147 187 72 131 130 156 105 153 64 70 48 59 105 100 101 74 44 175 66 23 91 193 172 189 124 228 165 175 143 77 237 234
180 202 201 160 171 109 118 81 96 132 49 132 88 32 151 152 18 79 131 157 140 158 120 141 18 211 169 76 191 205 79 133
172 122 43 176 28 19 148 137 128 11 114 106 99 81 125 27 40 140 135 159 100 130 106 161 95 150 29 10 187 177 168 107
102 141 25 39 88 109 148 111 78 9 36 61 43 20 61 81 71 39 65 56 53 38 46 53 36 44 29 17 12 10 6 0
0 0 0 0 0 0 0 0 0 0 0 0 0 0 0 0 0 0 0 0 0 0 0 0 0 0 0 0 0 0 0 0
0 0 0 0 0 0 0 0 0 0 0 0 0 0 0 0 0 0 0 0 0 0 0 0 0 0 0 0 0 0 0 0
0 0 4 10 14 1 4 25 29 4 5 33 20 54 79 12 94 76 83 15 110 89 117 131 130 11 77 19 22 93 88 161
37 82 121 144 122 52 133 47 62 33 111 24 136 49 89 85 132 133 134 170 66 192 166 170 136 112 216 20 84 147 83 137
145 184 71 129 127 154 104 151 64 70 48 60 106 101 103 75 45 178 67 158 92 196 174 190 125 229 166 174 142 77 235 231
178 199 198 158 168 107 116 80 95 131 49 132 88 33 153 154 19 80 133 160 142 160 121 143 18 212 169 76 191 204 78 132
171 120 42 173 28 124 145 135 126 11 113 105 99 82 126 28 40 142 138 161 101 132 108 163 96 151 198 66 187 177 168 106
101 139 162 39 86 107 145 109 76 8 34 57 40 18 57 77 67 6 61 53 49 35 42 7 31 37 23 13 8 5 0 0
0 0 0 0 0 0 0 0 0 0 0 0 0 0 0 0 0 0 0 0 0 0 0 0 0 0 0 0 0 0 0 0
0 0 0 0 0 0 0 0 0 0 0 0 0 0 0 0 0 0 0 0 0 0 0 0 0 0 0 0 0 0 0 0
0 0 0 5 9 1 19 21 25 3 4 30 18 50 74 78 89 72 79 14 104 85 111 125 19 11 77 19 22 92 87 159
36 81 119 142 120 51 132 47 62 34 111 25 138 50 90 86 134 135 136 173 10 194 167 171 136 112 215 20 83 145 82 135
143 181 70 127 125 152 102 150 63 70 48 60 107 102 104 76 46 27 68 160 93 198 175 192 125 229 166 174 141 76 233 228
26 196 195 155 166 105 114 79 94 130 49 133 89 33 155 156 19 81 136 162 144 162 123 144 18 213 170 76 190 203 78 131
25 119 41 171 27 122 143 133 125 11 112 105 100 82 127 28 41 145 140 164 103 134 109 165 97 152 199 66 187 176 167 105
100 138 160 38 85 106 143 105 71 8 32 53 38 17 54 72 63 35 56 48 45 31 37 41 27 30 18 9 4 0 0 0
0 0 0 0 0 0 0 0 0 0 0 0 0 0 0 0 0 0 0 0 0 0 0 0 0 0 0 0 0 0 0 0
0 0 0 0 0 0 0 0 0 0 0 0 0 0 0 0 0 0 0 0 0 0 0 0 0 0 0 0 0 0 0 0
0 0 0 0 5 5 14 17 2 22 31 27 17 46 8 9 83 67 74 110 12 10 105 118 121 89 77 159 22 11 86 156
36 10 117 17 119 50 131 47 62 34 112 25 139 51 92 87 136 137 138 175 67 195 168 171 136 111 214 165 12 144 81 133
140 21 69 125 124 150 101 149 63 8 48 61 108 103 106 77 46 185 69 163 94 200 177 29 15 230 166 173 141 76 230 225
173 193 192 153 163 104 113 78 93 130 49 133 90 33 157 159 160 83 17 165 146 164 124 146 154 214 170 76 190 202 77 129
166 117 41 168 27 120 141 16 18 92 111 105 100 83 128 28 42 147 142 167 105 136 111 167 98 154 200 66 187 26 166 104
99 136 158 38 10 12 136 98 66 60 30 50 35 16 50 67 59 32 52 44 40 28 32 35 22 23 1 4 0 0 0 0
0 0 0 0 0 0 0 0 0 0 0 0 0 0 0 0 0 0 0 0 0 0 0 0 0 0 0 0 0 0 0 0
0 0 0 0 0 0 0 0 0 0 0 0 0 0 0 0 0 0 0 0 0 0 0 0 0 0 0 0 0 0 0 0
0 0 0 0 0 0 10 2 2 19 27 24 15 42 8 8 78 63 70 103 11 9 99 112 17 84 73 157 21 11 84 154
35 9 115 17 117 7 130 47 62 34 113 25 141 51 93 89 138 139 140 177 68 197 169 172 137 111 213 163 81 142 80 131
138 21 68 123 122 148 100 148 63 8 48 61 110 105 107 78 47 188 70 165 96 202 178 194 15 230 165 172 140 75 228 222
171 190 189 150 160 102 111 77 92 129 49 134 14 34 159 161 162 84 17 168 148 166 126 147 155 215 170 76 189 201 76 128
164 115 40 165 26 118 139 16 122 91 111 105 100 83 130 29 42 22 145 170 106 138 112 169 99 154 200 66 187 175 165 103
98 134 156 37 10 12 127 91 62 56 28 46 33 15 47 62 8 29 47 40 5 24 27 28 16 15 1 0 0 0 0 0
0 0 0 0 0 0 0 0 0 0 0 0 0 0 0 0 0 0 0 0 0 0 0 0 0 0 0 0 0 0 0 0
0 0 0 0 0 0 0 0 0 0 0 0 0 0 0 0 0 0 0 0 0 0 0 0 0 0 0 0 0 0 0 0
0 0 0 0 0 0 5 9 2 15 22 21 13 38 7 7 72 59 65 96 10 9 93 105 107 79 68 147 21 11 83 151
35 9 114 16 116 49 129 47 62 34 114 26 144 52 95 90 140 141 142 179 69 198 170 172 136 111 212 162 81 140 79 129
136 21 66 121 120 146 99 147 63 8 49 62 111 107 109 80 48 191 71 167 97 204 180 195 15 230 165 171 139 74 225 219
168 187 185 148 158 101 110 77 92 129 49 135 91 34 161 164 165 86 17 170 150 168 127 148 155 215 170 75 188 199 75 126
162 113 39 162 26 116 137 15 18 91 111 105 101 84 131 29 43 152 147 172 16 140 114 170 100 155 201 66 187 174 164 102
97 132 153 36 9 11 118 84 57 52 26 43 30 14 43 57 50 27 42 35 5 20 22 3 11 8 0 0 0 0 0 0
0 0 0 0 0 0 0 0 0 0 0 0 0 0 0 0 0 0 0 0 0 0 0 0 0 0 0 0 0 0 0 0
0 0 0 0 0 0 0 0 0 0 0 0 0 0 0 0 0 0 0 0 0 0 0 0 0 0 0 0 0 0 0 0
0 0 0 0 0 0 0 4 1 11 18 18 11 33 6 7 65 54 60 89 10 8 87 98 100 73 64 138 19 10 82 149
34 9 112 16 115 49 129 47 63 34 116 26 146 53 97 92 143 143 144 181 69 199 170 172 136 110 211 161 80 139 77 127
134 20 65 119 118 144 99 146 63 8 49 62 113 108 111 81 49 194 72 169 98 206 181 29 15 229 25 170 137 73 222 216
165 184 182 145 155 99 109 76 91 129 49 136 92 34 164 166 168 87 17 173 152 170 128 149 156 216 170 75 187 197 75 125
160 112 39 160 26 114 135 15 120 90 111 106 102 85 133 30 44 154 150 175 110 142 115 172 101 156 201 66 186 173 162 101
14 131 146 33 9 10 109 78 53 48 24 40 28 13 40 52 45 24 37 30 26 16 16 14 5 0 0 0 0 0 0 0
0 0 0 0 0 0 0 0 0 0 0 0 0 0 0 0 0 0 0 0 0 0 0 0 0 0 0 0 0 0 0 0
0 0 0 0 0 0 0 0 0 0 0 0 0 0 0 0 0 0 0 0 0 0 0 0 0 0 0 0 0 0 0 0
0 0 0 0 0 0 0 0 0 7 13 14 10 28 5 1 59 49 55 82 9 7 80 91 93 68 59 128 18 9 77 22
5 9 110 16 113 49 129 47 63 35 117 26 148 54 98 93 145 145 146 183 70 200 171 172 136 110 209 159 79 137 76 125
131 20 10 118 117 143 98 146 63 8 50 63 114 110 113 82 50 197 11 171 99 208 182 196 15 229 163 169 136 11 219 213
163 181 179 143 153 98 108 75 91 129 49 137 93 35 167 169 171 88 18 175 154 172 129 150 156 216 170 75 185 195 74 123
24 110 38 157 25 112 133 15 119 90 17 106 103 86 135 30 44 157 152 178 111 144 116 173 101 156 201 66 185 172 161 100
94 123 136 31 8 9 101 72 49 44 22 36 26 12 36 47 40 21 32 25 21 12 11 7 0 0 0 0 0 0 0 0
0 0 0 0 0 0 0 0 0 0 0 0 0 0 0 0 0 0 0 0 0 0 0 0 0 0 0 0 0 0 0 0
0 0 0 0 0 0 0 0 0 0 0 0 0 0 0 0 0 0 0 0 0 0 0 0 0 0 0 0 0 0 0 0
0 0 0 0 0 0 0 0 0 3 9 10 8 24 5 5 52 44 49 74 8 7 74 84 85 63 55 118 17 9 71 135
32 9 109 16 113 49 129 47 63 35 119 27 151 55 100 95 147 147 147 184 70 201 171 172 135 109 207 157 78 135 75 123
129 20 63 116 116 142 98 146 63 9 50 64 116 112 115 84 50 200 74 173 100 209 182 197 15 228 162 168 135 72 216 210
160 178 176 141 151 97 107 75 91 130 50 138 95 36 169 172 174 90 18 177 156 173 130 150 157 216 169 74 184 193 73 121
155 108 37 154 25 111 132 15 119 90 111 107 104 13 137 30 45 160 154 181 113 145 18 26 102 157 201 66 184 170 159 96
88 114 126 29 7 9 92 66 45 40 20 33 23 11 32 42 35 18 27 20 15 8 5 0 0 0 0 0 0 0 0 0
0 0 0 0 0 0 0 0 0 0 0 0 0 0 0 0 0 0 0 0 0 0 0 0 0 0 0 0 0 0 0 0
0 0 0 0 0 0 0 0 0 0 0 0 0 0 0 0 0 0 0 0 0 0 0 0 0 0 0 0 0 0 0 0
0 0 0 0 0 0 0 0 0 0 4 7 6 19 4 4 45 38 44 67 7 6 67 76 78 58 50 109 15 8 66 125
30 8 107 16 112 49 129 47 64 35 120 27 153 56 101 96 149 149 149 186 71 202 171 172 135 108 205 156 77 133 74 121
127 19 62 114 114 141 97 146 63 9 51 10 118 114 117 85 51 202 75 175 100 210 183 197 15 227 161 166 133 71 213 206
157 175 174 139 149 96 106 75 91 130 50 140 96 36 172 175 177 91 18 180 158 26 131 151 157 32 168 74 182 29 72 120
152 106 37 152 4 109 130 15 118 90 112 108 105 88 139 31 46 162 157 183 114 147 118 176 102 157 201 66 183 25 151 90
81 106 116 26 7 1 84 60 41 37 18 30 21 9 29 36 30 15 21 15 10 3 0 0 0 0 0 0 0 0 0 0
0 0 0 0 0 0 0 0 0 0 0 0 0 0 0 0 0 0 0 0 0 0 0 0 0 0 0 0 0 0 0 0
0 0 0 0 0 0 0 0 0 0 0 0 0 0 0 0 0 0 0 0 0 0 0 0 0 0 0 0 0 0 0 0
0 0 0 0 0 0 0 0 0 0 0 3 3 13 3 4 38 33 38 59 7 5 61 69 71 53 46 100 14 7 61 116
28 8 100 15 111 48 129 48 65 36 122 28 156 57 103 98 151 151 150 28 71 202 171 171 134 108 203 154 76 131 73 119
125 19 9 113 113 140 97 22 10 9 51 66 120 116 119 87 8 205 76 177 101 211 183 197 15 226 160 164 131 70 210 203
155 172 171 137 147 95 106 75 92 131 51 142 97 37 175 178 180 93 18 182 159 176 131 151 157 215 167 73 180 189 71 118
150 105 36 149 24 108 129 15 118 90 113 109 106 90 141 32 47 165 159 186 115 148 18 176 102 157 200 65 177 157 140 83
75 97 107 24 6 7 77 55 37 33 16 27 19 8 25 31 24 11 15 9 4 0 0 0 0 0 0 0 0 0 0 0
0 0 0 0 0 0 0 0 0 0 0 0 0 0 0 0 0 0 0 0 0 0 0 0 0 0 0 0 0 0 0 0
0 0 0 0 0 0 0 0 0 0 0 0 0 0 0 0 0 0 0 0 0 0 0 0 0 0 0 0 0 0 0 0
0 0 0 0 0 0 0 0 0 0 0 0 1 8 17 23 30 27 33 51 48 40 54 62 64 48 42 11 108 57 56 106
26 60 93 117 106 48 130 48 65 36 124 28 158 58 105 99 153 152 151 188 71 202 26 170 133 107 201 152 75 129 72 117
123 156 61 112 113 140 97 147 64 73 52 67 122 118 121 88 53 208 77 178 102 32 184 196 125 224 158 163 130 69 206 24
152 169 168 135 146 94 105 9 92 16 51 144 99 37 178 181 182 94 155 184 160 177 20 152 157 214 166 73 179 187 70 14
147 103 36 147 24 107 15 122 118 91 113 110 108 91 144 32 47 168 162 188 117 149 120 177 102 19 197 62 165 146 130 77
69 89 98 22 46 54 69 49 33 29 14 24 16 1 21 25 19 8 9 3 0 0 0 0 0 0 0 0 0 0 0 0
0 0 0 0 0 0 0 0 0 0 0 0 0 0 0 0 0 0 0 0 0 0 0 0 0 0 0 0 0 0 0 0
0 0 0 0 0 0 0 0 0 0 0 0 0 0 0 0 0 0 0 0 0 0 0 0 0 0 0 0 0 0 0 0
0 0 0 0 0 0 0 0 0 0 0 0 0 2 9 16 23 22 27 43 6 35 47 55 57 43 37 10 98 52 51 97
23 55 86 109 99 45 19 48 66 37 126 28 161 59 106 101 155 154 153 189 71 202 170 170 132 106 199 150 73 127 70 115
121 154 60 111 112 140 98 148 65 74 53 68 124 120 123 89 54 210 77 180 102 213 184 196 125 223 157 161 128 68 203 24
150 166 166 133 144 94 105 9 92 16 52 146 100 38 181 184 185 95 157 186 162 178 132 152 156 213 165 72 176 184 69 14
145 101 35 145 23 106 15 122 118 91 114 111 109 93 146 33 48 170 164 190 118 151 120 27 102 18 185 58 154 136 120 71
63 81 89 20 42 7 62 44 29 26 13 20 14 1 16 19 13 4 2 0 0 0 0 0 0 0 0 0 0 0 0 0
0 0 0 0 0 0 0 0 0 0 0 0 0 0 0 0 0 0 0 0 0 0 0 0 0 0 0 0 0 0 0 0
0 0 0 0 0 0 0 0 0 0 0 0 0 0 0 0 0 0 0 0 0 0 0 0 0 0 0 0 0 0 0 0
0 0 0 0 0 0 0 0 0 0 0 0 0 0 2 8 15 16 21 35 34 30 41 48 50 38 33 9 88 46 46 89
21 51 80 102 93 43 119 46 65 38 128 29 164 60 108 102 157 155 154 190 72 202 169 169 131 104 196 147 72 124 69 113
119 152 59 110 111 139 98 149 66 75 54 69 126 122 125 91 54 213 78 181 103 213 183 195 124 221 155 159 126 67 200 23
147 164 163 132 143 93 105 9 93 16 53 148 102 39 184 187 188 14 159 187 163 179 132 151 156 212 164 71 174 182 68 13
143 99 34 143 23 105 15 121 118 92 116 113 111 94 149 33 49 173 166 193 119 152 121 173 96 17 173 54 142 125 110 65
58 74 80 18 37 43 55 39 26 23 11 17 11 1 12 12 6 1 0 0 0 0 0 0 0 0 0 0 0 0 0 0
0 0 0 0 0 0 0 0 0 0 0 0 0 0 0 0 0 0 0 0 0 0 0 0 0 0 0 0 0 0 0 0
0 0 0 0 0 0 0 0 0 0 0 0 0 0 0 0 0 0 0 0 0 0 0 0 0 0 0 0 0 0 0 0
0 0 0 0 0 0 0 0 0 0 0 0 0 0 0 0 7 10 15 26 27 24 34 40 43 33 29 8 78 42 41 80
3 47 74 95 87 40 113 44 62 36 128 29 167 61 109 103 158 156 154 190 72 202 169 167 130 103 194 145 71 122 68 111
117 150 59 109 111 140 98 151 66 76 54 70 128 124 127 92 55 215 79 182 103 213 183 194 123 219 154 157 124 66 196 23
145 161 161 130 142 93 105 9 94 16 53 150 104 39 187 190 191 98 161 189 164 180 132 151 155 210 162 70 172 179 67 13
140 98 34 141 23 104 15 121 119 92 117 114 112 96 151 34 50 175 168 195 120 149 115 163 90 16 161 50 131 115 101 59
52 66 72 16 33 38 48 34 22 19 9 14 9 0 8 6 0 0 0 0 0 0 0 0 0 0 0 0 0 0 0 0
0 0 0 0 0 0 0 0 0 0 0 0 0 0 0 0 0 0 0 0 0 0 0 0 0 0 0 0 0 0 0 0
0 0 0 0 0 0 0 0 0 0 0 0 0 0 0 0 0 0 0 0 0 0 0 0 0 0 0 0 0 0 0 0
0 0 0 0 0 0 0 0 0 0 0 0 0 0 0 0 0 4 8 18 20 19 27 33 36 28 25 7 68 37 37 72
18 42 68 88 81 38 107 42 59 35 122 28 166 61 111 104 24 158 155 191 72 201 168 166 128 102 191 143 70 120 67 110
116 148 58 109 111 140 99 152 67 77 55 71 130 126 128 14 56 217 79 183 103 213 183 193 122 217 152 155 122 64 193 22
142 159 159 129 141 93 105 9 95 17 54 23 106 40 190 193 193 99 162 190 165 180 132 151 154 209 161 70 170 176 66 13
138 96 33 139 23 104 15 122 120 93 118 116 114 97 154 34 51 178 170 193 115 141 108 153 84 15 149 46 120 104 91 53
47 59 63 14 29 33 41 29 18 16 7 10 6 0 3 0 0 0 0 0 0 0 0 0 0 0 0 0 0 0 0 0
0 0 0 0 0 0 0 0 0 0 0 0 0 0 0 0 0 0 0 0 0 0 0 0 0 0 0 0 0 0 0 0
0 0 0 0 0 0 0 0 0 0 0 0 0 0 0 0 0 0 0 0 0 0 0 0 0 0 0 0 0 0 0 0
0 0 0 0 0 0 0 0 0 0 0 0 0 0 0 0 0 0 2 9 13 2 21 26 29 23 21 6 59 32 33 64
16 38 62 81 75 35 100 39 56 33 116 27 159 59 110 106 161 24 156 191 71 200 167 165 127 101 188 141 69 118 66 108
114 147 58 108 111 141 100 154 68 79 56 73 132 128 130 94 56 219 80 184 103 213 182 192 121 214 150 152 121 63 190 22
140 157 158 128 141 93 106 9 96 3 55 155 107 41 193 196 196 100 164 191 165 180 132 150 153 207 159 69 167 173 65 13
136 95 33 138 23 103 15 122 120 94 120 118 116 99 156 35 51 177 164 183 109 133 102 143 78 14 137 42 109 94 82 47
41 52 55 12 25 28 35 24 15 12 5 7 3 0 0 0 0 0 0 0 0 0 0 0 0 0 0 0 0 0 0 0
0 0 0 0 0 0 0 0 0 0 0 0 0 0 0 0 0 0 0 0 0 0 0 0 0 0 0 0 0 0 0 0
0 0 0 0 0 0 0 0 0 0 0 0 0 0 0 0 0 0 0 0 0 0 0 0 0 0 0 0 0 0 0 0
0 0 0 0 0 0 0 0 0 0 0 0 0 0 0 0 0 0 0 1 6 8 14 20 23 19 17 5 50 28 28 56
14 34 56 74 69 33 94 37 53 31 111 26 151 56 105 101 159 159 156 191 71 199 165 163 126 99 185 139 68 116 65 106
113 145 57 108 111 141 101 156 69 80 57 11 135 130 132 96 57 220 80 184 103 212 181 191 120 212 148 150 119 62 187 22
138 155 156 127 21 93 106 9 97 17 56 158 109 41 196 198 198 15 165 193 166 180 132 150 152 205 157 68 165 171 64 13
133 93 33 137 22 103 15 123 122 95 122 120 118 101 159 35 49 168 156 173 102 125 95 132 72 12 124 38 98 84 73 42
36 45 48 10 21 23 28 19 11 8 3 3 0 0 0 0 0 0 0 0 0 0 0 0 0 0 0 0 0 0 0 0
0 0 0 0 0 0 0 0 0 0 0 0 0 0 0 0 0 0 0 0 0 0 0 0 0 0 0 0 0 0 0 0
0 0 0 0 0 0 0 0 0 0 0 0 0 0 0 0 0 0 0 0 0 0 0 0 0 0 0 0 0 0 0 0
0 0 0 0 0 0 0 0 0 0 0 0 0 0 0 0 0 0 0 0 0 3 8 13 16 14 14 4 42 23 24 49
12 31 50 67 63 30 13 35 50 29 104 24 143 53 99 96 150 151 152 191 71 198 164 161 124 98 182 136 67 114 64 105
111 144 57 108 112 142 102 158 70 81 58 75 137 131 134 97 57 222 81 184 103 212 180 189 119 209 146 148 117 61 184 21
136 153 155 127 140 93 107 9 98 17 57 160 111 42 199 201 201 102 166 193 166 180 132 149 151 203 155 67 162 168 62 12
131 92 32 135 22 103 15 19 123 97 123 122 120 99 153 33 47 159 147 163 96 116 88 122 66 11 112 34 13 75 64 36
31 39 40 9 17 19 22 14 7 5 1 0 0 0 0 0 0 0 0 0 0 0 0 0 0 0 0 0 0 0 0 0
0 0 0 0 0 0 0 0 0 0 0 0 0 0 0 0 0 0 0 0 0 0 0 0 0 0 0 0 0 0 0 0
0 0 0 0 0 0 0 0 0 0 0 0 0 0 0 0 0 0 0 0 0 0 0 0 0 0 0 0 0 0 0 0
0 0 0 0 0 0 0 0 0 0 0 0 0 0 0 0 0 0 0 0 0 0 2 6 10 10 10 25 33 19 20 5
11 27 45 60 58 3 80 32 46 27 98 23 135 50 94 90 141 142 143 21 10 195 163 159 122 96 180 134 65 113 63 103
110 17 57 108 112 144 103 160 71 83 59 76 139 133 136 98 58 223 81 185 103 211 179 188 117 206 144 145 115 60 181 175
135 151 154 126 140 11 108 79 100 146 58 163 113 43 202 204 203 103 167 194 166 180 131 148 150 201 153 66 160 165 61 102
129 91 32 134 22 103 127 125 124 98 124 14 115 95 17 31 44 150 138 152 89 107 80 111 60 85 12 30 77 65 55 31
26 32 33 7 13 14 15 9 4 1 0 0 0 0 0 0 0 0 0 0 0 0 0 0 0 0 0 0 0 0 0 0
0 0 0 0 0 0 0 0 0 0 0 0 0 0 0 0 0 0 0 0 0 0 0 0 0 0 0 0 0 0 0 0
0 0 0 0 0 0 0 0 0 0 0 0 0 0 0 0 0 0 0 0 0 0 0 0 0 0 0 0 0 0 0 0
0 0 0 0 0 0 0 0 0 0 0 0 0 0 0 0 0 0 0 0 0 0 0 0 4 5 7 18 25 15 16 4
9 23 39 53 52 3 73 29 43 25 91 21 126 47 88 85 132 133 133 20 64 181 153 154 121 95 177 132 64 111 62 102
109 17 57 108 113 145 104 162 73 84 60 78 141 135 137 99 58 224 81 28 103 31 177 186 116 204 141 143 113 59 178 173
133 150 153 126 141 11 109 80 15 149 59 166 115 6 205 31 205 104 168 195 166 180 130 147 148 198 151 65 157 162 60 100
128 90 32 134 22 103 128 126 123 95 118 14 109 90 17 30 42 141 128 141 82 98 73 101 54 76 2 26 67 56 47 26
22 26 26 5 10 9 9 3 0 0 0 0 0 0 0 0 0 0 0 0 0 0 0 0 0 0 0 0 0 0 0 0
0 0 0 0 0 0 0 0 0 0 0 0 0 0 0 0 0 0 0 0 0 0 0 0 0 0 0 0 0 0 0 0
0 0 0 0 0 0 0 0 0 0 0 0 0 0 0 0 0 0 0 0 0 0 0 0 0 0 0 0 0 0 0 0
0 0 0 0 0 0 0 0 0 0 0 0 0 0 0 0 0 0 0 0 0 0 0 0 0 1 3 11 17 11 13 3
7 19 33 46 46 3 66 27 39 23 84 20 117 44 81 79 123 124 124 19 59 168 142 142 112 90 171 130 63 109 61 101
108 17 57 109 114 147 106 165 74 85 61 79 143 137 139 99 58 225 81 184 103 208 176 184 114 201 139 141 111 58 26 170
131 149 152 126 141 11 110 81 103 151 60 169 117 44 207 208 206 104 169 195 166 179 130 145 147 196 149 10 155 160 59 98
126 89 31 133 22 101 123 119 117 90 112 13 103 85 16 28 39 131 119 129 75 89 66 90 48 67 9 3 57 47 39 21
17 20 19 4 6 5 2 0 0 0 0 0 0 0 0 0 0 0 0 0 0 0 0 0 0 0 0 0 0 0 0 0
0 0 0 0 0 0 0 0 0 0 0 0 0 0 0 0 0 0 0 0 0 0 0 0 0 0 0 0 0 0 0 0
0 0 0 0 0 0 0 0 0 0 0 0 0 0 0 0 0 0 0 0 0 0 0 0 0 0 0 0 0 0 0 0
0 0 0 0 0 0 0 0 0 0 0 0 0 0 0 0 0 0 0 0 0 0 0 0 0 0 0 4 9 7 9 2
6 16 28 39 39 2 59 24 35 21 77 18 107 40 75 72 113 114 114 17 54 155 131 131 103 83 157 120 60 106 60 100
108 17 57 109 115 148 107 167 75 87 62 80 145 139 140 100 59 226 81 184 102 207 174 182 113 198 137 138 109 57 172 168
130 148 152 126 142 12 111 82 104 154 61 171 118 44 210 32 208 105 169 195 166 178 129 144 145 193 147 9 152 157 58 97
19 88 31 19 21 14 117 113 110 85 106 12 97 80 15 26 36 120 109 118 68 80 59 79 42 58 8 19 47 38 31 16
13 14 12 2 2 0 0 0 0 0 0 0 0 0 0 0 0 0 0 0 0 0 0 0 0 0 0 0 0 0 0 0
0 0 0 0 0 0 0 0 0 0 0 0 0 0 0 0 0 0 0 0 0 0 0 0 0 0 0 0 0 0 0 0
0 0 0 0 0 0 0 0 0 0 0 0 0 0 0 0 0 0 0 0 0 0 0 0 0 0 0 0 0 0 0 0
0 0 0 0 0 0 0 0 0 0 0 0 0 0 0 0 0 0 0 0 0 0 0 0 0 0 0 0 2 3 5 2
4 12 22 32 33 2 51 21 31 19 69 2 97 37 68 66 103 104 105 16 50 142 120 120 94 76 144 110 55 98 56 95
16 17 57 110 116 150 109 170 76 88 63 81 147 140 141 101 59 226 81 183 101 205 172 179 111 195 135 136 107 56 170 166
129 22 152 126 143 12 113 83 16 156 62 174 120 45 212 212 210 105 170 195 165 177 128 143 143 190 145 62 149 154 57 93
118 82 29 119 20 90 16 106 104 80 100 11 91 75 14 24 33 110 98 106 60 71 51 69 36 49 7 16 38 30 23 12
8 8 6 0 0 0 0 0 0 0 0 0 0 0 0 0 0 0 0 0 0 0 0 0 0 0 0 0 0 0 0 0
0 0 0 0 0 0 0 0 0 0 0 0 0 0 0 0 0 0 0 0 0 0 0 0 0 0 0 0 0 0 0 0
0 0 0 0 0 0 0 0 0 0 0 0 0 0 0 0 0 0 0 0 0 0 0 0 0 0 0 0 0 0 0 0
0 0 0 0 0 0 0 0 0 0 0 0 0 0 0 0 0 0 0 0 0 0 0 0 0 0 0 0 0 0 2 1
3 8 16 25 27 2 43 18 27 17 61 15 87 33 62 60 14 94 95 14 45 129 109 109 86 69 132 101 51 90 52 89
98 16 55 107 115 152 111 173 78 90 64 82 149 142 143 102 59 226 81 182 101 203 170 177 110 191 132 134 106 56 168 164
128 147 152 127 144 12 114 85 108 159 63 177 122 46 215 214 211 106 170 195 164 176 127 141 141 188 142 60 142 144 53 86
109 76 26 111 18 84 103 100 97 75 93 11 85 69 12 22 30 99 13 94 53 61 44 58 30 40 5 12 28 21 16 7
4 0 0 0 0 0 0 0 0 0 0 0 0 0 0 0 0 0 0 0 0 0 0 0 0 0 0 0 0 0 0 0
0 0 0 0 0 0 0 0 0 0 0 0 0 0 0 0 0 0 0 0 0 0 0 0 0 0 0 0 0 0 0 0
0 0 0 0 0 0 0 0 0 0 0 0 0 0 0 0 0 0 0 0 0 0 0 0 0 0 0 0 0 0 0 0
0 0 0 0 0 0 0 0 0 0 0 0 0 0 0 0 0 0 0 0 0 0 0 0 0 0 0 0 0 0 0 0
1 5 11 18 20 1 5 15 23 14 53 13 76 29 55 53 84 85 85 13 41 116 98 98 77 63 120 92 46 82 48 82
91 15 51 101 109 145 107 170 77 90 65 84 151 143 144 102 59 226 81 27 100 201 168 175 108 188 130 132 104 55 166 163
127 146 152 128 145 12 116 86 109 162 64 180 124 46 217 216 212 106 170 194 164 175 124 136 134 176 131 55 131 133 49 79
100 70 25 103 17 78 96 93 91 70 87 10 78 9 11 20 27 88 77 82 46 52 37 48 24 31 4 9 20 13 8 3
0 0 0 0 0 0 0 0 0 0 0 0 0 0 0 0 0 0 0 0 0 0 0 0 0 0 0 0 0 0 0 0
0 0 0 0 0 0 0 0 0 0 0 0 0 0 0 0 0 0 0 0 0 0 0 0 0 0 0 0 0 0 0 0
0 0 0 0 0 0 0 0 0 0 0 0 0 0 0 0 0 0 0 0 0 0 0 0 0 0 0 0 0 0 0 0
0 0 0 0 0 0 0 0 0 0 0 0 0 0 0 0 0 0 0 0 0 0 0 0 0 0 0 0 0 0 0 0
0 1 5 10 13 1 26 12 19 12 44 11 66 25 48 47 74 75 75 11 36 103 88 88 69 56 108 83 42 75 44 75
84 14 48 95 103 137 101 161 73 86 9 81 147 141 142 102 59 226 81 180 99 199 166 172 106 185 128 129 102 54 164 162
127 146 153 129 147 2 118 87 111 164 65 182 125 47 219 217 212 105 25 186 155 163 115 126 124 161 120 50 119 121 44 73
92 64 23 95 16 72 89 86 84 64 79 9 71 57 10 17 24 77 67 69 38 43 30 38 18 23 3 6 11 6 1 0
0 0 0 0 0 0 0 0 0 0 0 0 0 0 0 0 0 0 0 0 0 0 0 0 0 0 0 0 0 0 0 0
0 0 0 0 0 0 0 0 0 0 0 0 0 0 0 0 0 0 0 0 0 0 0 0 0 0 0 0 0 0 0 0
0 0 0 0 0 0 0 0 0 0 0 0 0 0 0 0 0 0 0 0 0 0 0 0 0 0 0 0 0 0 0 0
0 0 0 0 0 0 0 0 0 0 0 0 0 0 0 0 0 0 0 0 0 0 0 0 0 0 0 0 0 0 0 0
0 0 0 2 6 5 17 8 14 9 35 9 54 21 40 40 63 8 66 83 32 11 77 78 62 50 96 75 38 68 5 69
78 107 45 89 97 129 96 152 69 81 7 76 138 132 134 96 56 214 77 173 11 192 161 167 104 182 126 127 101 53 162 161
127 147 153 19 149 102 119 88 112 164 64 180 122 45 209 205 199 98 154 173 144 150 106 14 113 147 109 46 109 110 40 66
84 59 21 87 14 67 10 79 77 59 72 68 63 51 74 15 21 65 56 57 31 34 23 27 13 15 13 3 2 0 0 0
0 0 0 0 0 0 0 0 0 0 0 0 0 0 0 0 0 0 0 0 0 0 0 0 0 0 0 0 0 0 0 0
0 0 0 0 0 0 0 0 0 0 0 0 0 0 0 0 0 0 0 0 0 0 0 0 0 0 0 0 0 0 0 0
0 0 0 0 0 0 0 0 0 0 0 0 0 0 0 0 0 0 0 0 0 0 0 0 0 0 0 0 0 0 0 0
0 0 0 0 0 0 0 0 0 0 0 0 0 0 0 0 0 0 0 0 0 0 0 0 0 0 0 0 0 0 0 0
0 0 0 0 0 0 8 5 9 6 26 7 43 17 33 33 53 7 56 71 27 9 67 68 54 44 85 66 34 61 4 63
71 98 41 83 91 121 90 143 65 76 7 71 130 124 125 89 52 199 71 160 11 177 149 154 96 167 116 118 93 50 152 151
119 139 146 123 141 97 113 84 106 156 61 170 115 42 196 29 185 91 143 160 132 138 97 13 103 134 99 41 98 100 37 60
76 54 19 80 13 61 9 72 69 53 64 60 56 7 64 13 17 54 45 45 23 25 16 18 7 7 3 0 0 0 0 0
0 0 0 0 0 0 0 0 0 0 0 0 0 0 0 0 0 0 0 0 0 0 0 0 0 0 0 0 0 0 0 0
0 0 0 0 0 0 0 0 0 0 0 0 0 0 0 0 0 0 0 0 0 0 0 0 0 0 0 0 0 0 0 0
0 0 0 0 0 0 0 0 0 0 0 0 0 0 0 0 0 0 0 0 0 0 0 0 0 0 0 0 0 0 0 0
0 0 0 0 0 0 0 0 0 0 0 0 0 0 0 0 0 0 0 0 0 0 0 0 0 0 0 0 0 0 0 0
0 0 0 0 0 0 0 1 4 4 17 5 32 13 26 26 43 5 47 59 23 8 58 59 47 38 75 9 30 55 4 9
65 90 6 77 84 112 84 134 9 71 6 10 121 115 116 83 48 184 66 147 10 163 20 141 87 153 106 108 86 46 140 140
111 130 137 116 133 91 107 79 100 147 57 160 108 40 183 179 172 84 131 147 121 126 88 11 93 121 89 37 88 90 33 54
69 48 17 72 12 55 8 64 62 47 56 52 48 37 8 11 14 42 34 33 16 16 9 8 2 0 0 0 0 0 0 0
0 0 0 0 0 0 0 0 0 0 0 0 0 0 0 0 0 0 0 0 0 0 0 0 0 0 0 0 0 0 0 0
0 0 0 0 0 0 0 0 0 0 0 0 0 0 0 0 0 0 0 0 0 0 0 0 0 0 0 0 0 0 0 0
0 0 0 0 0 0 0 0 0 0 0 0 0 0 0 0 0 0 0 0 0 0 0 0 0 0 0 0 0 0 0 0
0 0 0 0 0 0 0 0 0 0 0 0 0 0 0 0 0 0 0 0 0 0 0 0 0 0 0 0 0 0 0 0
0 0 0 0 0 0 0 0 0 1 8 3 20 9 19 3 33 4 37 48 19 7 48 49 40 33 64 51 26 48 3 51
58 82 35 70 77 104 77 124 56 66 6 62 112 106 107 76 44 168 60 134 9 148 124 128 79 139 97 98 78 42 129 129
15 121 128 109 125 86 101 75 94 138 54 149 101 37 170 165 158 77 120 134 110 114 79 10 83 108 80 33 79 80 29 48
61 43 15 64 11 48 7 56 54 40 48 44 6 30 42 8 10 30 23 20 9 7 2 0 0 0 0 0 0 0 0 0
0 0 0 0 0 0 0 0 0 0 0 0 0 0 0 0 0 0 0 0 0 0 0 0 0 0 0 0 0 0 0 0
0 0 0 0 0 0 0 0 0 0 0 0 0 0 0 0 0 0 0 0 0 0 0 0 0 0 0 0 0 0 0 0
0 0 0 0 0 0 0 0 0 0 0 0 0 0 0 0 0 0 0 0 0 0 0 0 0 0 0 0 0 0 0 0
0 0 0 0 0 0 0 0 0 0 0 0 0 0 0 0 0 0 0 0 0 0 0 0 0 0 0 0 0 0 0 0
0 0 0 0 0 0 0 0 0 0 0 1 8 5 11 13 23 3 28 37 15 5 39 6 5 27 54 43 23 42 3 45
52 73 31 64 70 95 71 113 52 61 5 56 102 97 98 69 40 153 54 122 8 134 112 116 72 126 87 89 71 38 118 119
95 112 119 101 117 80 94 70 88 129 50 138 93 34 156 151 144 70 109 120 98 102 71 9 74 95 70 29 69 70 26 42
54 38 13 56 9 42 6 48 45 34 40 35 31 23 31 6 7 18 12 8 2 0 0 0 0 0 0 0 0 0 0 0
0 0 0 0 0 0 0 0 0 0 0 0 0 0 0 0 0 0 0 0 0 0 0 0 0 0 0 0 0 0 0 0
0 0 0 0 0 0 0 0 0 0 0 0 0 0 0 0 0 0 0 0 0 0 0 0 0 0 0 0 0 0 0 0
0 0 0 0 0 0 0 0 0 0 0 0 0 0 0 0 0 0 0 0 0 0 0 0 0 0 0 0 0 0 0 0
0 0 0 0 0 0 0 0 0 0 0 0 0 0 0 0 0 0 0 0 0 0 0 0 0 0 0 0 0 0 0 0
0 0 0 0 0 0 0 0 0 0 0 0 0 0 4 1 13 2 19 26 11 4 30 32 26 22 44 36 19 36 3 39
46 65 28 57 63 85 64 102 47 55 5 51 92 88 88 62 36 138 49 109 7 120 100 104 64 113 79 80 65 35 108 109
87 103 110 94 108 74 87 65 81 119 46 127 85 31 142 137 130 63 97 107 87 90 62 8 65 83 61 25 60 61 22 37
46 33 11 48 8 35 5 39 37 27 31 27 23 16 20 3 3 6 1 0 0 0 0 0 0 0 0 0 0 0 0 0
0 0 0 0 0 0 0 0 0 0 0 0 0 0 0 0 0 0 0 0 0 0 0 0 0 0 0 0 0 0 0 0
0 0 0 0 0 0 0 0 0 0 0 0 0 0 0 0 0 0 0 0 0 0 0 0 0 0 0 0 0 0 0 0
0 0 0 0 0 0 0 0 0 0 0 0 0 0 0 0 0 0 0 0 0 0 0 0 0 0 0 0 0 0 0 0
0 0 0 0 0 0 0 0 0 0 0 0 0 0 0 0 0 0 0 0 0 0 0 0 0 0 0 0 0 0 0 0
0 0 0 0 0 0 0 0 0 0 0 0 0 0 0 0 3 1 10 16 7 3 21 23 20 17 35 29 15 29 2 33
39 56 24 50 56 75 57 91 42 49 4 46 83 78 79 56 32 122 43 97 6 106 89 92 57 100 70 72 58 31 97 99
80 94 100 86 100 68 80 59 75 108 42 115 77 28 127 122 116 56 86 95 77 79 54 7 56 72 52 22 51 52 19 31
39 27 10 40 6 29 4 31 28 20 21 18 14 9 9 1 0 0 0 0 0 0 0 0 0 0 0 0 0 0 0 0
0 0 0 0 0 0 0 0 0 0 0 0 0 0 0 0 0 0 0 0 0 0 0 0 0 0 0 0 0 0 0 0
0 0 0 0 0 0 0 0 0 0 0 0 0 0 0 0 0 0 0 0 0 0 0 0 0 0 0 0 0 0 0 0
0 0 0 0 0 0 0 0 0 0 0 0 0 0 0 0 0 0 0 0 0 0 0 0 0 0 0 0 0 0 0 0
0 0 0 0 0 0 0 0 0 0 0 0 0 0 0 0 0 0 0 0 0 0 0 0 0 0 0 0 0 0 0 0
0 0 0 0 0 0 0 0 0 0 0 0 0 0 0 0 0 0 1 5 3 1 13 15 13 12 26 22 12 23 2 27
32 47 21 43 48 65 49 80 36 43 4 40 73 69 69 49 28 107 38 85 6 93 78 81 50 88 62 63 51 28 87 89
72 85 91 78 90 62 73 54 67 98 38 103 69 25 113 108 102 49 75 82 66 67 46 6 47 60 44 18 43 43 16 25
32 22 8 31 5 22 3 22 19 12 12 8 5 1 0 0 0 0 0 0 0 0 0 0 0 0 0 0 0 0 0 0
0 0 0 0 0 0 0 0 0 0 0 0 0 0 0 0 0 0 0 0 0 0 0 0 0 0 0 0 0 0 0 0
0 0 0 0 0 0 0 0 0 0 0 0 0 0 0 0 0 0 0 0 0 0 0 0 0 0 0 0 0 0 0 0
0 0 0 0 0 0 0 0 0 0 0 0 0 0 0 0 0 0 0 0 0 0 0 0 0 0 0 0 0 0 0 0
0 0 0 0 0 0 0 0 0 0 0 0 0 0 0 0 0 0 0 0 0 0 0 0 0 0 0 0 0 0 0 0
0 0 0 0 0 0 0 0 0 0 0 0 0 0 0 0 0 0 0 0 0 2 5 7 7 7 17 15 9 17 11 21
26 38 17 35 40 55 42 67 31 37 27 34 62 59 59 42 24 92 33 73 40 80 67 70 43 76 54 55 5 25 77 79
64 76 81 8 81 56 65 48 60 87 33 91 61 22 98 93 88 42 64 69 56 56 39 41 39 49 36 15 34 34 12 20
4 17 1 3 0 14 15 12 9 5 2 0 0 0 0 0 0 0 0 0 0 0 0 0 0 0 0 0 0 0 0 0
0 0 0 0 0 0 0 0 0 0 0 0 0 0 0 0 0 0 0 0 0 0 0 0 0 0 0 0 0 0 0 0
0 0 0 0 0 0 0 0 0 0 0 0 0 0 0 0 0 0 0 0 0 0 0 0 0 0 0 0 0 0 0 0
0 0 0 0 0 0 0 0 0 0 0 0 0 0 0 0 0 0 0 0 0 0 0 0 0 0 0 0 0 0 0 0
0 0 0 0 0 0 0 0 0 0 0 0 0 0 0 0 0 0 0 0 0 0 0 0 0 0 0 0 0 0 0 0
0 0 0 0 0 0 0 0 0 0 0 0 0 0 0 0 0 0 0 0 0 0 0 0 1 3 8 8 1 11 7 15
19 28 13 27 32 44 34 55 26 30 22 29 52 50 50 35 21 78 28 62 34 68 57 59 37 65 46 48 5 21 67 69
56 67 72 7 71 49 57 42 52 76 29 79 52 19 83 79 74 35 53 57 45 46 31 33 31 39 28 11 26 26 9 14
17 11 0 2 0 7 6 3 0 0 0 0 0 0 0 0 0 0 0 0 0 0 0 0 0 0 0 0 0 0 0 0
0 0 0 0 0 0 0 0 0 0 0 0 0 0 0 0 0 0 0 0 0 0 0 0 0 0 0 0 0 0 0 0
0 0 0 0 0 0 0 0 0 0 0 0 0 0 0 0 0 0 0 0 0 0 0 0 0 0 0 0 0 0 0 0
0 0 0 0 0 0 0 0 0 0 0 0 0 0 0 0 0 0 0 0 0 0 0 0 0 0 0 0 0 0 0 0
0 0 0 0 0 0 0 0 0 0 0 0 0 0 0 0 0 0 0 0 0 0 0 0 0 0 0 0 0 0 0 0
0 0 0 0 0 0 0 0 0 0 0 0 0 0 0 0 0 0 0 0 0 0 0 0 0 0 0 1 2 1 4 8
12 19 9 19 23 33 25 42 20 24 17 23 42 40 40 29 17 63 23 50 28 56 7 49 31 54 38 40 4 18 57 59
48 9 62 6 61 42 49 36 45 64 24 66 43 15 68 64 60 28 42 45 36 35 24 25 23 28 20 8 18 17 6 9
10 6 0 1 0 0 0 0 0 0 0 0 0 0 0 0 0 0 0 0 0 0 0 0 0 0 0 0 0 0 0 0
0 0 0 0 0 0 0 0 0 0 0 0 0 0 0 0 0 0 0 0 0 0 0 0 0 0 0 0 0 0 0 0
0 0 0 0 0 0 0 0 0 0 0 0 0 0 0 0 0 0 0 0 0 0 0 0 0 0 0 0 0 0 0 0
0 0 0 0 0 0 0 0 0 0 0 0 0 0 0 0 0 0 0 0 0 0 0 0 0 0 0 0 0 0 0 0
0 0 0 0 0 0 0 0 0 0 0 0 0 0 0 0 0 0 0 0 0 0 0 0 0 0 0 0 0 0 0 0
0 0 0 0 0 0 0 0 0 0 0 0 0 0 0 0 0 0 0 0 0 0 0 0 0 0 0 0 0 0 0 2
4 8 1 11 14 21 17 29 14 17 13 17 31 30 31 22 13 49 18 39 22 44 37 39 24 43 31 32 3 15 47 48
40 48 51 5 51 35 40 29 36 52 20 53 34 12 54 50 46 21 32 33 26 25 17 17 15 18 13 5 10 9 3 3
2 0 0 0 0 0 0 0 0 0 0 0 0 0 0 0 0 0 0 0 0 0 0 0 0 0 0 0 0 0 0 0
0 0 0 0 0 0 0 0 0 0 0 0 0 0 0 0 0 0 0 0 0 0 0 0 0 0 0 0 0 0 0 0
0 0 0 0 0 0 0 0 0 0 0 0 0 0 0 0 0 0 0 0 0 0 0 0 0 0 0 0 0 0 0 0
0 0 0 0 0 0 0 0 0 0 0 0 0 0 0 0 0 0 0 0 0 0 0 0 0 0 0 0 0 0 0 0
0 0 0 0 0 0 0 0 0 0 0 0 0 0 0 0 0 0 0 0 0 0 0 0 0 0 0 0 0 0 0 0
0 0 0 0 0 0 0 0 0 0 0 0 0 0 0 0 0 0 0 0 0 0 0 0 0 0 0 0 0 0 0 0
0 0 0 3 5 9 8 16 1 10 8 11 21 21 21 15 9 35 13 29 16 33 28 29 18 33 24 25 2 11 37 38
31 38 6 4 40 27 31 23 28 40 15 40 26 9 39 36 32 15 21 22 17 16 10 9 8 9 5 2 2 0 0 0
0 0 0 0 0 0 0 0 0 0 0 0 0 0 0 0 0 0 0 0 0 0 0 0 0 0 0 0 0 0 0 0
0 0 0 0 0 0 0 0 0 0 0 0 0 0 0 0 0 0 0 0 0 0 0 0 0 0 0 0 0 0 0 0
0 0 0 0 0 0 0 0 0 0 0 0 0 0 0 0 0 0 0 0 0 0 0 0 0 0 0 0 0 0 0 0
0 0 0 0 0 0 0 0 0 0 0 0 0 0 0 0 0 0 0 0 0 0 0 0 0 0 0 0 0 0 0 0
0 0 0 0 0 0 0 0 0 0 0 0 0 0 0 0 0 0 0 0 0 0 0 0 0 0 0 0 0 0 0 0
0 0 0 0 0 0 0 0 0 0 0 0 0 0 0 0 0 0 0 0 0 0 0 0 0 0 0 0 0 0 0 0
0 0 0 0 0 0 0 2 2 3 3 5 10 11 12 9 6 22 8 19 10 22 19 20 13 23 17 18 2 8 26 28
23 27 29 3 29 19 22 16 20 27 10 4 17 6 24 22 19 8 11 11 7 6 3 2 1 0 0 0 0 0 0 0
0 0 0 0 0 0 0 0 0 0 0 0 0 0 0 0 0 0 0 0 0 0 0 0 0 0 0 0 0 0 0 0
0 0 0 0 0 0 0 0 0 0 0 0 0 0 0 0 0 0 0 0 0 0 0 0 0 0 0 0 0 0 0 0
0 0 0 0 0 0 0 0 0 0 0 0 0 0 0 0 0 0 0 0 0 0 0 0 0 0 0 0 0 0 0 0
0 0 0 0 0 0 0 0 0 0 0 0 0 0 0 0 0 0 0 0 0 0 0 0 0 0 0 0 0 0 0 0
0 0 0 0 0 0 0 0 0 0 0 0 0 0 0 0 0 0 0 0 0 0 0 0 0 0 0 0 0 0 0 0
0 0 0 0 0 0 0 0 0 0 0 0 0 0 0 0 0 0 0 0 0 0 0 0 0 0 0 0 0 0 0 0
0 0 0 0 0 0 0 0 0 0 0 0 0 1 3 3 2 9 3 9 5 11 10 11 7 13 10 10 1 5 16 17
14 17 18 0 3 11 13 9 11 15 5 13 8 3 10 8 1 2 1 0 0 0 0 0 0 0 0 0 0 0 0 0
0 0 0 0 0 0 0 0 0 0 0 0 0 0 0 0 0 0 0 0 0 0 0 0 0 0 0 0 0 0 0 0
0 0 0 0 0 0 0 0 0 0 0 0 0 0 0 0 0 0 0 0 0 0 0 0 0 0 0 0 0 0 0 0
0 0 0 0 0 0 0 0 0 0 0 0 0 0 0 0 0 0 0 0 0 0 0 0 0 0 0 0 0 0 0 0
0 0 0 0 0 0 0 0 0 0 0 0 0 0 0 0 0 0 0 0 0 0 0 0 0 0 0 0 0 0 0 0
0 0 0 0 0 0 0 0 0 0 0 0 0 0 0 0 0 0 0 0 0 0 0 0 0 0 0 0 0 0 0 0
0 0 0 0 0 0 0 0 0 0 0 0 0 0 0 0 0 0 0 0 0 0 0 0 0 0 0 0 0 0 0 0
0 0 0 0 0 0 0 0 0 0 0 0 0 0 0 0 0 0 0 0 0 1 1 2 2 3 3 3 0 2 5 6
5 6 6 1 5 3 3 2 2 2 0 0 0 0 0 0 0 0 0 0 0 0 0 0 0 0 0 0 0 0 0 0
0 0 0 0 0 0 0 0 0 0 0 0 0 0 0 0 0 0 0 0 0 0 0 0 0 0 0 0 0 0 0 0
0 0 0 0 0 0 0 0 0 0 0 0 0 0 0 0 0 0 0 0 0 0 0 0 0 0 0 0 0 0 0 0
0 0 0 0 0 0 0 0 0 0 0 0 0 0 0 0 0 0 0 0 0 0 0 0 0 0 0 0 0 0 0 0
