P2
# Fine graphite grain with sparse paper gaps
64 64
255
0 0 0 0 0 0 0 0 0 0 0 0 0 0 0 0 0 0 0 0 0 0 0 0 0 0 0 1 11 23 17 22
11 27 10 12 7 1 0 0 0 0 0 0 0 0 0 0 0 0 0 0 0 0 0 0 0 0 0 0 0 0 0 0
0 0 0 0 0 0 0 0 0 0 0 0 0 0 0 0 0 0 0 0 0 0 2 14 19 40 2 2 53 69 29 45
35 75 42 40 45 46 36 30 11 3 0 0 0 0 0 0 0 0 0 0 0 0 0 0 0 0 0 0 0 0 0 0
0 0 0 0 0 0 0 0 0 0 0 0 0 0 0 0 0 0 0 0 10 34 62 29 62 49 75 75 77 108 9 5
92 57 113 79 69 95 80 69 3 3 31 11 0 0 0 0 0 0 0 0 0 0 0 0 0 0 0 0 0 0 0 0
0 0 0 0 0 0 0 0 0 0 0 0 0 0 0 0 0 1 20 13 33 97 104 78 87 99 114 116 82 63 11 6
155 184 143 104 94 134 91 146 8 5 80 50 40 13 1 0 0 0 0 0 0 0 0 0 0 0 0 0 0 0 0 0
0 0 0 0 0 0 0 0 0 0 0 0 0 0 0 0 18 26 25 62 75 66 85 98 68 213 13 11 188 163 92 126
188 71 143 163 135 123 71 132 8 4 119 128 33 47 29 21 0 0 0 0 0 0 0 0 0 0 0 0 0 0 0 0
0 0 0 0 0 0 0 0 0 0 0 0 0 0 15 33 53 90 69 116 153 138 83 213 177 243 11 8 89 130 110 194
126 149 141 188 134 157 113 85 13 9 121 95 77 88 67 71 21 4 0 0 0 0 0 0 0 0 0 0 0 0 0 0
0 0 0 0 0 0 0 0 0 0 0 0 0 24 62 59 8 11 102 198 93 119 127 165 188 144 162 175 206 102 119 140
15 15 138 185 177 115 172 216 160 144 181 73 156 126 84 116 4 3 15 0 0 0 0 0 0 0 0 0 0 0 0 0
0 0 0 0 0 0 0 0 0 0 0 2 23 68 114 57 10 10 103 190 117 167 98 163 144 168 72 123 216 44 123 231
12 6 61 163 241 99 176 192 156 110 241 52 126 136 114 105 9 5 84 32 2 0 0 0 0 0 0 0 0 0 0 0
0 0 0 0 0 0 0 0 0 0 6 40 46 96 143 86 212 152 150 145 246 146 134 195 211 107 169 181 223 104 54 153
13 8 138 140 97 132 151 98 220 54 170 181 73 186 229 73 131 119 114 61 45 4 0 0 0 0 0 0 0 0 0 0
0 0 0 0 0 0 0 0 0 9 24 81 95 133 87 133 166 85 177 225 163 108 135 230 155 86 182 208 149 140 140 176
15 10 94 96 198 177 115 182 108 135 209 158 142 157 160 141 203 147 177 33 56 36 3 0 0 0 0 0 0 0 0 0
0 0 0 0 0 0 0 0 4 54 52 102 10 4 57 133 215 148 129 147 241 115 10 20 6 10 162 199 19 6 90 137
77 168 149 181 119 70 210 148 92 145 226 109 9 13 163 125 199 52 191 119 128 88 21 4 0 0 0 0 0 0 0 0
0 0 0 0 0 0 0 2 45 82 99 74 5 5 156 119 204 140 182 112 97 143 11 10 17 11 189 98 18 7 108 94
92 151 79 219 124 144 169 83 71 133 145 112 9 11 56 114 168 148 140 145 129 88 50 18 0 0 0 0 0 0 0 0
0 0 0 0 0 0 0 27 78 47 134 204 77 145 91 145 175 152 187 74 109 52 15 9 208 110 246 235 153 80 179 168
102 111 16 14 130 228 251 149 113 183 182 164 89 246 152 97 234 242 149 151 195 53 82 47 40 0 0 0 0 0 0 0
0 0 0 0 0 0 10 46 92 158 139 217 120 44 73 186 186 144 88 193 156 181 8 13 161 152 200 234 190 184 231 157
110 149 18 6 143 85 139 166 162 185 136 187 191 235 90 120 161 112 135 137 239 104 140 109 79 28 0 0 0 0 0 0
0 0 0 0 0 8 41 57 47 127 10 12 191 106 106 110 211 196 209 117 147 238 230 148 112 127 157 181 93 169 114 93
154 236 159 123 111 187 195 114 118 223 166 186 211 183 162 107 199 249 117 160 220 79 129 90 88 52 7 0 0 0 0 0
0 0 0 0 0 15 77 133 147 99 13 15 220 124 91 206 155 175 209 68 87 225 189 152 69 165 177 110 50 213 181 143
40 237 73 64 61 160 187 103 174 244 43 214 102 159 99 125 193 219 63 135 190 151 144 136 141 59 20 0 0 0 0 0
0 0 0 0 22 24 78 73 113 123 161 157 176 186 197 240 156 153 201 105 129 237 20 5 123 83 104 145 98 63 11 5
181 223 97 98 109 195 156 73 111 217 77 151 243 195 67 169 166 221 8 12 108 157 214 225 145 97 66 8 0 0 0 0
0 0 0 1 39 60 107 188 127 53 186 151 119 109 139 103 118 169 211 116 130 209 18 12 125 89 178 154 86 126 9 10
88 220 161 85 129 123 141 216 159 108 106 166 136 94 162 217 143 133 6 11 80 121 249 253 142 58 59 26 1 0 0 0
0 0 0 27 4 6 82 201 94 69 142 132 12 12 107 56 142 221 164 47 11 12 159 95 11 14 85 45 5 7 70 110
185 152 120 155 203 162 126 115 143 128 179 220 226 119 129 213 58 96 150 169 102 150 14 18 88 85 57 61 13 0 0 0
0 0 0 43 6 5 144 154 147 76 217 83 11 12 242 161 154 174 177 150 12 12 179 112 8 16 119 90 14 7 137 234
56 108 163 121 218 109 150 236 199 172 126 113 140 110 146 110 160 136 136 219 159 190 9 16 162 110 169 41 23 0 0 0
0 0 14 69 2 9 242 145 173 111 127 101 65 167 242 54 67 138 165 139 70 95 129 140 178 80 95 172 192 146 93 190
194 125 137 174 194 94 160 227 145 96 5 12 173 72 126 139 166 140 188 163 151 239 171 109 7 11 182 78 2 1 0 0
0 0 40 99 6 11 219 180 158 165 110 162 160 210 112 121 78 136 129 150 153 65 104 185 189 204 47 130 116 155 75 244
240 75 163 108 234 64 156 66 173 111 16 8 80 129 185 189 44 142 182 117 173 202 130 131 6 7 186 34 3 2 0 0
0 2 62 90 121 176 146 166 213 114 119 118 156 120 201 122 112 98 146 170 115 141 80 189 128 189 178 177 158 146 93 217
14 6 52 210 214 136 107 182 208 146 211 98 137 82 249 189 114 120 67 109 138 127 141 115 110 173 18 11 10 4 1 0
0 9 36 68 139 228 143 94 210 214 77 74 101 127 190 166 156 88 123 245 111 108 145 201 151 106 200 198 137 149 65 139
12 13 137 177 189 193 181 127 187 144 97 154 122 182 217 102 144 119 74 78 165 185 122 93 121 171 9 11 9 2 11 0
0 29 76 64 163 234 122 146 111 219 13 18 104 139 96 172 167 90 177 194 220 76 134 199 240 192 73 143 191 63 15 14
187 58 141 165 209 141 77 162 9 10 209 129 131 103 187 106 18 13 201 153 204 126 134 128 141 153 107 197 130 58 20 0
0 32 93 42 128 208 113 100 166 201 9 16 75 162 96 201 203 146 178 112 148 97 132 135 210 164 182 176 170 198 19 14
74 84 149 187 159 176 64 115 9 11 180 151 134 212 225 97 10 17 129 128 187 174 138 153 193 185 137 203 125 50 20 0
1 58 90 43 8 10 85 82 221 155 112 189 202 99 121 135 243 122 64 127 224 140 177 148 224 73 145 106 126 203 209 95
117 179 154 181 175 235 200 99 145 139 189 132 155 231 182 129 158 128 109 160 15 6 121 130 104 137 136 245 56 38 43 1
7 55 105 96 20 11 133 146 229 185 124 115 188 85 93 232 199 171 190 157 109 203 61 99 98 138 247 73 133 113 142 149
69 209 145 114 100 221 124 71 107 186 86 165 169 234 191 169 172 239 181 156 14 14 120 142 226 82 123 133 99 61 50 8
14 43 71 107 156 116 171 202 10 19 203 163 171 134 80 124 132 146 139 132 154 207 114 88 111 155 93 196 51 164 102 156
78 89 234 112 12 14 95 127 149 165 77 48 145 249 143 75 220 111 162 80 226 98 115 191 241 109 6 16 120 98 62 17
17 84 79 123 59 108 164 244 7 11 222 237 205 109 88 216 176 160 224 173 115 244 74 82 111 124 183 84 125 67 233 137
110 73 129 183 11 11 204 148 145 240 56 206 242 208 97 209 89 130 159 129 209 111 215 141 97 138 11 17 125 53 79 5
28 78 76 97 80 132 199 125 122 65 148 96 126 212 189 152 109 82 88 98 105 100 192 97 84 120 161 140 105 199 173 147
118 186 204 129 134 209 14 8 115 247 101 205 238 92 155 140 179 230 152 193 115 67 130 138 232 168 87 184 136 110 80 18
28 64 53 159 172 122 220 250 128 76 214 163 148 161 215 197 74 157 117 118 96 247 93 87 94 159 108 71 154 191 158 144
194 123 214 83 76 182 10 16 148 228 154 78 165 85 138 81 137 156 152 210 185 56 181 202 128 127 212 119 52 46 89 6
29 36 87 161 152 77 149 142 98 115 165 142 13 9 191 174 118 150 153 130 153 123 155 149 67 200 84 114 92 84 135 211
213 225 128 75 133 176 159 178 92 184 168 169 102 101 132 198 126 183 165 225 62 161 213 120 155 119 123 132 94 150 90 14
18 62 82 190 125 103 140 143 99 121 83 106 13 6 86 111 152 186 112 160 92 161 168 101 112 123 88 88 95 144 169 104
194 202 146 100 132 107 155 167 151 169 159 160 165 120 145 207 150 62 106 177 89 209 220 111 92 62 74 148 108 87 77 9
21 58 7 17 102 144 220 148 119 136 110 107 86 202 80 97 80 228 49 166 123 110 157 92 168 89 140 136 128 146 69 249
99 76 110 113 126 68 101 186 80 141 203 231 189 99 131 230 5 12 169 192 47 213 182 220 147 113 174 135 112 131 46 17
12 51 6 15 108 109 147 162 170 138 182 162 47 126 199 127 80 114 160 120 187 135 87 225 119 230 73 105 192 122 151 132
231 193 95 174 197 92 148 222 217 113 212 146 162 129 85 180 13 5 149 152 157 226 117 97 150 90 134 132 150 96 51 8
7 42 67 64 145 190 15 11 176 84 92 77 103 82 136 162 157 181 91 166 173 110 168 92 126 238 119 139 138 55 142 119
249 110 86 159 212 104 132 99 155 132 130 149 122 148 228 166 132 155 234 147 71 209 16 4 108 182 241 145 9 11 43 8
1 26 96 121 126 215 15 12 127 126 161 75 82 168 124 67 200 177 75 221 192 58 159 201 209 219 99 69 172 78 131 218
153 102 128 120 234 185 98 76 145 64 107 76 161 81 130 95 201 132 225 151 167 191 10 12 58 129 121 195 9 9 42 1
0 34 88 143 165 191 93 46 190 69 102 81 115 142 90 140 225 130 74 83 143 73 118 87 146 84 206 108 19 11 164 74
112 69 172 227 180 188 211 133 181 46 225 126 155 169 188 121 12 5 191 71 140 107 118 143 110 150 172 195 144 75 31 0
0 26 82 114 75 61 182 44 121 132 109 215 120 170 164 100 205 134 186 248 244 62 112 243 106 118 124 170 11 9 78 183
152 81 184 153 153 160 123 159 172 77 183 160 119 136 170 83 13 7 169 91 203 203 46 103 147 143 188 95 87 41 21 0
0 19 74 49 167 238 125 169 121 235 113 237 118 89 153 204 198 164 83 236 222 110 92 199 140 142 205 71 188 119 99 94
144 71 193 218 175 230 93 112 77 138 132 87 133 211 193 81 100 168 191 145 161 117 90 163 168 248 84 48 108 28 1 0
0 2 54 83 127 150 134 188 94 198 109 196 241 104 100 135 169 118 206 196 219 168 195 190 91 111 177 221 185 156 160 88
147 144 225 145 178 163 125 148 151 106 181 78 122 118 167 59 184 181 146 168 237 110 171 124 121 115 131 47 107 28 0 0
0 0 25 36 159 100 62 208 163 192 189 97 215 68 85 112 151 179 206 177 165 107 192 114 103 131 215 228 158 69 128 121
109 159 150 181 144 173 221 95 65 220 175 97 57 190 153 132 178 97 162 206 98 150 4 8 102 87 86 125 5 1 0 0
0 0 14 36 131 109 56 206 160 208 136 229 172 83 106 252 185 157 198 186 102 226 117 113 84 153 94 106 64 148 215 58
149 87 206 120 132 231 199 166 163 115 78 168 236 232 142 108 160 188 155 58 179 161 8 11 244 86 88 109 2 1 0 0
0 0 0 30 94 116 14 18 65 163 152 218 184 194 111 246 139 129 231 53 157 153 207 94 74 169 198 136 153 189 163 110
109 232 217 172 75 114 72 182 173 239 144 182 185 187 5 14 210 175 95 203 100 136 190 138 113 127 89 69 15 0 0 0
0 0 0 20 68 50 9 20 161 149 111 211 178 219 175 218 133 243 127 118 58 202 134 52 140 164 139 189 147 187 179 163
127 78 146 67 100 173 63 175 155 165 117 239 162 148 10 18 195 83 87 245 145 134 211 168 94 134 87 69 8 0 0 0
0 0 0 1 2 4 160 182 91 133 251 153 172 238 181 131 62 207 101 163 158 114 19 4 157 202 177 109 78 148 124 162
177 158 203 132 194 190 162 188 80 152 61 117 210 130 65 154 94 122 76 133 169 174 204 184 100 111 5 3 1 0 0 0
0 0 0 0 1 3 96 159 142 149 244 155 113 173 110 69 154 173 158 121 158 121 5 14 98 144 133 151 128 138 167 167
196 231 158 75 198 128 125 142 165 177 92 138 135 132 106 78 163 188 124 216 156 164 208 145 116 78 6 1 0 0 0 0
0 0 0 0 0 22 70 85 145 129 245 70 162 194 186 113 143 211 151 169 164 178 138 75 157 178 119 138 178 160 130 135
230 83 138 113 232 115 116 156 200 147 188 202 64 108 9 16 56 170 180 146 62 193 173 85 99 60 21 0 0 0 0 0
0 0 0 0 0 7 68 98 101 149 88 118 83 75 195 150 114 204 60 154 189 149 202 184 142 129 60 162 115 52 134 79
169 92 105 148 150 83 82 200 239 106 191 225 74 135 7 15 157 155 150 76 57 194 80 143 69 48 15 0 0 0 0 0
0 0 0 0 0 0 31 47 87 63 12 14 53 157 118 90 123 132 158 177 123 172 169 110 129 125 10 11 154 84 140 201
118 169 155 155 245 141 13 12 234 135 200 74 173 132 233 106 103 61 137 158 131 194 140 110 1 1 0 0 0 0 0 0
0 0 0 0 0 0 0 25 53 73 8 11 124 212 113 152 63 150 96 212 154 163 49 234 147 240 12 10 170 84 88 244
114 171 82 219 185 123 10 7 154 141 131 153 63 165 251 144 84 143 229 177 153 95 57 43 2 0 0 0 0 0 0 0
0 0 0 0 0 0 0 2 44 81 93 88 104 161 68 113 183 128 169 192 243 130 102 197 10 11 16 16 115 44 189 213
181 123 119 180 172 90 14 10 144 118 131 171 51 142 123 56 166 62 14 11 71 131 5 3 2 0 0 0 0 0 0 0
0 0 0 0 0 0 0 0 9 35 45 91 114 56 109 141 225 153 158 197 140 111 95 224 9 15 14 11 163 163 164 215
175 101 176 191 64 102 13 5 190 42 207 151 101 196 225 165 192 179 13 7 106 83 3 0 0 0 0 0 0 0 0 0
0 0 0 0 0 0 0 0 0 11 26 68 118 58 107 191 203 141 12 13 190 116 141 217 226 123 187 87 160 208 137 80
144 147 14 17 161 228 140 69 53 163 151 107 67 227 184 115 14 12 172 78 71 15 0 0 0 0 0 0 0 0 0 0
0 0 0 0 0 0 0 0 0 0 6 21 72 50 64 167 177 155 16 15 134 174 140 204 222 160 92 215 183 138 192 110
109 127 9 8 134 222 91 66 141 161 166 131 140 199 191 161 12 11 103 36 45 7 0 0 0 0 0 0 0 0 0 0
0 0 0 0 0 0 0 0 0 0 0 3 24 18 69 149 114 39 8 8 171 175 150 174 120 163 217 118 181 229 20 10
6 14 75 232 78 158 242 133 135 186 118 52 5 17 107 72 12 10 67 12 2 0 0 0 0 0 0 0 0 0 0 0
0 0 0 0 0 0 0 0 0 0 0 0 0 14 35 72 73 48 10 13 142 116 217 157 165 150 175 206 173 191 8 7
11 5 187 157 64 166 118 132 162 143 48 196 16 7 42 76 7 5 17 0 0 0 0 0 0 0 0 0 0 0 0 0
0 0 0 0 0 0 0 0 0 0 0 0 0 0 8 40 63 36 144 96 100 140 180 73 152 138 156 118 111 214 199 113
84 81 100 121 160 139 118 148 166 77 120 172 151 75 45 18 27 5 0 0 0 0 0 0 0 0 0 0 0 0 0 0
0 0 0 0 0 0 0 0 0 0 0 0 0 0 0 0 12 46 84 66 37 119 185 104 143 98 205 107 156 170 123 138
140 162 218 101 92 189 155 87 131 183 104 102 112 60 37 18 0 0 0 0 0 0 0 0 0 0 0 0 0 0 0 0
0 0 0 0 0 0 0 0 0 0 0 0 0 0 0 0 0 1 19 24 35 46 112 60 58 89 121 116 107 196 181 169
107 177 140 98 55 158 136 76 71 107 26 42 57 15 1 0 0 0 0 0 0 0 0 0 0 0 0 0 0 0 0 0
0 0 0 0 0 0 0 0 0 0 0 0 0 0 0 0 0 0 0 0 14 35 59 50 36 87 70 65 60 122 50 126
89 94 135 82 91 41 64 83 62 55 26 7 0 0 0 0 0 0 0 0 0 0 0 0 0 0 0 0 0 0 0 0
0 0 0 0 0 0 0 0 0 0 0 0 0 0 0 0 0 0 0 0 0 0 0 1 1 4 3 4 59 36 3 5
59 35 73 22 5 3 11 34 16 2 0 0 0 0 0 0 0 0 0 0 0 0 0 0 0 0 0 0 0 0 0 0
0 0 0 0 0 0 0 0 0 0 0 0 0 0 0 0 0 0 0 0 0 0 0 0 0 0 0 0 9 13 1 2
31 20 16 10 1 0 0 0 0 0 0 0 0 0 0 0 0 0 0 0 0 0 0 0 0 0 0 0 0 0 0 0
